app/src/main/assets/luts/airy_white.cube
TITLE "Airy White"
LUT_3D_SIZE 5
DOMAIN_MIN 0.0 0.0 0.0
DOMAIN_MAX 1.0 1.0 1.0
0.061500 0.061500 0.070000
0.343438 0.102516 0.111016
0.581633 0.138245 0.146745
0.805290 0.171793 0.180293
1.000000 0.201000 0.209500
0.102516 0.343438 0.111016
0.343438 0.343438 0.111016
0.581633 0.379167 0.146745
0.805290 0.412716 0.180293
1.000000 0.441923 0.209500
0.138245 0.581633 0.146745
0.379167 0.581633 0.146745
0.581633 0.581633 0.146745
0.805290 0.615181 0.180293
1.000000 0.644388 0.209500
0.171793 0.805290 0.180293
0.412716 0.805290 0.180293
0.615181 0.805290 0.180293
0.805290 0.805290 0.180293
1.000000 0.834496 0.209500
0.201000 1.000000 0.209500
0.441923 1.000000 0.209500
0.644388 1.000000 0.209500
0.834496 1.000000 0.209500
1.000000 1.000000 0.209500
0.104016 0.104016 0.353438
0.344938 0.104016 0.353438
0.581633 0.138245 0.387667
0.805290 0.171793 0.421216
1.000000 0.201000 0.450423
0.104016 0.344938 0.353438
0.344938 0.344938 0.353438
0.581633 0.379167 0.387667
0.805290 0.412716 0.421216
1.000000 0.441923 0.450423
0.138245 0.581633 0.387667
0.379167 0.581633 0.387667
0.581633 0.581633 0.387667
0.805290 0.615181 0.421216
1.000000 0.644388 0.450423
0.171793 0.805290 0.421216
0.412716 0.805290 0.421216
0.615181 0.805290 0.421216
0.805290 0.805290 0.421216
1.000000 0.834496 0.450423
0.201000 1.000000 0.450423
0.441923 1.000000 0.450423
0.644388 1.000000 0.450423
0.834496 1.000000 0.450423
1.000000 1.000000 0.450423
0.139745 0.139745 0.591633
0.380667 0.139745 0.591633
0.583133 0.139745 0.591633
0.805290 0.171793 0.623681
1.000000 0.201000 0.652888
0.139745 0.380667 0.591633
0.380667 0.380667 0.591633
0.583133 0.380667 0.591633
0.805290 0.412716 0.623681
1.000000 0.441923 0.652888
0.139745 0.583133 0.591633
0.380667 0.583133 0.591633
0.583133 0.583133 0.591633
0.805290 0.615181 0.623681
1.000000 0.644388 0.652888
0.171793 0.805290 0.623681
0.412716 0.805290 0.623681
0.615181 0.805290 0.623681
0.805290 0.805290 0.623681
1.000000 0.834496 0.652888
0.201000 1.000000 0.652888
0.441923 1.000000 0.652888
0.644388 1.000000 0.652888
0.834496 1.000000 0.652888
1.000000 1.000000 0.652888
0.173293 0.173293 0.815290
0.414216 0.173293 0.815290
0.616681 0.173293 0.815290
0.806790 0.173293 0.815290
1.000000 0.201000 0.842996
0.173293 0.414216 0.815290
0.414216 0.414216 0.815290
0.616681 0.414216 0.815290
0.806790 0.414216 0.815290
1.000000 0.441923 0.842996
0.173293 0.616681 0.815290
0.414216 0.616681 0.815290
0.616681 0.616681 0.815290
0.806790 0.616681 0.815290
1.000000 0.644388 0.842996
0.173293 0.806790 0.815290
0.414216 0.806790 0.815290
0.616681 0.806790 0.815290
0.806790 0.806790 0.815290
1.000000 0.834496 0.842996
0.201000 1.000000 0.842996
0.441923 1.000000 0.842996
0.644388 1.000000 0.842996
0.834496 1.000000 0.842996
1.000000 1.000000 0.842996
0.201000 0.201000 1.000000
0.441923 0.201000 1.000000
0.644388 0.201000 1.000000
0.834496 0.201000 1.000000
1.000000 0.201000 1.000000
0.201000 0.441923 1.000000
0.441923 0.441923 1.000000
0.644388 0.441923 1.000000
0.834496 0.441923 1.000000
1.000000 0.441923 1.000000
0.201000 0.644388 1.000000
0.441923 0.644388 1.000000
0.644388 0.644388 1.000000
0.834496 0.644388 1.000000
1.000000 0.644388 1.000000
0.201000 0.834496 1.000000
0.441923 0.834496 1.000000
0.644388 0.834496 1.000000
0.834496 0.834496 1.000000
1.000000 0.834496 1.000000
0.201000 1.000000 1.000000
0.441923 1.000000 1.000000
0.644388 1.000000 1.000000
0.834496 1.000000 1.000000
1.000000 1.000000 1.000000
