app/src/main/assets/luts/airy_white.cube
TITLE "Airy White"
LUT_3D_SIZE 33
DOMAIN_MIN 0.0 0.0 0.0
DOMAIN_MAX 1.0 1.0 1.0
0.061500 0.061500 0.070000
0.105471 0.066821 0.075321
0.143685 0.072553 0.081053
0.179566 0.077935 0.086435
0.214011 0.083102 0.091602
0.247427 0.088114 0.096614
0.280045 0.093007 0.101507
0.312014 0.097802 0.106302
0.343438 0.102516 0.111016
0.374393 0.107159 0.115659
0.404937 0.111740 0.120240
0.435115 0.116267 0.124767
0.464966 0.120745 0.129245
0.494520 0.125178 0.133678
0.523801 0.129570 0.138070
0.552833 0.133925 0.142425
0.581633 0.138245 0.146745
0.610217 0.142533 0.151033
0.638601 0.146790 0.155290
0.666796 0.151019 0.159519
0.694813 0.155222 0.163722
0.722662 0.159399 0.167899
0.750353 0.163553 0.172053
0.777893 0.167684 0.176184
0.805290 0.171793 0.180293
0.832550 0.175882 0.184382
0.859679 0.179952 0.188452
0.886684 0.184003 0.192503
0.913568 0.188035 0.196535
0.940338 0.192051 0.200551
0.966997 0.196050 0.204550
0.993550 0.200032 0.208532
1.000000 0.201000 0.209500
0.066821 0.105471 0.075321
0.105471 0.105471 0.075321
0.143685 0.111203 0.081053
0.179566 0.116586 0.086435
0.214011 0.121752 0.091602
0.247427 0.126765 0.096614
0.280045 0.131658 0.101507
0.312014 0.136453 0.106302
0.343438 0.141167 0.111016
0.374393 0.145810 0.115659
0.404937 0.150391 0.120240
0.435115 0.154918 0.124767
0.464966 0.159396 0.129245
0.494520 0.163829 0.133678
0.523801 0.168221 0.138070
0.552833 0.172576 0.142425
0.581633 0.176896 0.146745
0.610217 0.181183 0.151033
0.638601 0.185441 0.155290
0.666796 0.189670 0.159519
0.694813 0.193873 0.163722
0.722662 0.198050 0.167899
0.750353 0.202204 0.172053
0.777893 0.206335 0.176184
0.805290 0.210444 0.180293
0.832550 0.214533 0.184382
0.859679 0.218603 0.188452
0.886684 0.222653 0.192503
0.913568 0.226686 0.196535
0.940338 0.230701 0.200551
0.966997 0.234700 0.204550
0.993550 0.238683 0.208532
1.000000 0.239651 0.209500
0.072553 0.143685 0.081053
0.111203 0.143685 0.081053
0.143685 0.143685 0.081053
0.179566 0.149067 0.086435
0.214011 0.154234 0.091602
0.247427 0.159246 0.096614
0.280045 0.164139 0.101507
0.312014 0.168934 0.106302
0.343438 0.173648 0.111016
0.374393 0.178291 0.115659
0.404937 0.182872 0.120240
0.435115 0.187399 0.124767
0.464966 0.191877 0.129245
0.494520 0.196310 0.133678
0.523801 0.200702 0.138070
0.552833 0.205057 0.142425
0.581633 0.209377 0.146745
0.610217 0.213665 0.151033
0.638601 0.217922 0.155290
0.666796 0.222151 0.159519
0.694813 0.226354 0.163722
0.722662 0.230531 0.167899
0.750353 0.234685 0.172053
0.777893 0.238816 0.176184
0.805290 0.242925 0.180293
0.832550 0.247014 0.184382
0.859679 0.251084 0.188452
0.886684 0.255134 0.192503
0.913568 0.259167 0.196535
0.940338 0.263183 0.200551
0.966997 0.267182 0.204550
0.993550 0.271164 0.208532
1.000000 0.272132 0.209500
0.077935 0.179566 0.086435
0.116586 0.179566 0.086435
0.149067 0.179566 0.086435
0.179566 0.179566 0.086435
0.214011 0.184732 0.091602
0.247427 0.189745 0.096614
0.280045 0.194638 0.101507
0.312014 0.199433 0.106302
0.343438 0.204146 0.111016
0.374393 0.208790 0.115659
0.404937 0.213371 0.120240
0.435115 0.217898 0.124767
0.464966 0.222376 0.129245
0.494520 0.226809 0.133678
0.523801 0.231201 0.138070
0.552833 0.235556 0.142425
0.581633 0.239876 0.146745
0.610217 0.244163 0.151033
0.638601 0.248421 0.155290
0.666796 0.252650 0.159519
0.694813 0.256853 0.163722
0.722662 0.261030 0.167899
0.750353 0.265184 0.172053
0.777893 0.269315 0.176184
0.805290 0.273424 0.180293
0.832550 0.277513 0.184382
0.859679 0.281583 0.188452
0.886684 0.285633 0.192503
0.913568 0.289666 0.196535
0.940338 0.293681 0.200551
0.966997 0.297680 0.204550
0.993550 0.301663 0.208532
1.000000 0.302631 0.209500
0.083102 0.214011 0.091602
0.121752 0.214011 0.091602
0.154234 0.214011 0.091602
0.184732 0.214011 0.091602
0.214011 0.214011 0.091602
0.247427 0.219024 0.096614
0.280045 0.223916 0.101507
0.312014 0.228712 0.106302
0.343438 0.233425 0.111016
0.374393 0.238068 0.115659
0.404937 0.242650 0.120240
0.435115 0.247177 0.124767
0.464966 0.251654 0.129245
0.494520 0.256087 0.133678
0.523801 0.260480 0.138070
0.552833 0.264834 0.142425
0.581633 0.269154 0.146745
0.610217 0.273442 0.151033
0.638601 0.277700 0.155290
0.666796 0.281929 0.159519
0.694813 0.286131 0.163722
0.722662 0.290309 0.167899
0.750353 0.294462 0.172053
0.777893 0.298593 0.176184
0.805290 0.302703 0.180293
0.832550 0.306792 0.184382
0.859679 0.310861 0.188452
0.886684 0.314912 0.192503
0.913568 0.318945 0.196535
0.940338 0.322960 0.200551
0.966997 0.326959 0.204550
0.993550 0.330942 0.208532
1.000000 0.331909 0.209500
0.088114 0.247427 0.096614
0.126765 0.247427 0.096614
0.159246 0.247427 0.096614
0.189745 0.247427 0.096614
0.219024 0.247427 0.096614
0.247427 0.247427 0.096614
0.280045 0.252320 0.101507
0.312014 0.257115 0.106302
0.343438 0.261829 0.111016
0.374393 0.266472 0.115659
0.404937 0.271054 0.120240
0.435115 0.275581 0.124767
0.464966 0.280058 0.129245
0.494520 0.284491 0.133678
0.523801 0.288883 0.138070
0.552833 0.293238 0.142425
0.581633 0.297558 0.146745
0.610217 0.301846 0.151033
0.638601 0.306103 0.155290
0.666796 0.310333 0.159519
0.694813 0.314535 0.163722
0.722662 0.318713 0.167899
0.750353 0.322866 0.172053
0.777893 0.326997 0.176184
0.805290 0.331107 0.180293
0.832550 0.335196 0.184382
0.859679 0.339265 0.188452
0.886684 0.343316 0.192503
0.913568 0.347348 0.196535
0.940338 0.351364 0.200551
0.966997 0.355363 0.204550
0.993550 0.359346 0.208532
1.000000 0.360313 0.209500
0.093007 0.280045 0.101507
0.131658 0.280045 0.101507
0.164139 0.280045 0.101507
0.194638 0.280045 0.101507
0.223916 0.280045 0.101507
0.252320 0.280045 0.101507
0.280045 0.280045 0.101507
0.312014 0.284841 0.106302
0.343438 0.289554 0.111016
0.374393 0.294198 0.115659
0.404937 0.298779 0.120240
0.435115 0.303306 0.124767
0.464966 0.307784 0.129245
0.494520 0.312217 0.133678
0.523801 0.316609 0.138070
0.552833 0.320964 0.142425
0.581633 0.325284 0.146745
0.610217 0.329571 0.151033
0.638601 0.333829 0.155290
0.666796 0.338058 0.159519
0.694813 0.342261 0.163722
0.722662 0.346438 0.167899
0.750353 0.350592 0.172053
0.777893 0.354723 0.176184
0.805290 0.358832 0.180293
0.832550 0.362921 0.184382
0.859679 0.366990 0.188452
0.886684 0.371041 0.192503
0.913568 0.375074 0.196535
0.940338 0.379089 0.200551
0.966997 0.383088 0.204550
0.993550 0.387071 0.208532
1.000000 0.388039 0.209500
0.097802 0.312014 0.106302
0.136453 0.312014 0.106302
0.168934 0.312014 0.106302
0.199433 0.312014 0.106302
0.228712 0.312014 0.106302
0.257115 0.312014 0.106302
0.284841 0.312014 0.106302
0.312014 0.312014 0.106302
0.343438 0.316728 0.111016
0.374393 0.321371 0.115659
0.404937 0.325953 0.120240
0.435115 0.330480 0.124767
0.464966 0.334957 0.129245
0.494520 0.339390 0.133678
0.523801 0.343783 0.138070
0.552833 0.348137 0.142425
0.581633 0.352457 0.146745
0.610217 0.356745 0.151033
0.638601 0.361002 0.155290
0.666796 0.365232 0.159519
0.694813 0.369434 0.163722
0.722662 0.373612 0.167899
0.750353 0.377765 0.172053
0.777893 0.381896 0.176184
0.805290 0.386006 0.180293
0.832550 0.390095 0.184382
0.859679 0.394164 0.188452
0.886684 0.398215 0.192503
0.913568 0.402248 0.196535
0.940338 0.406263 0.200551
0.966997 0.410262 0.204550
0.993550 0.414245 0.208532
1.000000 0.415212 0.209500
0.102516 0.343438 0.111016
0.141167 0.343438 0.111016
0.173648 0.343438 0.111016
0.204146 0.343438 0.111016
0.233425 0.343438 0.111016
0.261829 0.343438 0.111016
0.289554 0.343438 0.111016
0.316728 0.343438 0.111016
0.343438 0.343438 0.111016
0.374393 0.348081 0.115659
0.404937 0.352663 0.120240
0.435115 0.357190 0.124767
0.464966 0.361667 0.129245
0.494520 0.366100 0.133678
0.523801 0.370493 0.138070
0.552833 0.374847 0.142425
0.581633 0.379167 0.146745
0.610217 0.383455 0.151033
0.638601 0.387713 0.155290
0.666796 0.391942 0.159519
0.694813 0.396144 0.163722
0.722662 0.400322 0.167899
0.750353 0.404475 0.172053
0.777893 0.408606 0.176184
0.805290 0.412716 0.180293
0.832550 0.416805 0.184382
0.859679 0.420874 0.188452
0.886684 0.424925 0.192503
0.913568 0.428958 0.196535
0.940338 0.432973 0.200551
0.966997 0.436972 0.204550
0.993550 0.440955 0.208532
1.000000 0.441923 0.209500
0.107159 0.374393 0.115659
0.145810 0.374393 0.115659
0.178291 0.374393 0.115659
0.208790 0.374393 0.115659
0.238068 0.374393 0.115659
0.266472 0.374393 0.115659
0.294198 0.374393 0.115659
0.321371 0.374393 0.115659
0.348081 0.374393 0.115659
0.374393 0.374393 0.115659
0.404937 0.378974 0.120240
0.435115 0.383501 0.124767
0.464966 0.387979 0.129245
0.494520 0.392412 0.133678
0.523801 0.396804 0.138070
0.552833 0.401159 0.142425
0.581633 0.405479 0.146745
0.610217 0.409767 0.151033
0.638601 0.414024 0.155290
0.666796 0.418253 0.159519
0.694813 0.422456 0.163722
0.722662 0.426633 0.167899
0.750353 0.430787 0.172053
0.777893 0.434918 0.176184
0.805290 0.439027 0.180293
0.832550 0.443116 0.184382
0.859679 0.447186 0.188452
0.886684 0.451236 0.192503
0.913568 0.455269 0.196535
0.940338 0.459285 0.200551
0.966997 0.463284 0.204550
0.993550 0.467266 0.208532
1.000000 0.468234 0.209500
0.111740 0.404937 0.120240
0.150391 0.404937 0.120240
0.182872 0.404937 0.120240
0.213371 0.404937 0.120240
0.242650 0.404937 0.120240
0.271054 0.404937 0.120240
0.298779 0.404937 0.120240
0.325953 0.404937 0.120240
0.352663 0.404937 0.120240
0.378974 0.404937 0.120240
0.404937 0.404937 0.120240
0.435115 0.409463 0.124767
0.464966 0.413941 0.129245
0.494520 0.418374 0.133678
0.523801 0.422766 0.138070
0.552833 0.427121 0.142425
0.581633 0.431441 0.146745
0.610217 0.435729 0.151033
0.638601 0.439986 0.155290
0.666796 0.444215 0.159519
0.694813 0.448418 0.163722
0.722662 0.452595 0.167899
0.750353 0.456749 0.172053
0.777893 0.460880 0.176184
0.805290 0.464990 0.180293
0.832550 0.469079 0.184382
0.859679 0.473148 0.188452
0.886684 0.477199 0.192503
0.913568 0.481231 0.196535
0.940338 0.485247 0.200551
0.966997 0.489246 0.204550
0.993550 0.493229 0.208532
1.000000 0.494196 0.209500
0.116267 0.435115 0.124767
0.154918 0.435115 0.124767
0.187399 0.435115 0.124767
0.217898 0.435115 0.124767
0.247177 0.435115 0.124767
0.275581 0.435115 0.124767
0.303306 0.435115 0.124767
0.330480 0.435115 0.124767
0.357190 0.435115 0.124767
0.383501 0.435115 0.124767
0.409463 0.435115 0.124767
0.435115 0.435115 0.124767
0.464966 0.439593 0.129245
0.494520 0.444026 0.133678
0.523801 0.448418 0.138070
0.552833 0.452773 0.142425
0.581633 0.457093 0.146745
0.610217 0.461381 0.151033
0.638601 0.465638 0.155290
0.666796 0.469867 0.159519
0.694813 0.474070 0.163722
0.722662 0.478247 0.167899
0.750353 0.482401 0.172053
0.777893 0.486532 0.176184
0.805290 0.490641 0.180293
0.832550 0.494730 0.184382
0.859679 0.498800 0.188452
0.886684 0.502851 0.192503
0.913568 0.506883 0.196535
0.940338 0.510899 0.200551
0.966997 0.514898 0.204550
0.993550 0.518881 0.208532
1.000000 0.519848 0.209500
0.120745 0.464966 0.129245
0.159396 0.464966 0.129245
0.191877 0.464966 0.129245
0.222376 0.464966 0.129245
0.251654 0.464966 0.129245
0.280058 0.464966 0.129245
0.307784 0.464966 0.129245
0.334957 0.464966 0.129245
0.361667 0.464966 0.129245
0.387979 0.464966 0.129245
0.413941 0.464966 0.129245
0.439593 0.464966 0.129245
0.464966 0.464966 0.129245
0.494520 0.469399 0.133678
0.523801 0.473791 0.138070
0.552833 0.478146 0.142425
0.581633 0.482466 0.146745
0.610217 0.486754 0.151033
0.638601 0.491011 0.155290
0.666796 0.495241 0.159519
0.694813 0.499443 0.163722
0.722662 0.503621 0.167899
0.750353 0.507774 0.172053
0.777893 0.511905 0.176184
0.805290 0.516015 0.180293
0.832550 0.520104 0.184382
0.859679 0.524173 0.188452
0.886684 0.528224 0.192503
0.913568 0.532257 0.196535
0.940338 0.536272 0.200551
0.966997 0.540271 0.204550
0.993550 0.544254 0.208532
1.000000 0.545221 0.209500
0.125178 0.494520 0.133678
0.163829 0.494520 0.133678
0.196310 0.494520 0.133678
0.226809 0.494520 0.133678
0.256087 0.494520 0.133678
0.284491 0.494520 0.133678
0.312217 0.494520 0.133678
0.339390 0.494520 0.133678
0.366100 0.494520 0.133678
0.392412 0.494520 0.133678
0.418374 0.494520 0.133678
0.444026 0.494520 0.133678
0.469399 0.494520 0.133678
0.494520 0.494520 0.133678
0.523801 0.498912 0.138070
0.552833 0.503267 0.142425
0.581633 0.507587 0.146745
0.610217 0.511874 0.151033
0.638601 0.516132 0.155290
0.666796 0.520361 0.159519
0.694813 0.524564 0.163722
0.722662 0.528741 0.167899
0.750353 0.532895 0.172053
0.777893 0.537026 0.176184
0.805290 0.541135 0.180293
0.832550 0.545224 0.184382
0.859679 0.549294 0.188452
0.886684 0.553344 0.192503
0.913568 0.557377 0.196535
0.940338 0.561392 0.200551
0.966997 0.565391 0.204550
0.993550 0.569374 0.208532
1.000000 0.570342 0.209500
0.129570 0.523801 0.138070
0.168221 0.523801 0.138070
0.200702 0.523801 0.138070
0.231201 0.523801 0.138070
0.260480 0.523801 0.138070
0.288883 0.523801 0.138070
0.316609 0.523801 0.138070
0.343783 0.523801 0.138070
0.370493 0.523801 0.138070
0.396804 0.523801 0.138070
0.422766 0.523801 0.138070
0.448418 0.523801 0.138070
0.473791 0.523801 0.138070
0.498912 0.523801 0.138070
0.523801 0.523801 0.138070
0.552833 0.528156 0.142425
0.581633 0.532476 0.146745
0.610217 0.536764 0.151033
0.638601 0.541021 0.155290
0.666796 0.545250 0.159519
0.694813 0.549453 0.163722
0.722662 0.553630 0.167899
0.750353 0.557784 0.172053
0.777893 0.561915 0.176184
0.805290 0.566025 0.180293
0.832550 0.570114 0.184382
0.859679 0.574183 0.188452
0.886684 0.578234 0.192503
0.913568 0.582266 0.196535
0.940338 0.586282 0.200551
0.966997 0.590281 0.204550
0.993550 0.594264 0.208532
1.000000 0.595231 0.209500
0.133925 0.552833 0.142425
0.172576 0.552833 0.142425
0.205057 0.552833 0.142425
0.235556 0.552833 0.142425
0.264834 0.552833 0.142425
0.293238 0.552833 0.142425
0.320964 0.552833 0.142425
0.348137 0.552833 0.142425
0.374847 0.552833 0.142425
0.401159 0.552833 0.142425
0.427121 0.552833 0.142425
0.452773 0.552833 0.142425
0.478146 0.552833 0.142425
0.503267 0.552833 0.142425
0.528156 0.552833 0.142425
0.552833 0.552833 0.142425
0.581633 0.557153 0.146745
0.610217 0.561440 0.151033
0.638601 0.565698 0.155290
0.666796 0.569927 0.159519
0.694813 0.574130 0.163722
0.722662 0.578307 0.167899
0.750353 0.582461 0.172053
0.777893 0.586592 0.176184
0.805290 0.590701 0.180293
0.832550 0.594790 0.184382
0.859679 0.598860 0.188452
0.886684 0.602910 0.192503
0.913568 0.606943 0.196535
0.940338 0.610959 0.200551
0.966997 0.614957 0.204550
0.993550 0.618940 0.208532
1.000000 0.619908 0.209500
0.138245 0.581633 0.146745
0.176896 0.581633 0.146745
0.209377 0.581633 0.146745
0.239876 0.581633 0.146745
0.269154 0.581633 0.146745
0.297558 0.581633 0.146745
0.325284 0.581633 0.146745
0.352457 0.581633 0.146745
0.379167 0.581633 0.146745
0.405479 0.581633 0.146745
0.431441 0.581633 0.146745
0.457093 0.581633 0.146745
0.482466 0.581633 0.146745
0.507587 0.581633 0.146745
0.532476 0.581633 0.146745
0.557153 0.581633 0.146745
0.581633 0.581633 0.146745
0.610217 0.585920 0.151033
0.638601 0.590178 0.155290
0.666796 0.594407 0.159519
0.694813 0.598610 0.163722
0.722662 0.602787 0.167899
0.750353 0.606941 0.172053
0.777893 0.611072 0.176184
0.805290 0.615181 0.180293
0.832550 0.619270 0.184382
0.859679 0.623340 0.188452
0.886684 0.627390 0.192503
0.913568 0.631423 0.196535
0.940338 0.635439 0.200551
0.966997 0.639437 0.204550
0.993550 0.643420 0.208532
1.000000 0.644388 0.209500
0.142533 0.610217 0.151033
0.181183 0.610217 0.151033
0.213665 0.610217 0.151033
0.244163 0.610217 0.151033
0.273442 0.610217 0.151033
0.301846 0.610217 0.151033
0.329571 0.610217 0.151033
0.356745 0.610217 0.151033
0.383455 0.610217 0.151033
0.409767 0.610217 0.151033
0.435729 0.610217 0.151033
0.461381 0.610217 0.151033
0.486754 0.610217 0.151033
0.511874 0.610217 0.151033
0.536764 0.610217 0.151033
0.561440 0.610217 0.151033
0.585920 0.610217 0.151033
0.610217 0.610217 0.151033
0.638601 0.614475 0.155290
0.666796 0.618704 0.159519
0.694813 0.622907 0.163722
0.722662 0.627084 0.167899
0.750353 0.631238 0.172053
0.777893 0.635369 0.176184
0.805290 0.639478 0.180293
0.832550 0.643567 0.184382
0.859679 0.647637 0.188452
0.886684 0.651687 0.192503
0.913568 0.655720 0.196535
0.940338 0.659735 0.200551
0.966997 0.663734 0.204550
0.993550 0.667717 0.208532
1.000000 0.668685 0.209500
0.146790 0.638601 0.155290
0.185441 0.638601 0.155290
0.217922 0.638601 0.155290
0.248421 0.638601 0.155290
0.277700 0.638601 0.155290
0.306103 0.638601 0.155290
0.333829 0.638601 0.155290
0.361002 0.638601 0.155290
0.387713 0.638601 0.155290
0.414024 0.638601 0.155290
0.439986 0.638601 0.155290
0.465638 0.638601 0.155290
0.491011 0.638601 0.155290
0.516132 0.638601 0.155290
0.541021 0.638601 0.155290
0.565698 0.638601 0.155290
0.590178 0.638601 0.155290
0.614475 0.638601 0.155290
0.638601 0.638601 0.155290
0.666796 0.642830 0.159519
0.694813 0.647033 0.163722
0.722662 0.651210 0.167899
0.750353 0.655364 0.172053
0.777893 0.659495 0.176184
0.805290 0.663604 0.180293
0.832550 0.667693 0.184382
0.859679 0.671763 0.188452
0.886684 0.675813 0.192503
0.913568 0.679846 0.196535
0.940338 0.683861 0.200551
0.966997 0.687860 0.204550
0.993550 0.691843 0.208532
1.000000 0.692811 0.209500
0.151019 0.666796 0.159519
0.189670 0.666796 0.159519
0.222151 0.666796 0.159519
0.252650 0.666796 0.159519
0.281929 0.666796 0.159519
0.310333 0.666796 0.159519
0.338058 0.666796 0.159519
0.365232 0.666796 0.159519
0.391942 0.666796 0.159519
0.418253 0.666796 0.159519
0.444215 0.666796 0.159519
0.469867 0.666796 0.159519
0.495241 0.666796 0.159519
0.520361 0.666796 0.159519
0.545250 0.666796 0.159519
0.569927 0.666796 0.159519
0.594407 0.666796 0.159519
0.618704 0.666796 0.159519
0.642830 0.666796 0.159519
0.666796 0.666796 0.159519
0.694813 0.670998 0.163722
0.722662 0.675176 0.167899
0.750353 0.679329 0.172053
0.777893 0.683460 0.176184
0.805290 0.687570 0.180293
0.832550 0.691659 0.184382
0.859679 0.695728 0.188452
0.886684 0.699779 0.192503
0.913568 0.703812 0.196535
0.940338 0.707827 0.200551
0.966997 0.711826 0.204550
0.993550 0.715809 0.208532
1.000000 0.716776 0.209500
0.155222 0.694813 0.163722
0.193873 0.694813 0.163722
0.226354 0.694813 0.163722
0.256853 0.694813 0.163722
0.286131 0.694813 0.163722
0.314535 0.694813 0.163722
0.342261 0.694813 0.163722
0.369434 0.694813 0.163722
0.396144 0.694813 0.163722
0.422456 0.694813 0.163722
0.448418 0.694813 0.163722
0.474070 0.694813 0.163722
0.499443 0.694813 0.163722
0.524564 0.694813 0.163722
0.549453 0.694813 0.163722
0.574130 0.694813 0.163722
0.598610 0.694813 0.163722
0.622907 0.694813 0.163722
0.647033 0.694813 0.163722
0.670998 0.694813 0.163722
0.694813 0.694813 0.163722
0.722662 0.698990 0.167899
0.750353 0.703144 0.172053
0.777893 0.707275 0.176184
0.805290 0.711384 0.180293
0.832550 0.715473 0.184382
0.859679 0.719543 0.188452
0.886684 0.723593 0.192503
0.913568 0.727626 0.196535
0.940338 0.731642 0.200551
0.966997 0.735640 0.204550
0.993550 0.739623 0.208532
1.000000 0.740591 0.209500
0.159399 0.722662 0.167899
0.198050 0.722662 0.167899
0.230531 0.722662 0.167899
0.261030 0.722662 0.167899
0.290309 0.722662 0.167899
0.318713 0.722662 0.167899
0.346438 0.722662 0.167899
0.373612 0.722662 0.167899
0.400322 0.722662 0.167899
0.426633 0.722662 0.167899
0.452595 0.722662 0.167899
0.478247 0.722662 0.167899
0.503621 0.722662 0.167899
0.528741 0.722662 0.167899
0.553630 0.722662 0.167899
0.578307 0.722662 0.167899
0.602787 0.722662 0.167899
0.627084 0.722662 0.167899
0.651210 0.722662 0.167899
0.675176 0.722662 0.167899
0.698990 0.722662 0.167899
0.722662 0.722662 0.167899
0.750353 0.726816 0.172053
0.777893 0.730947 0.176184
0.805290 0.735056 0.180293
0.832550 0.739145 0.184382
0.859679 0.743215 0.188452
0.886684 0.747265 0.192503
0.913568 0.751298 0.196535
0.940338 0.755314 0.200551
0.966997 0.759312 0.204550
0.993550 0.763295 0.208532
1.000000 0.764263 0.209500
0.163553 0.750353 0.172053
0.202204 0.750353 0.172053
0.234685 0.750353 0.172053
0.265184 0.750353 0.172053
0.294462 0.750353 0.172053
0.322866 0.750353 0.172053
0.350592 0.750353 0.172053
0.377765 0.750353 0.172053
0.404475 0.750353 0.172053
0.430787 0.750353 0.172053
0.456749 0.750353 0.172053
0.482401 0.750353 0.172053
0.507774 0.750353 0.172053
0.532895 0.750353 0.172053
0.557784 0.750353 0.172053
0.582461 0.750353 0.172053
0.606941 0.750353 0.172053
0.631238 0.750353 0.172053
0.655364 0.750353 0.172053
0.679329 0.750353 0.172053
0.703144 0.750353 0.172053
0.726816 0.750353 0.172053
0.750353 0.750353 0.172053
0.777893 0.754484 0.176184
0.805290 0.758594 0.180293
0.832550 0.762683 0.184382
0.859679 0.766752 0.188452
0.886684 0.770803 0.192503
0.913568 0.774835 0.196535
0.940338 0.778851 0.200551
0.966997 0.782850 0.204550
0.993550 0.786833 0.208532
1.000000 0.787800 0.209500
0.167684 0.777893 0.176184
0.206335 0.777893 0.176184
0.238816 0.777893 0.176184
0.269315 0.777893 0.176184
0.298593 0.777893 0.176184
0.326997 0.777893 0.176184
0.354723 0.777893 0.176184
0.381896 0.777893 0.176184
0.408606 0.777893 0.176184
0.434918 0.777893 0.176184
0.460880 0.777893 0.176184
0.486532 0.777893 0.176184
0.511905 0.777893 0.176184
0.537026 0.777893 0.176184
0.561915 0.777893 0.176184
0.586592 0.777893 0.176184
0.611072 0.777893 0.176184
0.635369 0.777893 0.176184
0.659495 0.777893 0.176184
0.683460 0.777893 0.176184
0.707275 0.777893 0.176184
0.730947 0.777893 0.176184
0.754484 0.777893 0.176184
0.777893 0.777893 0.176184
0.805290 0.782003 0.180293
0.832550 0.786092 0.184382
0.859679 0.790161 0.188452
0.886684 0.794212 0.192503
0.913568 0.798244 0.196535
0.940338 0.802260 0.200551
0.966997 0.806259 0.204550
0.993550 0.810242 0.208532
1.000000 0.811209 0.209500
0.171793 0.805290 0.180293
0.210444 0.805290 0.180293
0.242925 0.805290 0.180293
0.273424 0.805290 0.180293
0.302703 0.805290 0.180293
0.331107 0.805290 0.180293
0.358832 0.805290 0.180293
0.386006 0.805290 0.180293
0.412716 0.805290 0.180293
0.439027 0.805290 0.180293
0.464990 0.805290 0.180293
0.490641 0.805290 0.180293
0.516015 0.805290 0.180293
0.541135 0.805290 0.180293
0.566025 0.805290 0.180293
0.590701 0.805290 0.180293
0.615181 0.805290 0.180293
0.639478 0.805290 0.180293
0.663604 0.805290 0.180293
0.687570 0.805290 0.180293
0.711384 0.805290 0.180293
0.735056 0.805290 0.180293
0.758594 0.805290 0.180293
0.782003 0.805290 0.180293
0.805290 0.805290 0.180293
0.832550 0.809379 0.184382
0.859679 0.813448 0.188452
0.886684 0.817499 0.192503
0.913568 0.821532 0.196535
0.940338 0.825547 0.200551
0.966997 0.829546 0.204550
0.993550 0.833529 0.208532
1.000000 0.834496 0.209500
0.175882 0.832550 0.184382
0.214533 0.832550 0.184382
0.247014 0.832550 0.184382
0.277513 0.832550 0.184382
0.306792 0.832550 0.184382
0.335196 0.832550 0.184382
0.362921 0.832550 0.184382
0.390095 0.832550 0.184382
0.416805 0.832550 0.184382
0.443116 0.832550 0.184382
0.469079 0.832550 0.184382
0.494730 0.832550 0.184382
0.520104 0.832550 0.184382
0.545224 0.832550 0.184382
0.570114 0.832550 0.184382
0.594790 0.832550 0.184382
0.619270 0.832550 0.184382
0.643567 0.832550 0.184382
0.667693 0.832550 0.184382
0.691659 0.832550 0.184382
0.715473 0.832550 0.184382
0.739145 0.832550 0.184382
0.762683 0.832550 0.184382
0.786092 0.832550 0.184382
0.809379 0.832550 0.184382
0.832550 0.832550 0.184382
0.859679 0.836619 0.188452
0.886684 0.840670 0.192503
0.913568 0.844703 0.196535
0.940338 0.848718 0.200551
0.966997 0.852717 0.204550
0.993550 0.856700 0.208532
1.000000 0.857667 0.209500
0.179952 0.859679 0.188452
0.218603 0.859679 0.188452
0.251084 0.859679 0.188452
0.281583 0.859679 0.188452
0.310861 0.859679 0.188452
0.339265 0.859679 0.188452
0.366990 0.859679 0.188452
0.394164 0.859679 0.188452
0.420874 0.859679 0.188452
0.447186 0.859679 0.188452
0.473148 0.859679 0.188452
0.498800 0.859679 0.188452
0.524173 0.859679 0.188452
0.549294 0.859679 0.188452
0.574183 0.859679 0.188452
0.598860 0.859679 0.188452
0.623340 0.859679 0.188452
0.647637 0.859679 0.188452
0.671763 0.859679 0.188452
0.695728 0.859679 0.188452
0.719543 0.859679 0.188452
0.743215 0.859679 0.188452
0.766752 0.859679 0.188452
0.790161 0.859679 0.188452
0.813448 0.859679 0.188452
0.836619 0.859679 0.188452
0.859679 0.859679 0.188452
