app/src/main/assets/luts/airy_white.cube
TITLE "Airy White"
LUT_3D_SIZE 9
DOMAIN_MIN 0.0 0.0 0.0
DOMAIN_MAX 1.0 1.0 1.0
0.061500 0.061500 0.070000
0.214011 0.083102 0.091602
0.343438 0.102516 0.111016
0.464966 0.120745 0.129245
0.581633 0.138245 0.146745
0.694813 0.155222 0.163722
0.805290 0.171793 0.180293
0.913568 0.188035 0.196535
1.000000 0.201000 0.209500
0.083102 0.214011 0.091602
0.214011 0.214011 0.091602
0.343438 0.233425 0.111016
0.464966 0.251654 0.129245
0.581633 0.269154 0.146745
0.694813 0.286131 0.163722
0.805290 0.302703 0.180293
0.913568 0.318945 0.196535
1.000000 0.331909 0.209500
0.102516 0.343438 0.111016
0.233425 0.343438 0.111016
0.343438 0.343438 0.111016
0.464966 0.361667 0.129245
0.581633 0.379167 0.146745
0.694813 0.396144 0.163722
0.805290 0.412716 0.180293
0.913568 0.428958 0.196535
1.000000 0.441923 0.209500
0.120745 0.464966 0.129245
0.251654 0.464966 0.129245
0.361667 0.464966 0.129245
0.464966 0.464966 0.129245
0.581633 0.482466 0.146745
0.694813 0.499443 0.163722
0.805290 0.516015 0.180293
0.913568 0.532257 0.196535
1.000000 0.545221 0.209500
0.138245 0.581633 0.146745
0.269154 0.581633 0.146745
0.379167 0.581633 0.146745
0.482466 0.581633 0.146745
0.581633 0.581633 0.146745
0.694813 0.598610 0.163722
0.805290 0.615181 0.180293
0.913568 0.631423 0.196535
1.000000 0.644388 0.209500
0.155222 0.694813 0.163722
0.286131 0.694813 0.163722
0.396144 0.694813 0.163722
0.499443 0.694813 0.163722
0.598610 0.694813 0.163722
0.694813 0.694813 0.163722
0.805290 0.711384 0.180293
0.913568 0.727626 0.196535
1.000000 0.740591 0.209500
0.171793 0.805290 0.180293
0.302703 0.805290 0.180293
0.412716 0.805290 0.180293
0.516015 0.805290 0.180293
0.615181 0.805290 0.180293
0.711384 0.805290 0.180293
0.805290 0.805290 0.180293
0.913568 0.821532 0.196535
1.000000 0.834496 0.209500
0.188035 0.913568 0.196535
0.318945 0.913568 0.196535
0.428958 0.913568 0.196535
0.532257 0.913568 0.196535
0.631423 0.913568 0.196535
0.727626 0.913568 0.196535
0.821532 0.913568 0.196535
0.913568 0.913568 0.196535
1.000000 0.926533 0.209500
0.201000 1.000000 0.209500
0.331909 1.000000 0.209500
0.441923 1.000000 0.209500
0.545221 1.000000 0.209500
0.644388 1.000000 0.209500
0.740591 1.000000 0.209500
0.834496 1.000000 0.209500
0.926533 1.000000 0.209500
1.000000 1.000000 0.209500
0.084602 0.084602 0.224011
0.215511 0.084602 0.224011
0.343438 0.102516 0.241925
0.464966 0.120745 0.260154
0.581633 0.138245 0.277654
0.694813 0.155222 0.294631
0.805290 0.171793 0.311203
0.913568 0.188035 0.327445
1.000000 0.201000 0.340409
0.084602 0.215511 0.224011
0.215511 0.215511 0.224011
0.343438 0.233425 0.241925
0.464966 0.251654 0.260154
0.581633 0.269154 0.277654
0.694813 0.286131 0.294631
0.805290 0.302703 0.311203
0.913568 0.318945 0.327445
1.000000 0.331909 0.340409
0.102516 0.343438 0.241925
0.233425 0.343438 0.241925
0.343438 0.343438 0.241925
0.464966 0.361667 0.260154
0.581633 0.379167 0.277654
0.694813 0.396144 0.294631
0.805290 0.412716 0.311203
0.913568 0.428958 0.327445
1.000000 0.441923 0.340409
0.120745 0.464966 0.260154
0.251654 0.464966 0.260154
0.361667 0.464966 0.260154
0.464966 0.464966 0.260154
0.581633 0.482466 0.277654
0.694813 0.499443 0.294631
0.805290 0.516015 0.311203
0.913568 0.532257 0.327445
1.000000 0.545221 0.340409
0.138245 0.581633 0.277654
0.269154 0.581633 0.277654
0.379167 0.581633 0.277654
0.482466 0.581633 0.277654
0.581633 0.581633 0.277654
0.694813 0.598610 0.294631
0.805290 0.615181 0.311203
0.913568 0.631423 0.327445
1.000000 0.644388 0.340409
0.155222 0.694813 0.294631
0.286131 0.694813 0.294631
0.396144 0.694813 0.294631
0.499443 0.694813 0.294631
0.598610 0.694813 0.294631
0.694813 0.694813 0.294631
0.805290 0.711384 0.311203
0.913568 0.727626 0.327445
1.000000 0.740591 0.340409
0.171793 0.805290 0.311203
0.302703 0.805290 0.311203
0.412716 0.805290 0.311203
0.516015 0.805290 0.311203
0.615181 0.805290 0.311203
0.711384 0.805290 0.311203
0.805290 0.805290 0.311203
0.913568 0.821532 0.327445
1.000000 0.834496 0.340409
0.188035 0.913568 0.327445
0.318945 0.913568 0.327445
0.428958 0.913568 0.327445
0.532257 0.913568 0.327445
0.631423 0.913568 0.327445
0.727626 0.913568 0.327445
0.821532 0.913568 0.327445
0.913568 0.913568 0.327445
1.000000 0.926533 0.340409
0.201000 1.000000 0.340409
0.331909 1.000000 0.340409
0.441923 1.000000 0.340409
0.545221 1.000000 0.340409
0.644388 1.000000 0.340409
0.740591 1.000000 0.340409
0.834496 1.000000 0.340409
0.926533 1.000000 0.340409
1.000000 1.000000 0.340409
0.104016 0.104016 0.353438
0.234925 0.104016 0.353438
0.344938 0.104016 0.353438
0.464966 0.120745 0.370167
0.581633 0.138245 0.387667
0.694813 0.155222 0.404644
0.805290 0.171793 0.421216
0.913568 0.188035 0.437458
1.000000 0.201000 0.450423
0.104016 0.234925 0.353438
0.234925 0.234925 0.353438
0.344938 0.234925 0.353438
0.464966 0.251654 0.370167
0.581633 0.269154 0.387667
0.694813 0.286131 0.404644
0.805290 0.302703 0.421216
0.913568 0.318945 0.437458
1.000000 0.331909 0.450423
0.104016 0.344938 0.353438
0.234925 0.344938 0.353438
0.344938 0.344938 0.353438
0.464966 0.361667 0.370167
0.581633 0.379167 0.387667
0.694813 0.396144 0.404644
0.805290 0.412716 0.421216
0.913568 0.428958 0.437458
1.000000 0.441923 0.450423
0.120745 0.464966 0.370167
0.251654 0.464966 0.370167
0.361667 0.464966 0.370167
0.464966 0.464966 0.370167
0.581633 0.482466 0.387667
0.694813 0.499443 0.404644
0.805290 0.516015 0.421216
0.913568 0.532257 0.437458
1.000000 0.545221 0.450423
0.138245 0.581633 0.387667
0.269154 0.581633 0.387667
0.379167 0.581633 0.387667
0.482466 0.581633 0.387667
0.581633 0.581633 0.387667
0.694813 0.598610 0.404644
0.805290 0.615181 0.421216
0.913568 0.631423 0.437458
1.000000 0.644388 0.450423
0.155222 0.694813 0.404644
0.286131 0.694813 0.404644
0.396144 0.694813 0.404644
0.499443 0.694813 0.404644
0.598610 0.694813 0.404644
0.694813 0.694813 0.404644
0.805290 0.711384 0.421216
0.913568 0.727626 0.437458
1.000000 0.740591 0.450423
0.171793 0.805290 0.421216
0.302703 0.805290 0.421216
0.412716 0.805290 0.421216
0.516015 0.805290 0.421216
0.615181 0.805290 0.421216
0.711384 0.805290 0.421216
0.805290 0.805290 0.421216
0.913568 0.821532 0.437458
1.000000 0.834496 0.450423
0.188035 0.913568 0.437458
0.318945 0.913568 0.437458
0.428958 0.913568 0.437458
0.532257 0.913568 0.437458
0.631423 0.913568 0.437458
0.727626 0.913568 0.437458
0.821532 0.913568 0.437458
0.913568 0.913568 0.437458
1.000000 0.926533 0.450423
0.201000 1.000000 0.450423
0.331909 1.000000 0.450423
0.441923 1.000000 0.450423
0.545221 1.000000 0.450423
0.644388 1.000000 0.450423
0.740591 1.000000 0.450423
0.834496 1.000000 0.450423
0.926533 1.000000 0.450423
1.000000 1.000000 0.450423
0.122245 0.122245 0.474966
0.253154 0.122245 0.474966
0.363167 0.122245 0.474966
0.466466 0.122245 0.474966
0.581633 0.138245 0.490966
0.694813 0.155222 0.507943
0.805290 0.171793 0.524515
0.913568 0.188035 0.540757
1.000000 0.201000 0.553721
0.122245 0.253154 0.474966
0.253154 0.253154 0.474966
0.363167 0.253154 0.474966
0.466466 0.253154 0.474966
0.581633 0.269154 0.490966
0.694813 0.286131 0.507943
0.805290 0.302703 0.524515
0.913568 0.318945 0.540757
1.000000 0.331909 0.553721
0.122245 0.363167 0.474966
0.253154 0.363167 0.474966
0.363167 0.363167 0.474966
0.466466 0.363167 0.474966
0.581633 0.379167 0.490966
0.694813 0.396144 0.507943
0.805290 0.412716 0.524515
0.913568 0.428958 0.540757
1.000000 0.441923 0.553721
0.122245 0.466466 0.474966
0.253154 0.466466 0.474966
0.363167 0.466466 0.474966
0.466466 0.466466 0.474966
0.581633 0.482466 0.490966
0.694813 0.499443 0.507943
0.805290 0.516015 0.524515
0.913568 0.532257 0.540757
1.000000 0.545221 0.553721
0.138245 0.581633 0.490966
0.269154 0.581633 0.490966
0.379167 0.581633 0.490966
0.482466 0.581633 0.490966
0.581633 0.581633 0.490966
0.694813 0.598610 0.507943
0.805290 0.615181 0.524515
0.913568 0.631423 0.540757
1.000000 0.644388 0.553721
0.155222 0.694813 0.507943
0.286131 0.694813 0.507943
0.396144 0.694813 0.507943
0.499443 0.694813 0.507943
0.598610 0.694813 0.507943
0.694813 0.694813 0.507943
0.805290 0.711384 0.524515
0.913568 0.727626 0.540757
1.000000 0.740591 0.553721
0.171793 0.805290 0.524515
0.302703 0.805290 0.524515
0.412716 0.805290 0.524515
0.516015 0.805290 0.524515
0.615181 0.805290 0.524515
0.711384 0.805290 0.524515
0.805290 0.805290 0.524515
0.913568 0.821532 0.540757
1.000000 0.834496 0.553721
0.188035 0.913568 0.540757
0.318945 0.913568 0.540757
0.428958 0.913568 0.540757
0.532257 0.913568 0.540757
0.631423 0.913568 0.540757
0.727626 0.913568 0.540757
0.821532 0.913568 0.540757
0.913568 0.913568 0.540757
1.000000 0.926533 0.553721
0.201000 1.000000 0.553721
0.331909 1.000000 0.553721
0.441923 1.000000 0.553721
0.545221 1.000000 0.553721
0.644388 1.000000 0.553721
0.740591 1.000000 0.553721
0.834496 1.000000 0.553721
0.926533 1.000000 0.553721
1.000000 1.000000 0.553721
0.139745 0.139745 0.591633
0.270654 0.139745 0.591633
0.380667 0.139745 0.591633
0.483966 0.139745 0.591633
0.583133 0.139745 0.591633
0.694813 0.155222 0.607110
0.805290 0.171793 0.623681
0.913568 0.188035 0.639923
1.000000 0.201000 0.652888
0.139745 0.270654 0.591633
0.270654 0.270654 0.591633
0.380667 0.270654 0.591633
0.483966 0.270654 0.591633
0.583133 0.270654 0.591633
0.694813 0.286131 0.607110
0.805290 0.302703 0.623681
0.913568 0.318945 0.639923
1.000000 0.331909 0.652888
0.139745 0.380667 0.591633
0.270654 0.380667 0.591633
0.380667 0.380667 0.591633
0.483966 0.380667 0.591633
0.583133 0.380667 0.591633
0.694813 0.396144 0.607110
0.805290 0.412716 0.623681
0.913568 0.428958 0.639923
1.000000 0.441923 0.652888
0.139745 0.483966 0.591633
0.270654 0.483966 0.591633
0.380667 0.483966 0.591633
0.483966 0.483966 0.591633
0.583133 0.483966 0.591633
0.694813 0.499443 0.607110
0.805290 0.516015 0.623681
0.913568 0.532257 0.639923
1.000000 0.545221 0.652888
0.139745 0.583133 0.591633
0.270654 0.583133 0.591633
0.380667 0.583133 0.591633
0.483966 0.583133 0.591633
0.583133 0.583133 0.591633
0.694813 0.598610 0.607110
0.805290 0.615181 0.623681
0.913568 0.631423 0.639923
1.000000 0.644388 0.652888
0.155222 0.694813 0.607110
0.286131 0.694813 0.607110
0.396144 0.694813 0.607110
0.499443 0.694813 0.607110
0.598610 0.694813 0.607110
0.694813 0.694813 0.607110
0.805290 0.711384 0.623681
0.913568 0.727626 0.639923
1.000000 0.740591 0.652888
0.171793 0.805290 0.623681
0.302703 0.805290 0.623681
0.412716 0.805290 0.623681
0.516015 0.805290 0.623681
0.615181 0.805290 0.623681
0.711384 0.805290 0.623681
0.805290 0.805290 0.623681
0.913568 0.821532 0.639923
1.000000 0.834496 0.652888
0.188035 0.913568 0.639923
0.318945 0.913568 0.639923
0.428958 0.913568 0.639923
0.532257 0.913568 0.639923
0.631423 0.913568 0.639923
0.727626 0.913568 0.639923
0.821532 0.913568 0.639923
0.913568 0.913568 0.639923
1.000000 0.926533 0.652888
0.201000 1.000000 0.652888
0.331909 1.000000 0.652888
0.441923 1.000000 0.652888
0.545221 1.000000 0.652888
0.644388 1.000000 0.652888
0.740591 1.000000 0.652888
0.834496 1.000000 0.652888
0.926533 1.000000 0.652888
1.000000 1.000000 0.652888
0.156722 0.156722 0.704813
0.287631 0.156722 0.704813
0.397644 0.156722 0.704813
0.500943 0.156722 0.704813
0.600110 0.156722 0.704813
0.696313 0.156722 0.704813
0.805290 0.171793 0.719884
0.913568 0.188035 0.736126
1.000000 0.201000 0.749091
0.156722 0.287631 0.704813
0.287631 0.287631 0.704813
0.397644 0.287631 0.704813
0.500943 0.287631 0.704813
0.600110 0.287631 0.704813
0.696313 0.287631 0.704813
0.805290 0.302703 0.719884
0.913568 0.318945 0.736126
1.000000 0.331909 0.749091
0.156722 0.397644 0.704813
0.287631 0.397644 0.704813
0.397644 0.397644 0.704813
0.500943 0.397644 0.704813
0.600110 0.397644 0.704813
0.696313 0.397644 0.704813
0.805290 0.412716 0.719884
0.913568 0.428958 0.736126
1.000000 0.441923 0.749091
0.156722 0.500943 0.704813
0.287631 0.500943 0.704813
0.397644 0.500943 0.704813
0.500943 0.500943 0.704813
0.600110 0.500943 0.704813
0.696313 0.500943 0.704813
0.805290 0.516015 0.719884
0.913568 0.532257 0.736126
1.000000 0.545221 0.749091
0.156722 0.600110 0.704813
0.287631 0.600110 0.704813
0.397644 0.600110 0.704813
0.500943 0.600110 0.704813
0.600110 0.600110 0.704813
0.696313 0.600110 0.704813
0.805290 0.615181 0.719884
0.913568 0.631423 0.736126
1.000000 0.644388 0.749091
0.156722 0.696313 0.704813
0.287631 0.696313 0.704813
0.397644 0.696313 0.704813
0.500943 0.696313 0.704813
0.600110 0.696313 0.704813
0.696313 0.696313 0.704813
0.805290 0.711384 0.719884
0.913568 0.727626 0.736126
1.000000 0.740591 0.749091
0.171793 0.805290 0.719884
0.302703 0.805290 0.719884
0.412716 0.805290 0.719884
0.516015 0.805290 0.719884
0.615181 0.805290 0.719884
0.711384 0.805290 0.719884
0.805290 0.805290 0.719884
0.913568 0.821532 0.736126
1.000000 0.834496 0.749091
0.188035 0.913568 0.736126
0.318945 0.913568 0.736126
0.428958 0.913568 0.736126
0.532257 0.913568 0.736126
0.631423 0.913568 0.736126
0.727626 0.913568 0.736126
0.821532 0.913568 0.736126
0.913568 0.913568 0.736126
1.000000 0.926533 0.749091
0.201000 1.000000 0.749091
0.331909 1.000000 0.749091
0.441923 1.000000 0.749091
0.545221 1.000000 0.749091
0.644388 1.000000 0.749091
0.740591 1.000000 0.749091
0.834496 1.000000 0.749091
0.926533 1.000000 0.749091
1.000000 1.000000 0.749091
0.173293 0.173293 0.815290
0.304203 0.173293 0.815290
0.414216 0.173293 0.815290
0.517515 0.173293 0.815290
0.616681 0.173293 0.815290
0.712884 0.173293 0.815290
0.806790 0.173293 0.815290
0.913568 0.188035 0.830032
1.000000 0.201000 0.842996
0.173293 0.304203 0.815290
0.304203 0.304203 0.815290
0.414216 0.304203 0.815290
0.517515 0.304203 0.815290
0.616681 0.304203 0.815290
0.712884 0.304203 0.815290
0.806790 0.304203 0.815290
0.913568 0.318945 0.830032
1.000000 0.331909 0.842996
0.173293 0.414216 0.815290
0.304203 0.414216 0.815290
0.414216 0.414216 0.815290
0.517515 0.414216 0.815290
0.616681 0.414216 0.815290
0.712884 0.414216 0.815290
0.806790 0.414216 0.815290
0.913568 0.428958 0.830032
1.000000 0.441923 0.842996
0.173293 0.517515 0.815290
0.304203 0.517515 0.815290
0.414216 0.517515 0.815290
0.517515 0.517515 0.815290
0.616681 0.517515 0.815290
0.712884 0.517515 0.815290
0.806790 0.517515 0.815290
0.913568 0.532257 0.830032
1.000000 0.545221 0.842996
0.173293 0.616681 0.815290
0.304203 0.616681 0.815290
0.414216 0.616681 0.815290
0.517515 0.616681 0.815290
0.616681 0.616681 0.815290
0.712884 0.616681 0.815290
0.806790 0.616681 0.815290
0.913568 0.631423 0.830032
1.000000 0.644388 0.842996
0.173293 0.712884 0.815290
0.304203 0.712884 0.815290
0.414216 0.712884 0.815290
0.517515 0.712884 0.815290
0.616681 0.712884 0.815290
0.712884 0.712884 0.815290
0.806790 0.712884 0.815290
0.913568 0.727626 0.830032
1.000000 0.740591 0.842996
0.173293 0.806790 0.815290
0.304203 0.806790 0.815290
0.414216 0.806790 0.815290
0.517515 0.806790 0.815290
0.616681 0.806790 0.815290
0.712884 0.806790 0.815290
0.806790 0.806790 0.815290
0.913568 0.821532 0.830032
1.000000 0.834496 0.842996
0.188035 0.913568 0.830032
0.318945 0.913568 0.830032
0.428958 0.913568 0.830032
0.532257 0.913568 0.830032
0.631423 0.913568 0.830032
0.727626 0.913568 0.830032
0.821532 0.913568 0.830032
0.913568 0.913568 0.830032
1.000000 0.926533 0.842996
0.201000 1.000000 0.842996
0.331909 1.000000 0.842996
0.441923 1.000000 0.842996
0.545221 1.000000 0.842996
0.644388 1.000000 0.842996
0.740591 1.000000 0.842996
0.834496 1.000000 0.842996
0.926533 1.000000 0.842996
1.000000 1.000000 0.842996
0.189535 0.189535 0.923568
0.320445 0.189535 0.923568
0.430458 0.189535 0.923568
0.533757 0.189535 0.923568
0.632923 0.189535 0.923568
0.729126 0.189535 0.923568
0.823032 0.189535 0.923568
0.915068 0.189535 0.923568
1.000000 0.201000 0.935033
0.189535 0.320445 0.923568
0.320445 0.320445 0.923568
0.430458 0.320445 0.923568
0.533757 0.320445 0.923568
0.632923 0.320445 0.923568
0.729126 0.320445 0.923568
0.823032 0.320445 0.923568
0.915068 0.320445 0.923568
1.000000 0.331909 0.935033
0.189535 0.430458 0.923568
0.320445 0.430458 0.923568
0.430458 0.430458 0.923568
0.533757 0.430458 0.923568
0.632923 0.430458 0.923568
0.729126 0.430458 0.923568
0.823032 0.430458 0.923568
0.915068 0.430458 0.923568
1.000000 0.441923 0.935033
0.189535 0.533757 0.923568
0.320445 0.533757 0.923568
0.430458 0.533757 0.923568
0.533757 0.533757 0.923568
0.632923 0.533757 0.923568
0.729126 0.533757 0.923568
0.823032 0.533757 0.923568
0.915068 0.533757 0.923568
1.000000 0.545221 0.935033
0.189535 0.632923 0.923568
0.320445 0.632923 0.923568
0.430458 0.632923 0.923568
0.533757 0.632923 0.923568
0.632923 0.632923 0.923568
0.729126 0.632923 0.923568
0.823032 0.632923 0.923568
0.915068 0.632923 0.923568
1.000000 0.644388 0.935033
0.189535 0.729126 0.923568
0.320445 0.729126 0.923568
0.430458 0.729126 0.923568
0.533757 0.729126 0.923568
0.632923 0.729126 0.923568
0.729126 0.729126 0.923568
0.823032 0.729126 0.923568
0.915068 0.729126 0.923568
1.000000 0.740591 0.935033
0.189535 0.823032 0.923568
0.320445 0.823032 0.923568
0.430458 0.823032 0.923568
0.533757 0.823032 0.923568
0.632923 0.823032 0.923568
0.729126 0.823032 0.923568
0.823032 0.823032 0.923568
0.915068 0.823032 0.923568
1.000000 0.834496 0.935033
0.189535 0.915068 0.923568
0.320445 0.915068 0.923568
0.430458 0.915068 0.923568
0.533757 0.915068 0.923568
0.632923 0.915068 0.923568
0.729126 0.915068 0.923568
0.823032 0.915068 0.923568
0.915068 0.915068 0.923568
1.000000 0.926533 0.935033
0.201000 1.000000 0.935033
0.331909 1.000000 0.935033
0.441923 1.000000 0.935033
0.545221 1.000000 0.935033
0.644388 1.000000 0.935033
0.740591 1.000000 0.935033
0.834496 1.000000 0.935033
0.926533 1.000000 0.935033
1.000000 1.000000 0.935033
0.201000 0.201000 1.000000
0.331909 0.201000 1.000000
0.441923 0.201000 1.000000
0.545221 0.201000 1.000000
0.644388 0.201000 1.000000
0.740591 0.201000 1.000000
0.834496 0.201000 1.000000
0.926533 0.201000 1.000000
1.000000 0.201000 1.000000
0.201000 0.331909 1.000000
0.331909 0.331909 1.000000
0.441923 0.331909 1.000000
0.545221 0.331909 1.000000
0.644388 0.331909 1.000000
0.740591 0.331909 1.000000
0.834496 0.331909 1.000000
0.926533 0.331909 1.000000
1.000000 0.331909 1.000000
0.201000 0.441923 1.000000
0.331909 0.441923 1.000000
0.441923 0.441923 1.000000
0.545221 0.441923 1.000000
0.644388 0.441923 1.000000
0.740591 0.441923 1.000000
0.834496 0.441923 1.000000
0.926533 0.441923 1.000000
1.000000 0.441923 1.000000
0.201000 0.545221 1.000000
0.331909 0.545221 1.000000
0.441923 0.545221 1.000000
0.545221 0.545221 1.000000
0.644388 0.545221 1.000000
0.740591 0.545221 1.000000
0.834496 0.545221 1.000000
0.926533 0.545221 1.000000
1.000000 0.545221 1.000000
0.201000 0.644388 1.000000
0.331909 0.644388 1.000000
0.441923 0.644388 1.000000
0.545221 0.644388 1.000000
0.644388 0.644388 1.000000
0.740591 0.644388 1.000000
0.834496 0.644388 1.000000
0.926533 0.644388 1.000000
1.000000 0.644388 1.000000
0.201000 0.740591 1.000000
0.331909 0.740591 1.000000
0.441923 0.740591 1.000000
0.545221 0.740591 1.000000
0.644388 0.740591 1.000000
0.740591 0.740591 1.000000
0.834496 0.740591 1.000000
0.926533 0.740591 1.000000
1.000000 0.740591 1.000000
0.201000 0.834496 1.000000
0.331909 0.834496 1.000000
0.441923 0.834496 1.000000
0.545221 0.834496 1.000000
0.644388 0.834496 1.000000
0.740591 0.834496 1.000000
0.834496 0.834496 1.000000
0.926533 0.834496 1.000000
1.000000 0.834496 1.000000
0.201000 0.926533 1.000000
0.331909 0.926533 1.000000
0.441923 0.926533 1.000000
0.545221 0.926533 1.000000
0.644388 0.926533 1.000000
0.740591 0.926533 1.000000
0.834496 0.926533 1.000000
0.926533 0.926533 1.000000
1.000000 0.926533 1.000000
0.201000 1.000000 1.000000
0.331909 1.000000 1.000000
0.441923 1.000000 1.000000
0.545221 1.000000 1.000000
0.644388 1.000000 1.000000
0.740591 1.000000 1.000000
0.834496 1.000000 1.000000
0.926533 1.000000 1.000000
1.000000 1.000000 1.000000
