app/src/main/assets/luts/amber.cube
TITLE "Amber"
LUT_3D_SIZE 33
DOMAIN_MIN 0.0 0.0 0.0
DOMAIN_MAX 1.0 1.0 1.0
0.000000 0.000000 0.000000
0.060439 0.000000 0.000000
0.108942 0.000000 0.000000
0.153771 0.000000 0.000000
0.196368 0.000000 0.000000
0.237380 0.000000 0.000000
0.277172 0.000000 0.000000
0.315976 0.000000 0.000000
0.353954 0.000000 0.000000
0.391225 0.000000 0.000000
0.427878 0.000000 0.000000
0.463985 0.000000 0.000000
0.499602 0.000000 0.000000
0.534776 0.000000 0.000000
0.569547 0.000000 0.000000
0.603946 0.000000 0.000000
0.638002 0.000000 0.000000
0.671741 0.000000 0.000000
0.705183 0.000000 0.000000
0.738348 0.000000 0.000000
0.771251 0.000000 0.000000
0.803909 0.000000 0.000000
0.836334 0.000000 0.000000
0.868538 0.000000 0.000000
0.900534 0.000000 0.000000
0.932329 0.000000 0.000000
0.963935 0.000000 0.000000
0.995359 0.000000 0.000000
1.000000 0.000000 0.000000
1.000000 0.000000 0.000000
1.000000 0.000000 0.000000
1.000000 0.000000 0.000000
1.000000 0.000000 0.000000
0.000000 0.036419 0.000000
0.060439 0.036419 0.000000
0.108942 0.036419 0.000000
0.153771 0.036419 0.000000
0.196368 0.036419 0.000000
0.237380 0.036419 0.000000
0.277172 0.036419 0.000000
0.315976 0.036419 0.000000
0.353954 0.036419 0.000000
0.391225 0.036419 0.000000
0.427878 0.036419 0.000000
0.463985 0.036419 0.000000
0.499602 0.036419 0.000000
0.534776 0.036419 0.000000
0.569547 0.036419 0.000000
0.603946 0.036419 0.000000
0.638002 0.036419 0.000000
0.671741 0.036419 0.000000
0.705183 0.036419 0.000000
0.738348 0.036419 0.000000
0.771251 0.036419 0.000000
0.803909 0.036419 0.000000
0.836334 0.036419 0.000000
0.868538 0.036419 0.000000
0.900534 0.036419 0.000000
0.932329 0.036419 0.000000
0.963935 0.036419 0.000000
0.995359 0.036419 0.000000
1.000000 0.036419 0.000000
1.000000 0.036419 0.000000
1.000000 0.036419 0.000000
1.000000 0.036419 0.000000
1.000000 0.036419 0.000000
0.000000 0.070358 0.000000
0.060439 0.070358 0.000000
0.108942 0.070358 0.000000
0.153771 0.070358 0.000000
0.196368 0.070358 0.000000
0.237380 0.070358 0.000000
0.277172 0.070358 0.000000
0.315976 0.070358 0.000000
0.353954 0.070358 0.000000
0.391225 0.070358 0.000000
0.427878 0.070358 0.000000
0.463985 0.070358 0.000000
0.499602 0.070358 0.000000
0.534776 0.070358 0.000000
0.569547 0.070358 0.000000
0.603946 0.070358 0.000000
0.638002 0.070358 0.000000
0.671741 0.070358 0.000000
0.705183 0.070358 0.000000
0.738348 0.070358 0.000000
0.771251 0.070358 0.000000
0.803909 0.070358 0.000000
0.836334 0.070358 0.000000
0.868538 0.070358 0.000000
0.900534 0.070358 0.000000
0.932329 0.070358 0.000000
0.963935 0.070358 0.000000
0.995359 0.070358 0.000000
1.000000 0.070358 0.000000
1.000000 0.070358 0.000000
1.000000 0.070358 0.000000
1.000000 0.070358 0.000000
1.000000 0.070358 0.000000
0.000000 0.103419 0.000000
0.060439 0.103419 0.000000
0.108942 0.103419 0.000000
0.153771 0.103419 0.000000
0.196368 0.103419 0.000000
0.237380 0.103419 0.000000
0.277172 0.103419 0.000000
0.315976 0.103419 0.000000
0.353954 0.103419 0.000000
0.391225 0.103419 0.000000
0.427878 0.103419 0.000000
0.463985 0.103419 0.000000
0.499602 0.103419 0.000000
0.534776 0.103419 0.000000
0.569547 0.103419 0.000000
0.603946 0.103419 0.000000
0.638002 0.103419 0.000000
0.671741 0.103419 0.000000
0.705183 0.103419 0.000000
0.738348 0.103419 0.000000
0.771251 0.103419 0.000000
0.803909 0.103419 0.000000
0.836334 0.103419 0.000000
0.868538 0.103419 0.000000
0.900534 0.103419 0.000000
0.932329 0.103419 0.000000
0.963935 0.103419 0.000000
0.995359 0.103419 0.000000
1.000000 0.103419 0.000000
1.000000 0.103419 0.000000
1.000000 0.103419 0.000000
1.000000 0.103419 0.000000
1.000000 0.103419 0.000000
0.000000 0.135922 0.000000
0.060439 0.135922 0.000000
0.108942 0.135922 0.000000
0.153771 0.135922 0.000000
0.196368 0.135922 0.000000
0.237380 0.135922 0.000000
0.277172 0.135922 0.000000
0.315976 0.135922 0.000000
0.353954 0.135922 0.000000
0.391225 0.135922 0.000000
0.427878 0.135922 0.000000
0.463985 0.135922 0.000000
0.499602 0.135922 0.000000
0.534776 0.135922 0.000000
0.569547 0.135922 0.000000
0.603946 0.135922 0.000000
0.638002 0.135922 0.000000
0.671741 0.135922 0.000000
0.705183 0.135922 0.000000
0.738348 0.135922 0.000000
0.771251 0.135922 0.000000
0.803909 0.135922 0.000000
0.836334 0.135922 0.000000
0.868538 0.135922 0.000000
0.900534 0.135922 0.000000
0.932329 0.135922 0.000000
0.963935 0.135922 0.000000
0.995359 0.135922 0.000000
1.000000 0.135922 0.000000
1.000000 0.135922 0.000000
1.000000 0.135922 0.000000
1.000000 0.135922 0.000000
1.000000 0.135922 0.000000
0.000000 0.168018 0.000000
0.060439 0.168018 0.000000
0.108942 0.168018 0.000000
0.153771 0.168018 0.000000
0.196368 0.168018 0.000000
0.237380 0.168018 0.000000
0.277172 0.168018 0.000000
0.315976 0.168018 0.000000
0.353954 0.168018 0.000000
0.391225 0.168018 0.000000
0.427878 0.168018 0.000000
0.463985 0.168018 0.000000
0.499602 0.168018 0.000000
0.534776 0.168018 0.000000
0.569547 0.168018 0.000000
0.603946 0.168018 0.000000
0.638002 0.168018 0.000000
0.671741 0.168018 0.000000
0.705183 0.168018 0.000000
0.738348 0.168018 0.000000
0.771251 0.168018 0.000000
0.803909 0.168018 0.000000
0.836334 0.168018 0.000000
0.868538 0.168018 0.000000
0.900534 0.168018 0.000000
0.932329 0.168018 0.000000
0.963935 0.168018 0.000000
0.995359 0.168018 0.000000
1.000000 0.168018 0.000000
1.000000 0.168018 0.000000
1.000000 0.168018 0.000000
1.000000 0.168018 0.000000
1.000000 0.168018 0.000000
0.000000 0.199792 0.000000
0.060439 0.199792 0.000000
0.108942 0.199792 0.000000
0.153771 0.199792 0.000000
0.196368 0.199792 0.000000
0.237380 0.199792 0.000000
0.277172 0.199792 0.000000
0.315976 0.199792 0.000000
0.353954 0.199792 0.000000
0.391225 0.199792 0.000000
0.427878 0.199792 0.000000
0.463985 0.199792 0.000000
0.499602 0.199792 0.000000
0.534776 0.199792 0.000000
0.569547 0.199792 0.000000
0.603946 0.199792 0.000000
0.638002 0.199792 0.000000
0.671741 0.199792 0.000000
0.705183 0.199792 0.000000
0.738348 0.199792 0.000000
0.771251 0.199792 0.000000
0.803909 0.199792 0.000000
0.836334 0.199792 0.000000
0.868538 0.199792 0.000000
0.900534 0.199792 0.000000
0.932329 0.199792 0.000000
0.963935 0.199792 0.000000
0.995359 0.199792 0.000000
1.000000 0.199792 0.000000
1.000000 0.199792 0.000000
1.000000 0.199792 0.000000
1.000000 0.199792 0.000000
1.000000 0.199792 0.000000
0.000000 0.231301 0.000000
0.060439 0.231301 0.000000
0.108942 0.231301 0.000000
0.153771 0.231301 0.000000
0.196368 0.231301 0.000000
0.237380 0.231301 0.000000
0.277172 0.231301 0.000000
0.315976 0.231301 0.000000
0.353954 0.231301 0.000000
0.391225 0.231301 0.000000
0.427878 0.231301 0.000000
0.463985 0.231301 0.000000
0.499602 0.231301 0.000000
0.534776 0.231301 0.000000
0.569547 0.231301 0.000000
0.603946 0.231301 0.000000
0.638002 0.231301 0.000000
0.671741 0.231301 0.000000
0.705183 0.231301 0.000000
0.738348 0.231301 0.000000
0.771251 0.231301 0.000000
0.803909 0.231301 0.000000
0.836334 0.231301 0.000000
0.868538 0.231301 0.000000
0.900534 0.231301 0.000000
0.932329 0.231301 0.000000
0.963935 0.231301 0.000000
0.995359 0.231301 0.000000
1.000000 0.231301 0.000000
1.000000 0.231301 0.000000
1.000000 0.231301 0.000000
1.000000 0.231301 0.000000
1.000000 0.231301 0.000000
0.000000 0.262584 0.000000
0.060439 0.262584 0.000000
0.108942 0.262584 0.000000
0.153771 0.262584 0.000000
0.196368 0.262584 0.000000
0.237380 0.262584 0.000000
0.277172 0.262584 0.000000
0.315976 0.262584 0.000000
0.353954 0.262584 0.000000
0.391225 0.262584 0.000000
0.427878 0.262584 0.000000
0.463985 0.262584 0.000000
0.499602 0.262584 0.000000
0.534776 0.262584 0.000000
0.569547 0.262584 0.000000
0.603946 0.262584 0.000000
0.638002 0.262584 0.000000
0.671741 0.262584 0.000000
0.705183 0.262584 0.000000
0.738348 0.262584 0.000000
0.771251 0.262584 0.000000
0.803909 0.262584 0.000000
0.836334 0.262584 0.000000
0.868538 0.262584 0.000000
0.900534 0.262584 0.000000
0.932329 0.262584 0.000000
0.963935 0.262584 0.000000
0.995359 0.262584 0.000000
1.000000 0.262584 0.000000
1.000000 0.262584 0.000000
1.000000 0.262584 0.000000
1.000000 0.262584 0.000000
1.000000 0.262584 0.000000
0.000000 0.293673 0.000000
0.060439 0.293673 0.000000
0.108942 0.293673 0.000000
0.153771 0.293673 0.000000
0.196368 0.293673 0.000000
0.237380 0.293673 0.000000
0.277172 0.293673 0.000000
0.315976 0.293673 0.000000
0.353954 0.293673 0.000000
0.391225 0.293673 0.000000
0.427878 0.293673 0.000000
0.463985 0.293673 0.000000
0.499602 0.293673 0.000000
0.534776 0.293673 0.000000
0.569547 0.293673 0.000000
0.603946 0.293673 0.000000
0.638002 0.293673 0.000000
0.671741 0.293673 0.000000
0.705183 0.293673 0.000000
0.738348 0.293673 0.000000
0.771251 0.293673 0.000000
0.803909 0.293673 0.000000
0.836334 0.293673 0.000000
0.868538 0.293673 0.000000
0.900534 0.293673 0.000000
0.932329 0.293673 0.000000
0.963935 0.293673 0.000000
0.995359 0.293673 0.000000
1.000000 0.293673 0.000000
1.000000 0.293673 0.000000
1.000000 0.293673 0.000000
1.000000 0.293673 0.000000
1.000000 0.293673 0.000000
0.000000 0.324589 0.000000
0.060439 0.324589 0.000000
0.108942 0.324589 0.000000
0.153771 0.324589 0.000000
0.196368 0.324589 0.000000
0.237380 0.324589 0.000000
0.277172 0.324589 0.000000
0.315976 0.324589 0.000000
0.353954 0.324589 0.000000
0.391225 0.324589 0.000000
0.427878 0.324589 0.000000
0.463985 0.324589 0.000000
0.499602 0.324589 0.000000
0.534776 0.324589 0.000000
0.569547 0.324589 0.000000
0.603946 0.324589 0.000000
0.638002 0.324589 0.000000
0.671741 0.324589 0.000000
0.705183 0.324589 0.000000
0.738348 0.324589 0.000000
0.771251 0.324589 0.000000
0.803909 0.324589 0.000000
0.836334 0.324589 0.000000
0.868538 0.324589 0.000000
0.900534 0.324589 0.000000
0.932329 0.324589 0.000000
0.963935 0.324589 0.000000
0.995359 0.324589 0.000000
1.000000 0.324589 0.000000
1.000000 0.324589 0.000000
1.000000 0.324589 0.000000
1.000000 0.324589 0.000000
1.000000 0.324589 0.000000
0.000000 0.355350 0.000000
0.060439 0.355350 0.000000
0.108942 0.355350 0.000000
0.153771 0.355350 0.000000
0.196368 0.355350 0.000000
0.237380 0.355350 0.000000
0.277172 0.355350 0.000000
0.315976 0.355350 0.000000
0.353954 0.355350 0.000000
0.391225 0.355350 0.000000
0.427878 0.355350 0.000000
0.463985 0.355350 0.000000
0.499602 0.355350 0.000000
0.534776 0.355350 0.000000
0.569547 0.355350 0.000000
0.603946 0.355350 0.000000
0.638002 0.355350 0.000000
0.671741 0.355350 0.000000
0.705183 0.355350 0.000000
0.738348 0.355350 0.000000
0.771251 0.355350 0.000000
0.803909 0.355350 0.000000
0.836334 0.355350 0.000000
0.868538 0.355350 0.000000
0.900534 0.355350 0.000000
0.932329 0.355350 0.000000
0.963935 0.355350 0.000000
0.995359 0.355350 0.000000
1.000000 0.355350 0.000000
1.000000 0.355350 0.000000
1.000000 0.355350 0.000000
1.000000 0.355350 0.000000
1.000000 0.355350 0.000000
0.000000 0.385972 0.000000
0.060439 0.385972 0.000000
0.108942 0.385972 0.000000
0.153771 0.385972 0.000000
0.196368 0.385972 0.000000
0.237380 0.385972 0.000000
0.277172 0.385972 0.000000
0.315976 0.385972 0.000000
0.353954 0.385972 0.000000
0.391225 0.385972 0.000000
0.427878 0.385972 0.000000
0.463985 0.385972 0.000000
0.499602 0.385972 0.000000
0.534776 0.385972 0.000000
0.569547 0.385972 0.000000
0.603946 0.385972 0.000000
0.638002 0.385972 0.000000
0.671741 0.385972 0.000000
0.705183 0.385972 0.000000
0.738348 0.385972 0.000000
0.771251 0.385972 0.000000
0.803909 0.385972 0.000000
0.836334 0.385972 0.000000
0.868538 0.385972 0.000000
0.900534 0.385972 0.000000
0.932329 0.385972 0.000000
0.963935 0.385972 0.000000
0.995359 0.385972 0.000000
1.000000 0.385972 0.000000
1.000000 0.385972 0.000000
1.000000 0.385972 0.000000
1.000000 0.385972 0.000000
1.000000 0.385972 0.000000
0.000000 0.416466 0.000000
0.060439 0.416466 0.000000
0.108942 0.416466 0.000000
0.153771 0.416466 0.000000
0.196368 0.416466 0.000000
0.237380 0.416466 0.000000
0.277172 0.416466 0.000000
0.315976 0.416466 0.000000
0.353954 0.416466 0.000000
0.391225 0.416466 0.000000
0.427878 0.416466 0.000000
0.463985 0.416466 0.000000
0.499602 0.416466 0.000000
0.534776 0.416466 0.000000
0.569547 0.416466 0.000000
0.603946 0.416466 0.000000
0.638002 0.416466 0.000000
0.671741 0.416466 0.000000
0.705183 0.416466 0.000000
0.738348 0.416466 0.000000
0.771251 0.416466 0.000000
0.803909 0.416466 0.000000
0.836334 0.416466 0.000000
0.868538 0.416466 0.000000
0.900534 0.416466 0.000000
0.932329 0.416466 0.000000
0.963935 0.416466 0.000000
0.995359 0.416466 0.000000
1.000000 0.416466 0.000000
1.000000 0.416466 0.000000
1.000000 0.416466 0.000000
1.000000 0.416466 0.000000
1.000000 0.416466 0.000000
0.000000 0.446843 0.000000
0.060439 0.446843 0.000000
0.108942 0.446843 0.000000
0.153771 0.446843 0.000000
0.196368 0.446843 0.000000
0.237380 0.446843 0.000000
0.277172 0.446843 0.000000
0.315976 0.446843 0.000000
0.353954 0.446843 0.000000
0.391225 0.446843 0.000000
0.427878 0.446843 0.000000
0.463985 0.446843 0.000000
0.499602 0.446843 0.000000
0.534776 0.446843 0.000000
0.569547 0.446843 0.000000
0.603946 0.446843 0.000000
0.638002 0.446843 0.000000
0.671741 0.446843 0.000000
0.705183 0.446843 0.000000
0.738348 0.446843 0.000000
0.771251 0.446843 0.000000
0.803909 0.446843 0.000000
0.836334 0.446843 0.000000
0.868538 0.446843 0.000000
0.900534 0.446843 0.000000
0.932329 0.446843 0.000000
0.963935 0.446843 0.000000
0.995359 0.446843 0.000000
1.000000 0.446843 0.000000
1.000000 0.446843 0.000000
1.000000 0.446843 0.000000
1.000000 0.446843 0.000000
1.000000 0.446843 0.000000
0.000000 0.477112 0.000000
0.060439 0.477112 0.000000
0.108942 0.477112 0.000000
0.153771 0.477112 0.000000
0.196368 0.477112 0.000000
0.237380 0.477112 0.000000
0.277172 0.477112 0.000000
0.315976 0.477112 0.000000
0.353954 0.477112 0.000000
0.391225 0.477112 0.000000
0.427878 0.477112 0.000000
0.463985 0.477112 0.000000
0.499602 0.477112 0.000000
0.534776 0.477112 0.000000
0.569547 0.477112 0.000000
0.603946 0.477112 0.000000
0.638002 0.477112 0.000000
0.671741 0.477112 0.000000
0.705183 0.477112 0.000000
0.738348 0.477112 0.000000
0.771251 0.477112 0.000000
0.803909 0.477112 0.000000
0.836334 0.477112 0.000000
0.868538 0.477112 0.000000
0.900534 0.477112 0.000000
0.932329 0.477112 0.000000
0.963935 0.477112 0.000000
0.995359 0.477112 0.000000
1.000000 0.477112 0.000000
1.000000 0.477112 0.000000
1.000000 0.477112 0.000000
1.000000 0.477112 0.000000
1.000000 0.477112 0.000000
0.000000 0.507280 0.000000
0.060439 0.507280 0.000000
0.108942 0.507280 0.000000
0.153771 0.507280 0.000000
0.196368 0.507280 0.000000
0.237380 0.507280 0.000000
0.277172 0.507280 0.000000
0.315976 0.507280 0.000000
0.353954 0.507280 0.000000
0.391225 0.507280 0.000000
0.427878 0.507280 0.000000
0.463985 0.507280 0.000000
0.499602 0.507280 0.000000
0.534776 0.507280 0.000000
0.569547 0.507280 0.000000
0.603946 0.507280 0.000000
0.638002 0.507280 0.000000
0.671741 0.507280 0.000000
0.705183 0.507280 0.000000
0.738348 0.507280 0.000000
0.771251 0.507280 0.000000
0.803909 0.507280 0.000000
0.836334 0.507280 0.000000
0.868538 0.507280 0.000000
0.900534 0.507280 0.000000
0.932329 0.507280 0.000000
0.963935 0.507280 0.000000
0.995359 0.507280 0.000000
1.000000 0.507280 0.000000
1.000000 0.507280 0.000000
1.000000 0.507280 0.000000
1.000000 0.507280 0.000000
1.000000 0.507280 0.000000
0.000000 0.537353 0.000000
0.060439 0.537353 0.000000
0.108942 0.537353 0.000000
0.153771 0.537353 0.000000
0.196368 0.537353 0.000000
0.237380 0.537353 0.000000
0.277172 0.537353 0.000000
0.315976 0.537353 0.000000
0.353954 0.537353 0.000000
0.391225 0.537353 0.000000
0.427878 0.537353 0.000000
0.463985 0.537353 0.000000
0.499602 0.537353 0.000000
0.534776 0.537353 0.000000
0.569547 0.537353 0.000000
0.603946 0.537353 0.000000
0.638002 0.537353 0.000000
0.671741 0.537353 0.000000
0.705183 0.537353 0.000000
0.738348 0.537353 0.000000
0.771251 0.537353 0.000000
0.803909 0.537353 0.000000
0.836334 0.537353 0.000000
0.868538 0.537353 0.000000
0.900534 0.537353 0.000000
0.932329 0.537353 0.000000
0.963935 0.537353 0.000000
0.995359 0.537353 0.000000
1.000000 0.537353 0.000000
1.000000 0.537353 0.000000
1.000000 0.537353 0.000000
1.000000 0.537353 0.000000
1.000000 0.537353 0.000000
0.000000 0.567339 0.000000
0.060439 0.567339 0.000000
0.108942 0.567339 0.000000
0.153771 0.567339 0.000000
0.196368 0.567339 0.000000
0.237380 0.567339 0.000000
0.277172 0.567339 0.000000
0.315976 0.567339 0.000000
0.353954 0.567339 0.000000
0.391225 0.567339 0.000000
0.427878 0.567339 0.000000
0.463985 0.567339 0.000000
0.499602 0.567339 0.000000
0.534776 0.567339 0.000000
0.569547 0.567339 0.000000
0.603946 0.567339 0.000000
0.638002 0.567339 0.000000
0.671741 0.567339 0.000000
0.705183 0.567339 0.000000
0.738348 0.567339 0.000000
0.771251 0.567339 0.000000
0.803909 0.567339 0.000000
0.836334 0.567339 0.000000
0.868538 0.567339 0.000000
0.900534 0.567339 0.000000
0.932329 0.567339 0.000000
0.963935 0.567339 0.000000
0.995359 0.567339 0.000000
1.000000 0.567339 0.000000
1.000000 0.567339 0.000000
1.000000 0.567339 0.000000
1.000000 0.567339 0.000000
1.000000 0.567339 0.000000
0.000000 0.597241 0.000000
0.060439 0.597241 0.000000
0.108942 0.597241 0.000000
0.153771 0.597241 0.000000
0.196368 0.597241 0.000000
0.237380 0.597241 0.000000
0.277172 0.597241 0.000000
0.315976 0.597241 0.000000
0.353954 0.597241 0.000000
0.391225 0.597241 0.000000
0.427878 0.597241 0.000000
0.463985 0.597241 0.000000
0.499602 0.597241 0.000000
0.534776 0.597241 0.000000
0.569547 0.597241 0.000000
0.603946 0.597241 0.000000
0.638002 0.597241 0.000000
0.671741 0.597241 0.000000
0.705183 0.597241 0.000000
0.738348 0.597241 0.000000
0.771251 0.597241 0.000000
0.803909 0.597241 0.000000
0.836334 0.597241 0.000000
0.868538 0.597241 0.000000
0.900534 0.597241 0.000000
0.932329 0.597241 0.000000
0.963935 0.597241 0.000000
0.995359 0.597241 0.000000
1.000000 0.597241 0.000000
1.000000 0.597241 0.000000
1.000000 0.597241 0.000000
1.000000 0.597241 0.000000
1.000000 0.597241 0.000000
0.000000 0.627064 0.000000
0.060439 0.627064 0.000000
0.108942 0.627064 0.000000
0.153771 0.627064 0.000000
0.196368 0.627064 0.000000
0.237380 0.627064 0.000000
0.277172 0.627064 0.000000
0.315976 0.627064 0.000000
0.353954 0.627064 0.000000
0.391225 0.627064 0.000000
0.427878 0.627064 0.000000
0.463985 0.627064 0.000000
0.499602 0.627064 0.000000
0.534776 0.627064 0.000000
0.569547 0.627064 0.000000
0.603946 0.627064 0.000000
0.638002 0.627064 0.000000
0.671741 0.627064 0.000000
0.705183 0.627064 0.000000
0.738348 0.627064 0.000000
0.771251 0.627064 0.000000
0.803909 0.627064 0.000000
0.836334 0.627064 0.000000
0.868538 0.627064 0.000000
0.900534 0.627064 0.000000
0.932329 0.627064 0.000000
0.963935 0.627064 0.000000
0.995359 0.627064 0.000000
1.000000 0.627064 0.000000
1.000000 0.627064 0.000000
1.000000 0.627064 0.000000
1.000000 0.627064 0.000000
1.000000 0.627064 0.000000
0.000000 0.656813 0.000000
0.060439 0.656813 0.000000
0.108942 0.656813 0.000000
0.153771 0.656813 0.000000
0.196368 0.656813 0.000000
0.237380 0.656813 0.000000
0.277172 0.656813 0.000000
0.315976 0.656813 0.000000
0.353954 0.656813 0.000000
0.391225 0.656813 0.000000
0.427878 0.656813 0.000000
0.463985 0.656813 0.000000
0.499602 0.656813 0.000000
0.534776 0.656813 0.000000
0.569547 0.656813 0.000000
0.603946 0.656813 0.000000
0.638002 0.656813 0.000000
0.671741 0.656813 0.000000
0.705183 0.656813 0.000000
0.738348 0.656813 0.000000
0.771251 0.656813 0.000000
0.803909 0.656813 0.000000
0.836334 0.656813 0.000000
0.868538 0.656813 0.000000
0.900534 0.656813 0.000000
0.932329 0.656813 0.000000
0.963935 0.656813 0.000000
0.995359 0.656813 0.000000
1.000000 0.656813 0.000000
1.000000 0.656813 0.000000
1.000000 0.656813 0.000000
1.000000 0.656813 0.000000
1.000000 0.656813 0.000000
0.000000 0.686491 0.000000
0.060439 0.686491 0.000000
0.108942 0.686491 0.000000
0.153771 0.686491 0.000000
0.196368 0.686491 0.000000
0.237380 0.686491 0.000000
0.277172 0.686491 0.000000
0.315976 0.686491 0.000000
0.353954 0.686491 0.000000
0.391225 0.686491 0.000000
0.427878 0.686491 0.000000
0.463985 0.686491 0.000000
0.499602 0.686491 0.000000
0.534776 0.686491 0.000000
0.569547 0.686491 0.000000
0.603946 0.686491 0.000000
0.638002 0.686491 0.000000
0.671741 0.686491 0.000000
0.705183 0.686491 0.000000
0.738348 0.686491 0.000000
0.771251 0.686491 0.000000
0.803909 0.686491 0.000000
0.836334 0.686491 0.000000
0.868538 0.686491 0.000000
0.900534 0.686491 0.000000
0.932329 0.686491 0.000000
0.963935 0.686491 0.000000
0.995359 0.686491 0.000000
1.000000 0.686491 0.000000
1.000000 0.686491 0.000000
1.000000 0.686491 0.000000
1.000000 0.686491 0.000000
1.000000 0.686491 0.000000
0.000000 0.716102 0.000000
0.060439 0.716102 0.000000
0.108942 0.716102 0.000000
0.153771 0.716102 0.000000
0.196368 0.716102 0.000000
0.237380 0.716102 0.000000
0.277172 0.716102 0.000000
0.315976 0.716102 0.000000
0.353954 0.716102 0.000000
0.391225 0.716102 0.000000
0.427878 0.716102 0.000000
0.463985 0.716102 0.000000
0.499602 0.716102 0.000000
0.534776 0.716102 0.000000
0.569547 0.716102 0.000000
0.603946 0.716102 0.000000
0.638002 0.716102 0.000000
0.671741 0.716102 0.000000
0.705183 0.716102 0.000000
0.738348 0.716102 0.000000
0.771251 0.716102 0.000000
0.803909 0.716102 0.000000
0.836334 0.716102 0.000000
0.868538 0.716102 0.000000
0.900534 0.716102 0.000000
0.932329 0.716102 0.000000
0.963935 0.716102 0.000000
0.995359 0.716102 0.000000
1.000000 0.716102 0.000000
1.000000 0.716102 0.000000
1.000000 0.716102 0.000000
1.000000 0.716102 0.000000
1.000000 0.716102 0.000000
0.000000 0.745649 0.000000
0.060439 0.745649 0.000000
0.108942 0.745649 0.000000
0.153771 0.745649 0.000000
0.196368 0.745649 0.000000
0.237380 0.745649 0.000000
0.277172 0.745649 0.000000
0.315976 0.745649 0.000000
0.353954 0.745649 0.000000
0.391225 0.745649 0.000000
0.427878 0.745649 0.000000
0.463985 0.745649 0.000000
0.499602 0.745649 0.000000
0.534776 0.745649 0.000000
0.569547 0.745649 0.000000
0.603946 0.745649 0.000000
0.638002 0.745649 0.000000
0.671741 0.745649 0.000000
0.705183 0.745649 0.000000
0.738348 0.745649 0.000000
0.771251 0.745649 0.000000
0.803909 0.745649 0.000000
0.836334 0.745649 0.000000
0.868538 0.745649 0.000000
0.900534 0.745649 0.000000
0.932329 0.745649 0.000000
0.963935 0.745649 0.000000
0.995359 0.745649 0.000000
1.000000 0.745649 0.000000
1.000000 0.745649 0.000000
1.000000 0.745649 0.000000
1.000000 0.745649 0.000000
1.000000 0.745649 0.000000
0.000000 0.775134 0.000000
0.060439 0.775134 0.000000
0.108942 0.775134 0.000000
0.153771 0.775134 0.000000
0.196368 0.775134 0.000000
0.237380 0.775134 0.000000
0.277172 0.775134 0.000000
0.315976 0.775134 0.000000
0.353954 0.775134 0.000000
0.391225 0.775134 0.000000
0.427878 0.775134 0.000000
0.463985 0.775134 0.000000
0.499602 0.775134 0.000000
0.534776 0.775134 0.000000
0.569547 0.775134 0.000000
0.603946 0.775134 0.000000
0.638002 0.775134 0.000000
0.671741 0.775134 0.000000
0.705183 0.775134 0.000000
0.738348 0.775134 0.000000
0.771251 0.775134 0.000000
0.803909 0.775134 0.000000
0.836334 0.775134 0.000000
0.868538 0.775134 0.000000
0.900534 0.775134 0.000000
0.932329 0.775134 0.000000
0.963935 0.775134 0.000000
0.995359 0.775134 0.000000
1.000000 0.775134 0.000000
1.000000 0.775134 0.000000
1.000000 0.775134 0.000000
1.000000 0.775134 0.000000
1.000000 0.775134 0.000000
0.000000 0.804560 0.000000
0.060439 0.804560 0.000000
0.108942 0.804560 0.000000
0.153771 0.804560 0.000000
0.196368 0.804560 0.000000
0.237380 0.804560 0.000000
0.277172 0.804560 0.000000
0.315976 0.804560 0.000000
0.353954 0.804560 0.000000
0.391225 0.804560 0.000000
0.427878 0.804560 0.000000
0.463985 0.804560 0.000000
0.499602 0.804560 0.000000
0.534776 0.804560 0.000000
0.569547 0.804560 0.000000
0.603946 0.804560 0.000000
0.638002 0.804560 0.000000
0.671741 0.804560 0.000000
0.705183 0.804560 0.000000
0.738348 0.804560 0.000000
0.771251 0.804560 0.000000
0.803909 0.804560 0.000000
0.836334 0.804560 0.000000
0.868538 0.804560 0.000000
0.900534 0.804560 0.000000
0.932329 0.804560 0.000000
0.963935 0.804560 0.000000
0.995359 0.804560 0.000000
