app/src/main/assets/luts/amber.cube
TITLE "Amber"
LUT_3D_SIZE 9
DOMAIN_MIN 0.0 0.0 0.0
DOMAIN_MAX 1.0 1.0 1.0
0.000000 0.000000 0.000000
0.196368 0.000000 0.000000
0.353954 0.000000 0.000000
0.499602 0.000000 0.000000
0.638002 0.000000 0.000000
0.771251 0.000000 0.000000
0.900534 0.000000 0.000000
1.000000 0.000000 0.000000
1.000000 0.000000 0.000000
0.000000 0.135922 0.000000
0.196368 0.135922 0.000000
0.353954 0.135922 0.000000
0.499602 0.135922 0.000000
0.638002 0.135922 0.000000
0.771251 0.135922 0.000000
0.900534 0.135922 0.000000
1.000000 0.135922 0.000000
1.000000 0.135922 0.000000
0.000000 0.262584 0.000000
0.196368 0.262584 0.000000
0.353954 0.262584 0.000000
0.499602 0.262584 0.000000
0.638002 0.262584 0.000000
0.771251 0.262584 0.000000
0.900534 0.262584 0.000000
1.000000 0.262584 0.000000
1.000000 0.262584 0.000000
0.000000 0.385972 0.000000
0.196368 0.385972 0.000000
0.353954 0.385972 0.000000
0.499602 0.385972 0.000000
0.638002 0.385972 0.000000
0.771251 0.385972 0.000000
0.900534 0.385972 0.000000
1.000000 0.385972 0.000000
1.000000 0.385972 0.000000
0.000000 0.507280 0.000000
0.196368 0.507280 0.000000
0.353954 0.507280 0.000000
0.499602 0.507280 0.000000
0.638002 0.507280 0.000000
0.771251 0.507280 0.000000
0.900534 0.507280 0.000000
1.000000 0.507280 0.000000
1.000000 0.507280 0.000000
0.000000 0.627064 0.000000
0.196368 0.627064 0.000000
0.353954 0.627064 0.000000
0.499602 0.627064 0.000000
0.638002 0.627064 0.000000
0.771251 0.627064 0.000000
0.900534 0.627064 0.000000
1.000000 0.627064 0.000000
1.000000 0.627064 0.000000
0.000000 0.745649 0.000000
0.196368 0.745649 0.000000
0.353954 0.745649 0.000000
0.499602 0.745649 0.000000
0.638002 0.745649 0.000000
0.771251 0.745649 0.000000
0.900534 0.745649 0.000000
1.000000 0.745649 0.000000
1.000000 0.745649 0.000000
0.000000 0.863244 0.000000
0.196368 0.863244 0.000000
0.353954 0.863244 0.000000
0.499602 0.863244 0.000000
0.638002 0.863244 0.000000
0.771251 0.863244 0.000000
0.900534 0.863244 0.000000
1.000000 0.863244 0.000000
1.000000 0.863244 0.000000
0.000000 0.980000 0.000000
0.196368 0.980000 0.000000
0.353954 0.980000 0.000000
0.499602 0.980000 0.000000
0.638002 0.980000 0.000000
0.771251 0.980000 0.000000
0.900534 0.980000 0.000000
1.000000 0.980000 0.000000
1.000000 0.980000 0.000000
0.000000 0.000000 0.046890
0.196368 0.000000 0.046890
0.353954 0.000000 0.046890
0.499602 0.000000 0.046890
0.638002 0.000000 0.046890
0.771251 0.000000 0.046890
0.900534 0.000000 0.046890
1.000000 0.000000 0.046890
1.000000 0.000000 0.046890
0.000000 0.135922 0.046890
0.196368 0.135922 0.046890
0.353954 0.135922 0.046890
0.499602 0.135922 0.046890
0.638002 0.135922 0.046890
0.771251 0.135922 0.046890
0.900534 0.135922 0.046890
1.000000 0.135922 0.046890
1.000000 0.135922 0.046890
0.000000 0.262584 0.046890
0.196368 0.262584 0.046890
0.353954 0.262584 0.046890
0.499602 0.262584 0.046890
0.638002 0.262584 0.046890
0.771251 0.262584 0.046890
0.900534 0.262584 0.046890
1.000000 0.262584 0.046890
1.000000 0.262584 0.046890
0.000000 0.385972 0.046890
0.196368 0.385972 0.046890
0.353954 0.385972 0.046890
0.499602 0.385972 0.046890
0.638002 0.385972 0.046890
0.771251 0.385972 0.046890
0.900534 0.385972 0.046890
1.000000 0.385972 0.046890
1.000000 0.385972 0.046890
0.000000 0.507280 0.046890
0.196368 0.507280 0.046890
0.353954 0.507280 0.046890
0.499602 0.507280 0.046890
0.638002 0.507280 0.046890
0.771251 0.507280 0.046890
0.900534 0.507280 0.046890
1.000000 0.507280 0.046890
1.000000 0.507280 0.046890
0.000000 0.627064 0.046890
0.196368 0.627064 0.046890
0.353954 0.627064 0.046890
0.499602 0.627064 0.046890
0.638002 0.627064 0.046890
0.771251 0.627064 0.046890
0.900534 0.627064 0.046890
1.000000 0.627064 0.046890
1.000000 0.627064 0.046890
0.000000 0.745649 0.046890
0.196368 0.745649 0.046890
0.353954 0.745649 0.046890
0.499602 0.745649 0.046890
0.638002 0.745649 0.046890
0.771251 0.745649 0.046890
0.900534 0.745649 0.046890
1.000000 0.745649 0.046890
1.000000 0.745649 0.046890
0.000000 0.863244 0.046890
0.196368 0.863244 0.046890
0.353954 0.863244 0.046890
0.499602 0.863244 0.046890
0.638002 0.863244 0.046890
0.771251 0.863244 0.046890
0.900534 0.863244 0.046890
1.000000 0.863244 0.046890
1.000000 0.863244 0.046890
0.000000 0.980000 0.046890
0.196368 0.980000 0.046890
0.353954 0.980000 0.046890
0.499602 0.980000 0.046890
0.638002 0.980000 0.046890
0.771251 0.980000 0.046890
0.900534 0.980000 0.046890
1.000000 0.980000 0.046890
1.000000 0.980000 0.046890
0.000000 0.000000 0.115457
0.196368 0.000000 0.115457
0.353954 0.000000 0.115457
0.499602 0.000000 0.115457
0.638002 0.000000 0.115457
0.771251 0.000000 0.115457
0.900534 0.000000 0.115457
1.000000 0.000000 0.115457
1.000000 0.000000 0.115457
0.000000 0.135922 0.115457
0.196368 0.135922 0.115457
0.353954 0.135922 0.115457
0.499602 0.135922 0.115457
0.638002 0.135922 0.115457
0.771251 0.135922 0.115457
0.900534 0.135922 0.115457
1.000000 0.135922 0.115457
1.000000 0.135922 0.115457
0.000000 0.262584 0.115457
0.196368 0.262584 0.115457
0.353954 0.262584 0.115457
0.499602 0.262584 0.115457
0.638002 0.262584 0.115457
0.771251 0.262584 0.115457
0.900534 0.262584 0.115457
1.000000 0.262584 0.115457
1.000000 0.262584 0.115457
0.000000 0.385972 0.115457
0.196368 0.385972 0.115457
0.353954 0.385972 0.115457
0.499602 0.385972 0.115457
0.638002 0.385972 0.115457
0.771251 0.385972 0.115457
0.900534 0.385972 0.115457
1.000000 0.385972 0.115457
1.000000 0.385972 0.115457
0.000000 0.507280 0.115457
0.196368 0.507280 0.115457
0.353954 0.507280 0.115457
0.499602 0.507280 0.115457
0.638002 0.507280 0.115457
0.771251 0.507280 0.115457
0.900534 0.507280 0.115457
1.000000 0.507280 0.115457
1.000000 0.507280 0.115457
0.000000 0.627064 0.115457
0.196368 0.627064 0.115457
0.353954 0.627064 0.115457
0.499602 0.627064 0.115457
0.638002 0.627064 0.115457
0.771251 0.627064 0.115457
0.900534 0.627064 0.115457
1.000000 0.627064 0.115457
1.000000 0.627064 0.115457
0.000000 0.745649 0.115457
0.196368 0.745649 0.115457
0.353954 0.745649 0.115457
0.499602 0.745649 0.115457
0.638002 0.745649 0.115457
0.771251 0.745649 0.115457
0.900534 0.745649 0.115457
1.000000 0.745649 0.115457
1.000000 0.745649 0.115457
0.000000 0.863244 0.115457
0.196368 0.863244 0.115457
0.353954 0.863244 0.115457
0.499602 0.863244 0.115457
0.638002 0.863244 0.115457
0.771251 0.863244 0.115457
0.900534 0.863244 0.115457
1.000000 0.863244 0.115457
1.000000 0.863244 0.115457
0.000000 0.980000 0.115457
0.196368 0.980000 0.115457
0.353954 0.980000 0.115457
0.499602 0.980000 0.115457
0.638002 0.980000 0.115457
0.771251 0.980000 0.115457
0.900534 0.980000 0.115457
1.000000 0.980000 0.115457
1.000000 0.980000 0.115457
0.000000 0.000000 0.195586
0.196368 0.000000 0.195586
0.353954 0.000000 0.195586
0.499602 0.000000 0.195586
0.638002 0.000000 0.195586
0.771251 0.000000 0.195586
0.900534 0.000000 0.195586
1.000000 0.000000 0.195586
1.000000 0.000000 0.195586
0.000000 0.135922 0.195586
0.196368 0.135922 0.195586
0.353954 0.135922 0.195586
0.499602 0.135922 0.195586
0.638002 0.135922 0.195586
0.771251 0.135922 0.195586
0.900534 0.135922 0.195586
1.000000 0.135922 0.195586
1.000000 0.135922 0.195586
0.000000 0.262584 0.195586
0.196368 0.262584 0.195586
0.353954 0.262584 0.195586
0.499602 0.262584 0.195586
0.638002 0.262584 0.195586
0.771251 0.262584 0.195586
0.900534 0.262584 0.195586
1.000000 0.262584 0.195586
1.000000 0.262584 0.195586
0.000000 0.385972 0.195586
0.196368 0.385972 0.195586
0.353954 0.385972 0.195586
0.499602 0.385972 0.195586
0.638002 0.385972 0.195586
0.771251 0.385972 0.195586
0.900534 0.385972 0.195586
1.000000 0.385972 0.195586
1.000000 0.385972 0.195586
0.000000 0.507280 0.195586
0.196368 0.507280 0.195586
0.353954 0.507280 0.195586
0.499602 0.507280 0.195586
0.638002 0.507280 0.195586
0.771251 0.507280 0.195586
0.900534 0.507280 0.195586
1.000000 0.507280 0.195586
1.000000 0.507280 0.195586
0.000000 0.627064 0.195586
0.196368 0.627064 0.195586
0.353954 0.627064 0.195586
0.499602 0.627064 0.195586
0.638002 0.627064 0.195586
0.771251 0.627064 0.195586
0.900534 0.627064 0.195586
1.000000 0.627064 0.195586
1.000000 0.627064 0.195586
0.000000 0.745649 0.195586
0.196368 0.745649 0.195586
0.353954 0.745649 0.195586
0.499602 0.745649 0.195586
0.638002 0.745649 0.195586
0.771251 0.745649 0.195586
0.900534 0.745649 0.195586
1.000000 0.745649 0.195586
1.000000 0.745649 0.195586
0.000000 0.863244 0.195586
0.196368 0.863244 0.195586
0.353954 0.863244 0.195586
0.499602 0.863244 0.195586
0.638002 0.863244 0.195586
0.771251 0.863244 0.195586
0.900534 0.863244 0.195586
1.000000 0.863244 0.195586
1.000000 0.863244 0.195586
0.000000 0.980000 0.195586
0.196368 0.980000 0.195586
0.353954 0.980000 0.195586
0.499602 0.980000 0.195586
0.638002 0.980000 0.195586
0.771251 0.980000 0.195586
0.900534 0.980000 0.195586
1.000000 0.980000 0.195586
1.000000 0.980000 0.195586
0.000000 0.000000 0.284288
0.196368 0.000000 0.284288
0.353954 0.000000 0.284288
0.499602 0.000000 0.284288
0.638002 0.000000 0.284288
0.771251 0.000000 0.284288
0.900534 0.000000 0.284288
1.000000 0.000000 0.284288
1.000000 0.000000 0.284288
0.000000 0.135922 0.284288
0.196368 0.135922 0.284288
0.353954 0.135922 0.284288
0.499602 0.135922 0.284288
0.638002 0.135922 0.284288
0.771251 0.135922 0.284288
0.900534 0.135922 0.284288
1.000000 0.135922 0.284288
1.000000 0.135922 0.284288
0.000000 0.262584 0.284288
0.196368 0.262584 0.284288
0.353954 0.262584 0.284288
0.499602 0.262584 0.284288
0.638002 0.262584 0.284288
0.771251 0.262584 0.284288
0.900534 0.262584 0.284288
1.000000 0.262584 0.284288
1.000000 0.262584 0.284288
0.000000 0.385972 0.284288
0.196368 0.385972 0.284288
0.353954 0.385972 0.284288
0.499602 0.385972 0.284288
0.638002 0.385972 0.284288
0.771251 0.385972 0.284288
0.900534 0.385972 0.284288
1.000000 0.385972 0.284288
1.000000 0.385972 0.284288
0.000000 0.507280 0.284288
0.196368 0.507280 0.284288
0.353954 0.507280 0.284288
0.499602 0.507280 0.284288
0.638002 0.507280 0.284288
0.771251 0.507280 0.284288
0.900534 0.507280 0.284288
1.000000 0.507280 0.284288
1.000000 0.507280 0.284288
0.000000 0.627064 0.284288
0.196368 0.627064 0.284288
0.353954 0.627064 0.284288
0.499602 0.627064 0.284288
0.638002 0.627064 0.284288
0.771251 0.627064 0.284288
0.900534 0.627064 0.284288
1.000000 0.627064 0.284288
1.000000 0.627064 0.284288
0.000000 0.745649 0.284288
0.196368 0.745649 0.284288
0.353954 0.745649 0.284288
0.499602 0.745649 0.284288
0.638002 0.745649 0.284288
0.771251 0.745649 0.284288
0.900534 0.745649 0.284288
1.000000 0.745649 0.284288
1.000000 0.745649 0.284288
0.000000 0.863244 0.284288
0.196368 0.863244 0.284288
0.353954 0.863244 0.284288
0.499602 0.863244 0.284288
0.638002 0.863244 0.284288
0.771251 0.863244 0.284288
0.900534 0.863244 0.284288
1.000000 0.863244 0.284288
1.000000 0.863244 0.284288
0.000000 0.980000 0.284288
0.196368 0.980000 0.284288
0.353954 0.980000 0.284288
0.499602 0.980000 0.284288
0.638002 0.980000 0.284288
0.771251 0.980000 0.284288
0.900534 0.980000 0.284288
1.000000 0.980000 0.284288
1.000000 0.980000 0.284288
0.000000 0.000000 0.379964
0.196368 0.000000 0.379964
0.353954 0.000000 0.379964
0.499602 0.000000 0.379964
0.638002 0.000000 0.379964
0.771251 0.000000 0.379964
0.900534 0.000000 0.379964
1.000000 0.000000 0.379964
1.000000 0.000000 0.379964
0.000000 0.135922 0.379964
0.196368 0.135922 0.379964
0.353954 0.135922 0.379964
0.499602 0.135922 0.379964
0.638002 0.135922 0.379964
0.771251 0.135922 0.379964
0.900534 0.135922 0.379964
1.000000 0.135922 0.379964
1.000000 0.135922 0.379964
0.000000 0.262584 0.379964
0.196368 0.262584 0.379964
0.353954 0.262584 0.379964
0.499602 0.262584 0.379964
0.638002 0.262584 0.379964
0.771251 0.262584 0.379964
0.900534 0.262584 0.379964
1.000000 0.262584 0.379964
1.000000 0.262584 0.379964
0.000000 0.385972 0.379964
0.196368 0.385972 0.379964
0.353954 0.385972 0.379964
0.499602 0.385972 0.379964
0.638002 0.385972 0.379964
0.771251 0.385972 0.379964
0.900534 0.385972 0.379964
1.000000 0.385972 0.379964
1.000000 0.385972 0.379964
0.000000 0.507280 0.379964
0.196368 0.507280 0.379964
0.353954 0.507280 0.379964
0.499602 0.507280 0.379964
0.638002 0.507280 0.379964
0.771251 0.507280 0.379964
0.900534 0.507280 0.379964
1.000000 0.507280 0.379964
1.000000 0.507280 0.379964
0.000000 0.627064 0.379964
0.196368 0.627064 0.379964
0.353954 0.627064 0.379964
0.499602 0.627064 0.379964
0.638002 0.627064 0.379964
0.771251 0.627064 0.379964
0.900534 0.627064 0.379964
1.000000 0.627064 0.379964
1.000000 0.627064 0.379964
0.000000 0.745649 0.379964
0.196368 0.745649 0.379964
0.353954 0.745649 0.379964
0.499602 0.745649 0.379964
0.638002 0.745649 0.379964
0.771251 0.745649 0.379964
0.900534 0.745649 0.379964
1.000000 0.745649 0.379964
1.000000 0.745649 0.379964
0.000000 0.863244 0.379964
0.196368 0.863244 0.379964
0.353954 0.863244 0.379964
0.499602 0.863244 0.379964
0.638002 0.863244 0.379964
0.771251 0.863244 0.379964
0.900534 0.863244 0.379964
1.000000 0.863244 0.379964
1.000000 0.863244 0.379964
0.000000 0.980000 0.379964
0.196368 0.980000 0.379964
0.353954 0.980000 0.379964
0.499602 0.980000 0.379964
0.638002 0.980000 0.379964
0.771251 0.980000 0.379964
0.900534 0.980000 0.379964
1.000000 0.980000 0.379964
1.000000 0.980000 0.379964
0.000000 0.000000 0.481590
0.196368 0.000000 0.481590
0.353954 0.000000 0.481590
0.499602 0.000000 0.481590
0.638002 0.000000 0.481590
0.771251 0.000000 0.481590
0.900534 0.000000 0.481590
1.000000 0.000000 0.481590
1.000000 0.000000 0.481590
0.000000 0.135922 0.481590
0.196368 0.135922 0.481590
0.353954 0.135922 0.481590
0.499602 0.135922 0.481590
0.638002 0.135922 0.481590
0.771251 0.135922 0.481590
0.900534 0.135922 0.481590
1.000000 0.135922 0.481590
1.000000 0.135922 0.481590
0.000000 0.262584 0.481590
0.196368 0.262584 0.481590
0.353954 0.262584 0.481590
0.499602 0.262584 0.481590
0.638002 0.262584 0.481590
0.771251 0.262584 0.481590
0.900534 0.262584 0.481590
1.000000 0.262584 0.481590
1.000000 0.262584 0.481590
0.000000 0.385972 0.481590
0.196368 0.385972 0.481590
0.353954 0.385972 0.481590
0.499602 0.385972 0.481590
0.638002 0.385972 0.481590
0.771251 0.385972 0.481590
0.900534 0.385972 0.481590
1.000000 0.385972 0.481590
1.000000 0.385972 0.481590
0.000000 0.507280 0.481590
0.196368 0.507280 0.481590
0.353954 0.507280 0.481590
0.499602 0.507280 0.481590
0.638002 0.507280 0.481590
0.771251 0.507280 0.481590
0.900534 0.507280 0.481590
1.000000 0.507280 0.481590
1.000000 0.507280 0.481590
0.000000 0.627064 0.481590
0.196368 0.627064 0.481590
0.353954 0.627064 0.481590
0.499602 0.627064 0.481590
0.638002 0.627064 0.481590
0.771251 0.627064 0.481590
0.900534 0.627064 0.481590
1.000000 0.627064 0.481590
1.000000 0.627064 0.481590
0.000000 0.745649 0.481590
0.196368 0.745649 0.481590
0.353954 0.745649 0.481590
0.499602 0.745649 0.481590
0.638002 0.745649 0.481590
0.771251 0.745649 0.481590
0.900534 0.745649 0.481590
1.000000 0.745649 0.481590
1.000000 0.745649 0.481590
0.000000 0.863244 0.481590
0.196368 0.863244 0.481590
0.353954 0.863244 0.481590
0.499602 0.863244 0.481590
0.638002 0.863244 0.481590
0.771251 0.863244 0.481590
0.900534 0.863244 0.481590
1.000000 0.863244 0.481590
1.000000 0.863244 0.481590
0.000000 0.980000 0.481590
0.196368 0.980000 0.481590
0.353954 0.980000 0.481590
0.499602 0.980000 0.481590
0.638002 0.980000 0.481590
0.771251 0.980000 0.481590
0.900534 0.980000 0.481590
1.000000 0.980000 0.481590
1.000000 0.980000 0.481590
0.000000 0.000000 0.588449
0.196368 0.000000 0.588449
0.353954 0.000000 0.588449
0.499602 0.000000 0.588449
0.638002 0.000000 0.588449
0.771251 0.000000 0.588449
0.900534 0.000000 0.588449
1.000000 0.000000 0.588449
1.000000 0.000000 0.588449
0.000000 0.135922 0.588449
0.196368 0.135922 0.588449
0.353954 0.135922 0.588449
0.499602 0.135922 0.588449
0.638002 0.135922 0.588449
0.771251 0.135922 0.588449
0.900534 0.135922 0.588449
1.000000 0.135922 0.588449
1.000000 0.135922 0.588449
0.000000 0.262584 0.588449
0.196368 0.262584 0.588449
0.353954 0.262584 0.588449
0.499602 0.262584 0.588449
0.638002 0.262584 0.588449
0.771251 0.262584 0.588449
0.900534 0.262584 0.588449
1.000000 0.262584 0.588449
1.000000 0.262584 0.588449
0.000000 0.385972 0.588449
0.196368 0.385972 0.588449
0.353954 0.385972 0.588449
0.499602 0.385972 0.588449
0.638002 0.385972 0.588449
0.771251 0.385972 0.588449
0.900534 0.385972 0.588449
1.000000 0.385972 0.588449
1.000000 0.385972 0.588449
0.000000 0.507280 0.588449
0.196368 0.507280 0.588449
0.353954 0.507280 0.588449
0.499602 0.507280 0.588449
0.638002 0.507280 0.588449
0.771251 0.507280 0.588449
0.900534 0.507280 0.588449
1.000000 0.507280 0.588449
1.000000 0.507280 0.588449
0.000000 0.627064 0.588449
0.196368 0.627064 0.588449
0.353954 0.627064 0.588449
0.499602 0.627064 0.588449
0.638002 0.627064 0.588449
0.771251 0.627064 0.588449
0.900534 0.627064 0.588449
1.000000 0.627064 0.588449
1.000000 0.627064 0.588449
0.000000 0.745649 0.588449
0.196368 0.745649 0.588449
0.353954 0.745649 0.588449
0.499602 0.745649 0.588449
0.638002 0.745649 0.588449
0.771251 0.745649 0.588449
0.900534 0.745649 0.588449
1.000000 0.745649 0.588449
1.000000 0.745649 0.588449
0.000000 0.863244 0.588449
0.196368 0.863244 0.588449
0.353954 0.863244 0.588449
0.499602 0.863244 0.588449
0.638002 0.863244 0.588449
0.771251 0.863244 0.588449
0.900534 0.863244 0.588449
1.000000 0.863244 0.588449
1.000000 0.863244 0.588449
0.000000 0.980000 0.588449
0.196368 0.980000 0.588449
0.353954 0.980000 0.588449
0.499602 0.980000 0.588449
0.638002 0.980000 0.588449
0.771251 0.980000 0.588449
0.900534 0.980000 0.588449
1.000000 0.980000 0.588449
1.000000 0.980000 0.588449
0.000000 0.000000 0.700000
0.196368 0.000000 0.700000
0.353954 0.000000 0.700000
0.499602 0.000000 0.700000
0.638002 0.000000 0.700000
0.771251 0.000000 0.700000
0.900534 0.000000 0.700000
1.000000 0.000000 0.700000
1.000000 0.000000 0.700000
0.000000 0.135922 0.700000
0.196368 0.135922 0.700000
0.353954 0.135922 0.700000
0.499602 0.135922 0.700000
0.638002 0.135922 0.700000
0.771251 0.135922 0.700000
0.900534 0.135922 0.700000
1.000000 0.135922 0.700000
1.000000 0.135922 0.700000
0.000000 0.262584 0.700000
0.196368 0.262584 0.700000
0.353954 0.262584 0.700000
0.499602 0.262584 0.700000
0.638002 0.262584 0.700000
0.771251 0.262584 0.700000
0.900534 0.262584 0.700000
1.000000 0.262584 0.700000
1.000000 0.262584 0.700000
0.000000 0.385972 0.700000
0.196368 0.385972 0.700000
0.353954 0.385972 0.700000
0.499602 0.385972 0.700000
0.638002 0.385972 0.700000
0.771251 0.385972 0.700000
0.900534 0.385972 0.700000
1.000000 0.385972 0.700000
1.000000 0.385972 0.700000
0.000000 0.507280 0.700000
0.196368 0.507280 0.700000
0.353954 0.507280 0.700000
0.499602 0.507280 0.700000
0.638002 0.507280 0.700000
0.771251 0.507280 0.700000
0.900534 0.507280 0.700000
1.000000 0.507280 0.700000
1.000000 0.507280 0.700000
0.000000 0.627064 0.700000
0.196368 0.627064 0.700000
0.353954 0.627064 0.700000
0.499602 0.627064 0.700000
0.638002 0.627064 0.700000
0.771251 0.627064 0.700000
0.900534 0.627064 0.700000
1.000000 0.627064 0.700000
1.000000 0.627064 0.700000
0.000000 0.745649 0.700000
0.196368 0.745649 0.700000
0.353954 0.745649 0.700000
0.499602 0.745649 0.700000
0.638002 0.745649 0.700000
0.771251 0.745649 0.700000
0.900534 0.745649 0.700000
1.000000 0.745649 0.700000
1.000000 0.745649 0.700000
0.000000 0.863244 0.700000
0.196368 0.863244 0.700000
0.353954 0.863244 0.700000
0.499602 0.863244 0.700000
0.638002 0.863244 0.700000
0.771251 0.863244 0.700000
0.900534 0.863244 0.700000
1.000000 0.863244 0.700000
1.000000 0.863244 0.700000
0.000000 0.980000 0.700000
0.196368 0.980000 0.700000
0.353954 0.980000 0.700000
0.499602 0.980000 0.700000
0.638002 0.980000 0.700000
0.771251 0.980000 0.700000
0.900534 0.980000 0.700000
1.000000 0.980000 0.700000
1.000000 0.980000 0.700000
