app/src/main/assets/luts/amber.cube
TITLE "Amber"
LUT_3D_SIZE 5
DOMAIN_MIN 0.0 0.0 0.0
DOMAIN_MAX 1.0 1.0 1.0
0.000000 0.000000 0.000000
0.353954 0.000000 0.000000
0.638002 0.000000 0.000000
0.900534 0.000000 0.000000
1.000000 0.000000 0.000000
0.000000 0.262584 0.000000
0.353954 0.262584 0.000000
0.638002 0.262584 0.000000
0.900534 0.262584 0.000000
1.000000 0.262584 0.000000
0.000000 0.507280 0.000000
0.353954 0.507280 0.000000
0.638002 0.507280 0.000000
0.900534 0.507280 0.000000
1.000000 0.507280 0.000000
0.000000 0.745649 0.000000
0.353954 0.745649 0.000000
0.638002 0.745649 0.000000
0.900534 0.745649 0.000000
1.000000 0.745649 0.000000
0.000000 0.980000 0.000000
0.353954 0.980000 0.000000
0.638002 0.980000 0.000000
0.900534 0.980000 0.000000
1.000000 0.980000 0.000000
0.000000 0.000000 0.115457
0.353954 0.000000 0.115457
0.638002 0.000000 0.115457
0.900534 0.000000 0.115457
1.000000 0.000000 0.115457
0.000000 0.262584 0.115457
0.353954 0.262584 0.115457
0.638002 0.262584 0.115457
0.900534 0.262584 0.115457
1.000000 0.262584 0.115457
0.000000 0.507280 0.115457
0.353954 0.507280 0.115457
0.638002 0.507280 0.115457
0.900534 0.507280 0.115457
1.000000 0.507280 0.115457
0.000000 0.745649 0.115457
0.353954 0.745649 0.115457
0.638002 0.745649 0.115457
0.900534 0.745649 0.115457
1.000000 0.745649 0.115457
0.000000 0.980000 0.115457
0.353954 0.980000 0.115457
0.638002 0.980000 0.115457
0.900534 0.980000 0.115457
1.000000 0.980000 0.115457
0.000000 0.000000 0.284288
0.353954 0.000000 0.284288
0.638002 0.000000 0.284288
0.900534 0.000000 0.284288
1.000000 0.000000 0.284288
0.000000 0.262584 0.284288
0.353954 0.262584 0.284288
0.638002 0.262584 0.284288
0.900534 0.262584 0.284288
1.000000 0.262584 0.284288
0.000000 0.507280 0.284288
0.353954 0.507280 0.284288
0.638002 0.507280 0.284288
0.900534 0.507280 0.284288
1.000000 0.507280 0.284288
0.000000 0.745649 0.284288
0.353954 0.745649 0.284288
0.638002 0.745649 0.284288
0.900534 0.745649 0.284288
1.000000 0.745649 0.284288
0.000000 0.980000 0.284288
0.353954 0.980000 0.284288
0.638002 0.980000 0.284288
0.900534 0.980000 0.284288
1.000000 0.980000 0.284288
0.000000 0.000000 0.481590
0.353954 0.000000 0.481590
0.638002 0.000000 0.481590
0.900534 0.000000 0.481590
1.000000 0.000000 0.481590
0.000000 0.262584 0.481590
0.353954 0.262584 0.481590
0.638002 0.262584 0.481590
0.900534 0.262584 0.481590
1.000000 0.262584 0.481590
0.000000 0.507280 0.481590
0.353954 0.507280 0.481590
0.638002 0.507280 0.481590
0.900534 0.507280 0.481590
1.000000 0.507280 0.481590
0.000000 0.745649 0.481590
0.353954 0.745649 0.481590
0.638002 0.745649 0.481590
0.900534 0.745649 0.481590
1.000000 0.745649 0.481590
0.000000 0.980000 0.481590
0.353954 0.980000 0.481590
0.638002 0.980000 0.481590
0.900534 0.980000 0.481590
1.000000 0.980000 0.481590
0.000000 0.000000 0.700000
0.353954 0.000000 0.700000
0.638002 0.000000 0.700000
0.900534 0.000000 0.700000
1.000000 0.000000 0.700000
0.000000 0.262584 0.700000
0.353954 0.262584 0.700000
0.638002 0.262584 0.700000
0.900534 0.262584 0.700000
1.000000 0.262584 0.700000
0.000000 0.507280 0.700000
0.353954 0.507280 0.700000
0.638002 0.507280 0.700000
0.900534 0.507280 0.700000
1.000000 0.507280 0.700000
0.000000 0.745649 0.700000
0.353954 0.745649 0.700000
0.638002 0.745649 0.700000
0.900534 0.745649 0.700000
1.000000 0.745649 0.700000
0.000000 0.980000 0.700000
0.353954 0.980000 0.700000
0.638002 0.980000 0.700000
0.900534 0.980000 0.700000
1.000000 0.980000 0.700000
