app/src/main/assets/luts/arctic.cube
TITLE "Arctic"
LUT_3D_SIZE 9
DOMAIN_MIN 0.0 0.0 0.0
DOMAIN_MAX 1.0 1.0 1.0
0.000000 0.010000 0.050000
0.085708 0.010000 0.050000
0.186284 0.010000 0.050000
0.293358 0.010000 0.050000
0.404883 0.010000 0.050000
0.519838 0.010000 0.050000
0.637604 0.010000 0.050000
0.757760 0.010000 0.050000
0.880000 0.010000 0.050000
0.000000 0.127510 0.050000
0.085708 0.127510 0.050000
0.186284 0.127510 0.050000
0.293358 0.127510 0.050000
0.404883 0.127510 0.050000
0.519838 0.127510 0.050000
0.637604 0.127510 0.050000
0.757760 0.127510 0.050000
0.880000 0.127510 0.050000
0.000000 0.248300 0.050000
0.085708 0.248300 0.050000
0.186284 0.248300 0.050000
0.293358 0.248300 0.050000
0.404883 0.248300 0.050000
0.519838 0.248300 0.050000
0.637604 0.248300 0.050000
0.757760 0.248300 0.050000
0.880000 0.248300 0.050000
0.000000 0.370361 0.050000
0.085708 0.370361 0.050000
0.186284 0.370361 0.050000
0.293358 0.370361 0.050000
0.404883 0.370361 0.050000
0.519838 0.370361 0.050000
0.637604 0.370361 0.050000
0.757760 0.370361 0.050000
0.880000 0.370361 0.050000
0.000000 0.493254 0.050000
0.085708 0.493254 0.050000
0.186284 0.493254 0.050000
0.293358 0.493254 0.050000
0.404883 0.493254 0.050000
0.519838 0.493254 0.050000
0.637604 0.493254 0.050000
0.757760 0.493254 0.050000
0.880000 0.493254 0.050000
0.000000 0.616769 0.050000
0.085708 0.616769 0.050000
0.186284 0.616769 0.050000
0.293358 0.616769 0.050000
0.404883 0.616769 0.050000
0.519838 0.616769 0.050000
0.637604 0.616769 0.050000
0.757760 0.616769 0.050000
0.880000 0.616769 0.050000
0.000000 0.740783 0.050000
0.085708 0.740783 0.050000
0.186284 0.740783 0.050000
0.293358 0.740783 0.050000
0.404883 0.740783 0.050000
0.519838 0.740783 0.050000
0.637604 0.740783 0.050000
0.757760 0.740783 0.050000
0.880000 0.740783 0.050000
0.000000 0.865213 0.050000
0.085708 0.865213 0.050000
0.186284 0.865213 0.050000
0.293358 0.865213 0.050000
0.404883 0.865213 0.050000
0.519838 0.865213 0.050000
0.637604 0.865213 0.050000
0.757760 0.865213 0.050000
0.880000 0.865213 0.050000
0.000000 0.990000 0.050000
0.085708 0.990000 0.050000
0.186284 0.990000 0.050000
0.293358 0.990000 0.050000
0.404883 0.990000 0.050000
0.519838 0.990000 0.050000
0.637604 0.990000 0.050000
0.757760 0.990000 0.050000
0.880000 0.990000 0.050000
0.000000 0.010000 0.226977
0.085708 0.010000 0.226977
0.186284 0.010000 0.226977
0.293358 0.010000 0.226977
0.404883 0.010000 0.226977
0.519838 0.010000 0.226977
0.637604 0.010000 0.226977
0.757760 0.010000 0.226977
0.880000 0.010000 0.226977
0.000000 0.127510 0.226977
0.085708 0.127510 0.226977
0.186284 0.127510 0.226977
0.293358 0.127510 0.226977
0.404883 0.127510 0.226977
0.519838 0.127510 0.226977
0.637604 0.127510 0.226977
0.757760 0.127510 0.226977
0.880000 0.127510 0.226977
0.000000 0.248300 0.226977
0.085708 0.248300 0.226977
0.186284 0.248300 0.226977
0.293358 0.248300 0.226977
0.404883 0.248300 0.226977
0.519838 0.248300 0.226977
0.637604 0.248300 0.226977
0.757760 0.248300 0.226977
0.880000 0.248300 0.226977
0.000000 0.370361 0.226977
0.085708 0.370361 0.226977
0.186284 0.370361 0.226977
0.293358 0.370361 0.226977
0.404883 0.370361 0.226977
0.519838 0.370361 0.226977
0.637604 0.370361 0.226977
0.757760 0.370361 0.226977
0.880000 0.370361 0.226977
0.000000 0.493254 0.226977
0.085708 0.493254 0.226977
0.186284 0.493254 0.226977
0.293358 0.493254 0.226977
0.404883 0.493254 0.226977
0.519838 0.493254 0.226977
0.637604 0.493254 0.226977
0.757760 0.493254 0.226977
0.880000 0.493254 0.226977
0.000000 0.616769 0.226977
0.085708 0.616769 0.226977
0.186284 0.616769 0.226977
0.293358 0.616769 0.226977
0.404883 0.616769 0.226977
0.519838 0.616769 0.226977
0.637604 0.616769 0.226977
0.757760 0.616769 0.226977
0.880000 0.616769 0.226977
0.000000 0.740783 0.226977
0.085708 0.740783 0.226977
0.186284 0.740783 0.226977
0.293358 0.740783 0.226977
0.404883 0.740783 0.226977
0.519838 0.740783 0.226977
0.637604 0.740783 0.226977
0.757760 0.740783 0.226977
0.880000 0.740783 0.226977
0.000000 0.865213 0.226977
0.085708 0.865213 0.226977
0.186284 0.865213 0.226977
0.293358 0.865213 0.226977
0.404883 0.865213 0.226977
0.519838 0.865213 0.226977
0.637604 0.865213 0.226977
0.757760 0.865213 0.226977
0.880000 0.865213 0.226977
0.000000 0.990000 0.226977
0.085708 0.990000 0.226977
0.186284 0.990000 0.226977
0.293358 0.990000 0.226977
0.404883 0.990000 0.226977
0.519838 0.990000 0.226977
0.637604 0.990000 0.226977
0.757760 0.990000 0.226977
0.880000 0.990000 0.226977
0.000000 0.010000 0.380251
0.085708 0.010000 0.380251
0.186284 0.010000 0.380251
0.293358 0.010000 0.380251
0.404883 0.010000 0.380251
0.519838 0.010000 0.380251
0.637604 0.010000 0.380251
0.757760 0.010000 0.380251
0.880000 0.010000 0.380251
0.000000 0.127510 0.380251
0.085708 0.127510 0.380251
0.186284 0.127510 0.380251
0.293358 0.127510 0.380251
0.404883 0.127510 0.380251
0.519838 0.127510 0.380251
0.637604 0.127510 0.380251
0.757760 0.127510 0.380251
0.880000 0.127510 0.380251
0.000000 0.248300 0.380251
0.085708 0.248300 0.380251
0.186284 0.248300 0.380251
0.293358 0.248300 0.380251
0.404883 0.248300 0.380251
0.519838 0.248300 0.380251
0.637604 0.248300 0.380251
0.757760 0.248300 0.380251
0.880000 0.248300 0.380251
0.000000 0.370361 0.380251
0.085708 0.370361 0.380251
0.186284 0.370361 0.380251
0.293358 0.370361 0.380251
0.404883 0.370361 0.380251
0.519838 0.370361 0.380251
0.637604 0.370361 0.380251
0.757760 0.370361 0.380251
0.880000 0.370361 0.380251
0.000000 0.493254 0.380251
0.085708 0.493254 0.380251
0.186284 0.493254 0.380251
0.293358 0.493254 0.380251
0.404883 0.493254 0.380251
0.519838 0.493254 0.380251
0.637604 0.493254 0.380251
0.757760 0.493254 0.380251
0.880000 0.493254 0.380251
0.000000 0.616769 0.380251
0.085708 0.616769 0.380251
0.186284 0.616769 0.380251
0.293358 0.616769 0.380251
0.404883 0.616769 0.380251
0.519838 0.616769 0.380251
0.637604 0.616769 0.380251
0.757760 0.616769 0.380251
0.880000 0.616769 0.380251
0.000000 0.740783 0.380251
0.085708 0.740783 0.380251
0.186284 0.740783 0.380251
0.293358 0.740783 0.380251
0.404883 0.740783 0.380251
0.519838 0.740783 0.380251
0.637604 0.740783 0.380251
0.757760 0.740783 0.380251
0.880000 0.740783 0.380251
0.000000 0.865213 0.380251
0.085708 0.865213 0.380251
0.186284 0.865213 0.380251
0.293358 0.865213 0.380251
0.404883 0.865213 0.380251
0.519838 0.865213 0.380251
0.637604 0.865213 0.380251
0.757760 0.865213 0.380251
0.880000 0.865213 0.380251
0.000000 0.990000 0.380251
0.085708 0.990000 0.380251
0.186284 0.990000 0.380251
0.293358 0.990000 0.380251
0.404883 0.990000 0.380251
0.519838 0.990000 0.380251
0.637604 0.990000 0.380251
0.757760 0.990000 0.380251
0.880000 0.990000 0.380251
0.000000 0.010000 0.525692
0.085708 0.010000 0.525692
0.186284 0.010000 0.525692
0.293358 0.010000 0.525692
0.404883 0.010000 0.525692
0.519838 0.010000 0.525692
0.637604 0.010000 0.525692
0.757760 0.010000 0.525692
0.880000 0.010000 0.525692
0.000000 0.127510 0.525692
0.085708 0.127510 0.525692
0.186284 0.127510 0.525692
0.293358 0.127510 0.525692
0.404883 0.127510 0.525692
0.519838 0.127510 0.525692
0.637604 0.127510 0.525692
0.757760 0.127510 0.525692
0.880000 0.127510 0.525692
0.000000 0.248300 0.525692
0.085708 0.248300 0.525692
0.186284 0.248300 0.525692
0.293358 0.248300 0.525692
0.404883 0.248300 0.525692
0.519838 0.248300 0.525692
0.637604 0.248300 0.525692
0.757760 0.248300 0.525692
0.880000 0.248300 0.525692
0.000000 0.370361 0.525692
0.085708 0.370361 0.525692
0.186284 0.370361 0.525692
0.293358 0.370361 0.525692
0.404883 0.370361 0.525692
0.519838 0.370361 0.525692
0.637604 0.370361 0.525692
0.757760 0.370361 0.525692
0.880000 0.370361 0.525692
0.000000 0.493254 0.525692
0.085708 0.493254 0.525692
0.186284 0.493254 0.525692
0.293358 0.493254 0.525692
0.404883 0.493254 0.525692
0.519838 0.493254 0.525692
0.637604 0.493254 0.525692
0.757760 0.493254 0.525692
0.880000 0.493254 0.525692
0.000000 0.616769 0.525692
0.085708 0.616769 0.525692
0.186284 0.616769 0.525692
0.293358 0.616769 0.525692
0.404883 0.616769 0.525692
0.519838 0.616769 0.525692
0.637604 0.616769 0.525692
0.757760 0.616769 0.525692
0.880000 0.616769 0.525692
0.000000 0.740783 0.525692
0.085708 0.740783 0.525692
0.186284 0.740783 0.525692
0.293358 0.740783 0.525692
0.404883 0.740783 0.525692
0.519838 0.740783 0.525692
0.637604 0.740783 0.525692
0.757760 0.740783 0.525692
0.880000 0.740783 0.525692
0.000000 0.865213 0.525692
0.085708 0.865213 0.525692
0.186284 0.865213 0.525692
0.293358 0.865213 0.525692
0.404883 0.865213 0.525692
0.519838 0.865213 0.525692
0.637604 0.865213 0.525692
0.757760 0.865213 0.525692
0.880000 0.865213 0.525692
0.000000 0.990000 0.525692
0.085708 0.990000 0.525692
0.186284 0.990000 0.525692
0.293358 0.990000 0.525692
0.404883 0.990000 0.525692
0.519838 0.990000 0.525692
0.637604 0.990000 0.525692
0.757760 0.990000 0.525692
0.880000 0.990000 0.525692
0.000000 0.010000 0.666270
0.085708 0.010000 0.666270
0.186284 0.010000 0.666270
0.293358 0.010000 0.666270
0.404883 0.010000 0.666270
0.519838 0.010000 0.666270
0.637604 0.010000 0.666270
0.757760 0.010000 0.666270
0.880000 0.010000 0.666270
0.000000 0.127510 0.666270
0.085708 0.127510 0.666270
0.186284 0.127510 0.666270
0.293358 0.127510 0.666270
0.404883 0.127510 0.666270
0.519838 0.127510 0.666270
0.637604 0.127510 0.666270
0.757760 0.127510 0.666270
0.880000 0.127510 0.666270
0.000000 0.248300 0.666270
0.085708 0.248300 0.666270
0.186284 0.248300 0.666270
0.293358 0.248300 0.666270
0.404883 0.248300 0.666270
0.519838 0.248300 0.666270
0.637604 0.248300 0.666270
0.757760 0.248300 0.666270
0.880000 0.248300 0.666270
0.000000 0.370361 0.666270
0.085708 0.370361 0.666270
0.186284 0.370361 0.666270
0.293358 0.370361 0.666270
0.404883 0.370361 0.666270
0.519838 0.370361 0.666270
0.637604 0.370361 0.666270
0.757760 0.370361 0.666270
0.880000 0.370361 0.666270
0.000000 0.493254 0.666270
0.085708 0.493254 0.666270
0.186284 0.493254 0.666270
0.293358 0.493254 0.666270
0.404883 0.493254 0.666270
0.519838 0.493254 0.666270
0.637604 0.493254 0.666270
0.757760 0.493254 0.666270
0.880000 0.493254 0.666270
0.000000 0.616769 0.666270
0.085708 0.616769 0.666270
0.186284 0.616769 0.666270
0.293358 0.616769 0.666270
0.404883 0.616769 0.666270
0.519838 0.616769 0.666270
0.637604 0.616769 0.666270
0.757760 0.616769 0.666270
0.880000 0.616769 0.666270
0.000000 0.740783 0.666270
0.085708 0.740783 0.666270
0.186284 0.740783 0.666270
0.293358 0.740783 0.666270
0.404883 0.740783 0.666270
0.519838 0.740783 0.666270
0.637604 0.740783 0.666270
0.757760 0.740783 0.666270
0.880000 0.740783 0.666270
0.000000 0.865213 0.666270
0.085708 0.865213 0.666270
0.186284 0.865213 0.666270
0.293358 0.865213 0.666270
0.404883 0.865213 0.666270
0.519838 0.865213 0.666270
0.637604 0.865213 0.666270
0.757760 0.865213 0.666270
0.880000 0.865213 0.666270
0.000000 0.990000 0.666270
0.085708 0.990000 0.666270
0.186284 0.990000 0.666270
0.293358 0.990000 0.666270
0.404883 0.990000 0.666270
0.519838 0.990000 0.666270
0.637604 0.990000 0.666270
0.757760 0.990000 0.666270
0.880000 0.990000 0.666270
0.000000 0.010000 0.803338
0.085708 0.010000 0.803338
0.186284 0.010000 0.803338
0.293358 0.010000 0.803338
0.404883 0.010000 0.803338
0.519838 0.010000 0.803338
0.637604 0.010000 0.803338
0.757760 0.010000 0.803338
0.880000 0.010000 0.803338
0.000000 0.127510 0.803338
0.085708 0.127510 0.803338
0.186284 0.127510 0.803338
0.293358 0.127510 0.803338
0.404883 0.127510 0.803338
0.519838 0.127510 0.803338
0.637604 0.127510 0.803338
0.757760 0.127510 0.803338
0.880000 0.127510 0.803338
0.000000 0.248300 0.803338
0.085708 0.248300 0.803338
0.186284 0.248300 0.803338
0.293358 0.248300 0.803338
0.404883 0.248300 0.803338
0.519838 0.248300 0.803338
0.637604 0.248300 0.803338
0.757760 0.248300 0.803338
0.880000 0.248300 0.803338
0.000000 0.370361 0.803338
0.085708 0.370361 0.803338
0.186284 0.370361 0.803338
0.293358 0.370361 0.803338
0.404883 0.370361 0.803338
0.519838 0.370361 0.803338
0.637604 0.370361 0.803338
0.757760 0.370361 0.803338
0.880000 0.370361 0.803338
0.000000 0.493254 0.803338
0.085708 0.493254 0.803338
0.186284 0.493254 0.803338
0.293358 0.493254 0.803338
0.404883 0.493254 0.803338
0.519838 0.493254 0.803338
0.637604 0.493254 0.803338
0.757760 0.493254 0.803338
0.880000 0.493254 0.803338
0.000000 0.616769 0.803338
0.085708 0.616769 0.803338
0.186284 0.616769 0.803338
0.293358 0.616769 0.803338
0.404883 0.616769 0.803338
0.519838 0.616769 0.803338
0.637604 0.616769 0.803338
0.757760 0.616769 0.803338
0.880000 0.616769 0.803338
0.000000 0.740783 0.803338
0.085708 0.740783 0.803338
0.186284 0.740783 0.803338
0.293358 0.740783 0.803338
0.404883 0.740783 0.803338
0.519838 0.740783 0.803338
0.637604 0.740783 0.803338
0.757760 0.740783 0.803338
0.880000 0.740783 0.803338
0.000000 0.865213 0.803338
0.085708 0.865213 0.803338
0.186284 0.865213 0.803338
0.293358 0.865213 0.803338
0.404883 0.865213 0.803338
0.519838 0.865213 0.803338
0.637604 0.865213 0.803338
0.757760 0.865213 0.803338
0.880000 0.865213 0.803338
0.000000 0.990000 0.803338
0.085708 0.990000 0.803338
0.186284 0.990000 0.803338
0.293358 0.990000 0.803338
0.404883 0.990000 0.803338
0.519838 0.990000 0.803338
0.637604 0.990000 0.803338
0.757760 0.990000 0.803338
0.880000 0.990000 0.803338
0.000000 0.010000 0.937673
0.085708 0.010000 0.937673
0.186284 0.010000 0.937673
0.293358 0.010000 0.937673
0.404883 0.010000 0.937673
0.519838 0.010000 0.937673
0.637604 0.010000 0.937673
0.757760 0.010000 0.937673
0.880000 0.010000 0.937673
0.000000 0.127510 0.937673
0.085708 0.127510 0.937673
0.186284 0.127510 0.937673
0.293358 0.127510 0.937673
0.404883 0.127510 0.937673
0.519838 0.127510 0.937673
0.637604 0.127510 0.937673
0.757760 0.127510 0.937673
0.880000 0.127510 0.937673
0.000000 0.248300 0.937673
0.085708 0.248300 0.937673
0.186284 0.248300 0.937673
0.293358 0.248300 0.937673
0.404883 0.248300 0.937673
0.519838 0.248300 0.937673
0.637604 0.248300 0.937673
0.757760 0.248300 0.937673
0.880000 0.248300 0.937673
0.000000 0.370361 0.937673
0.085708 0.370361 0.937673
0.186284 0.370361 0.937673
0.293358 0.370361 0.937673
0.404883 0.370361 0.937673
0.519838 0.370361 0.937673
0.637604 0.370361 0.937673
0.757760 0.370361 0.937673
0.880000 0.370361 0.937673
0.000000 0.493254 0.937673
0.085708 0.493254 0.937673
0.186284 0.493254 0.937673
0.293358 0.493254 0.937673
0.404883 0.493254 0.937673
0.519838 0.493254 0.937673
0.637604 0.493254 0.937673
0.757760 0.493254 0.937673
0.880000 0.493254 0.937673
0.000000 0.616769 0.937673
0.085708 0.616769 0.937673
0.186284 0.616769 0.937673
0.293358 0.616769 0.937673
0.404883 0.616769 0.937673
0.519838 0.616769 0.937673
0.637604 0.616769 0.937673
0.757760 0.616769 0.937673
0.880000 0.616769 0.937673
0.000000 0.740783 0.937673
0.085708 0.740783 0.937673
0.186284 0.740783 0.937673
0.293358 0.740783 0.937673
0.404883 0.740783 0.937673
0.519838 0.740783 0.937673
0.637604 0.740783 0.937673
0.757760 0.740783 0.937673
0.880000 0.740783 0.937673
0.000000 0.865213 0.937673
0.085708 0.865213 0.937673
0.186284 0.865213 0.937673
0.293358 0.865213 0.937673
0.404883 0.865213 0.937673
0.519838 0.865213 0.937673
0.637604 0.865213 0.937673
0.757760 0.865213 0.937673
0.880000 0.865213 0.937673
0.000000 0.990000 0.937673
0.085708 0.990000 0.937673
0.186284 0.990000 0.937673
0.293358 0.990000 0.937673
0.404883 0.990000 0.937673
0.519838 0.990000 0.937673
0.637604 0.990000 0.937673
0.757760 0.990000 0.937673
0.880000 0.990000 0.937673
0.000000 0.010000 1.000000
0.085708 0.010000 1.000000
0.186284 0.010000 1.000000
0.293358 0.010000 1.000000
0.404883 0.010000 1.000000
0.519838 0.010000 1.000000
0.637604 0.010000 1.000000
0.757760 0.010000 1.000000
0.880000 0.010000 1.000000
0.000000 0.127510 1.000000
0.085708 0.127510 1.000000
0.186284 0.127510 1.000000
0.293358 0.127510 1.000000
0.404883 0.127510 1.000000
0.519838 0.127510 1.000000
0.637604 0.127510 1.000000
0.757760 0.127510 1.000000
0.880000 0.127510 1.000000
0.000000 0.248300 1.000000
0.085708 0.248300 1.000000
0.186284 0.248300 1.000000
0.293358 0.248300 1.000000
0.404883 0.248300 1.000000
0.519838 0.248300 1.000000
0.637604 0.248300 1.000000
0.757760 0.248300 1.000000
0.880000 0.248300 1.000000
0.000000 0.370361 1.000000
0.085708 0.370361 1.000000
0.186284 0.370361 1.000000
0.293358 0.370361 1.000000
0.404883 0.370361 1.000000
0.519838 0.370361 1.000000
0.637604 0.370361 1.000000
0.757760 0.370361 1.000000
0.880000 0.370361 1.000000
0.000000 0.493254 1.000000
0.085708 0.493254 1.000000
0.186284 0.493254 1.000000
0.293358 0.493254 1.000000
0.404883 0.493254 1.000000
0.519838 0.493254 1.000000
0.637604 0.493254 1.000000
0.757760 0.493254 1.000000
0.880000 0.493254 1.000000
0.000000 0.616769 1.000000
0.085708 0.616769 1.000000
0.186284 0.616769 1.000000
0.293358 0.616769 1.000000
0.404883 0.616769 1.000000
0.519838 0.616769 1.000000
0.637604 0.616769 1.000000
0.757760 0.616769 1.000000
0.880000 0.616769 1.000000
0.000000 0.740783 1.000000
0.085708 0.740783 1.000000
0.186284 0.740783 1.000000
0.293358 0.740783 1.000000
0.404883 0.740783 1.000000
0.519838 0.740783 1.000000
0.637604 0.740783 1.000000
0.757760 0.740783 1.000000
0.880000 0.740783 1.000000
0.000000 0.865213 1.000000
0.085708 0.865213 1.000000
0.186284 0.865213 1.000000
0.293358 0.865213 1.000000
0.404883 0.865213 1.000000
0.519838 0.865213 1.000000
0.637604 0.865213 1.000000
0.757760 0.865213 1.000000
0.880000 0.865213 1.000000
0.000000 0.990000 1.000000
0.085708 0.990000 1.000000
0.186284 0.990000 1.000000
0.293358 0.990000 1.000000
0.404883 0.990000 1.000000
0.519838 0.990000 1.000000
0.637604 0.990000 1.000000
0.757760 0.990000 1.000000
0.880000 0.990000 1.000000
0.000000 0.010000 1.000000
0.085708 0.010000 1.000000
0.186284 0.010000 1.000000
0.293358 0.010000 1.000000
0.404883 0.010000 1.000000
0.519838 0.010000 1.000000
0.637604 0.010000 1.000000
0.757760 0.010000 1.000000
0.880000 0.010000 1.000000
0.000000 0.127510 1.000000
0.085708 0.127510 1.000000
0.186284 0.127510 1.000000
0.293358 0.127510 1.000000
0.404883 0.127510 1.000000
0.519838 0.127510 1.000000
0.637604 0.127510 1.000000
0.757760 0.127510 1.000000
0.880000 0.127510 1.000000
0.000000 0.248300 1.000000
0.085708 0.248300 1.000000
0.186284 0.248300 1.000000
0.293358 0.248300 1.000000
0.404883 0.248300 1.000000
0.519838 0.248300 1.000000
0.637604 0.248300 1.000000
0.757760 0.248300 1.000000
0.880000 0.248300 1.000000
0.000000 0.370361 1.000000
0.085708 0.370361 1.000000
0.186284 0.370361 1.000000
0.293358 0.370361 1.000000
0.404883 0.370361 1.000000
0.519838 0.370361 1.000000
0.637604 0.370361 1.000000
0.757760 0.370361 1.000000
0.880000 0.370361 1.000000
0.000000 0.493254 1.000000
0.085708 0.493254 1.000000
0.186284 0.493254 1.000000
0.293358 0.493254 1.000000
0.404883 0.493254 1.000000
0.519838 0.493254 1.000000
0.637604 0.493254 1.000000
0.757760 0.493254 1.000000
0.880000 0.493254 1.000000
0.000000 0.616769 1.000000
0.085708 0.616769 1.000000
0.186284 0.616769 1.000000
0.293358 0.616769 1.000000
0.404883 0.616769 1.000000
0.519838 0.616769 1.000000
0.637604 0.616769 1.000000
0.757760 0.616769 1.000000
0.880000 0.616769 1.000000
0.000000 0.740783 1.000000
0.085708 0.740783 1.000000
0.186284 0.740783 1.000000
0.293358 0.740783 1.000000
0.404883 0.740783 1.000000
0.519838 0.740783 1.000000
0.637604 0.740783 1.000000
0.757760 0.740783 1.000000
0.880000 0.740783 1.000000
0.000000 0.865213 1.000000
0.085708 0.865213 1.000000
0.186284 0.865213 1.000000
0.293358 0.865213 1.000000
0.404883 0.865213 1.000000
0.519838 0.865213 1.000000
0.637604 0.865213 1.000000
0.757760 0.865213 1.000000
0.880000 0.865213 1.000000
0.000000 0.990000 1.000000
0.085708 0.990000 1.000000
0.186284 0.990000 1.000000
0.293358 0.990000 1.000000
0.404883 0.990000 1.000000
0.519838 0.990000 1.000000
0.637604 0.990000 1.000000
0.757760 0.990000 1.000000
0.880000 0.990000 1.000000
