app/src/main/assets/luts/arctic.cube
TITLE "Arctic"
LUT_3D_SIZE 33
DOMAIN_MIN 0.0 0.0 0.0
DOMAIN_MAX 1.0 1.0 1.0
0.000000 0.010000 0.050000
0.018143 0.010000 0.050000
0.039434 0.010000 0.050000
0.062100 0.010000 0.050000
0.085708 0.010000 0.050000
0.110043 0.010000 0.050000
0.134972 0.010000 0.050000
0.160407 0.010000 0.050000
0.186284 0.010000 0.050000
0.212553 0.010000 0.050000
0.239174 0.010000 0.050000
0.266118 0.010000 0.050000
0.293358 0.010000 0.050000
0.320872 0.010000 0.050000
0.348641 0.010000 0.050000
0.376649 0.010000 0.050000
0.404883 0.010000 0.050000
0.433329 0.010000 0.050000
0.461977 0.010000 0.050000
0.490816 0.010000 0.050000
0.519838 0.010000 0.050000
0.549035 0.010000 0.050000
0.578400 0.010000 0.050000
0.607925 0.010000 0.050000
0.637604 0.010000 0.050000
0.667433 0.010000 0.050000
0.697405 0.010000 0.050000
0.727515 0.010000 0.050000
0.757760 0.010000 0.050000
0.788135 0.010000 0.050000
0.818635 0.010000 0.050000
0.849258 0.010000 0.050000
0.880000 0.010000 0.050000
0.000000 0.038574 0.050000
0.018143 0.038574 0.050000
0.039434 0.038574 0.050000
0.062100 0.038574 0.050000
0.085708 0.038574 0.050000
0.110043 0.038574 0.050000
0.134972 0.038574 0.050000
0.160407 0.038574 0.050000
0.186284 0.038574 0.050000
0.212553 0.038574 0.050000
0.239174 0.038574 0.050000
0.266118 0.038574 0.050000
0.293358 0.038574 0.050000
0.320872 0.038574 0.050000
0.348641 0.038574 0.050000
0.376649 0.038574 0.050000
0.404883 0.038574 0.050000
0.433329 0.038574 0.050000
0.461977 0.038574 0.050000
0.490816 0.038574 0.050000
0.519838 0.038574 0.050000
0.549035 0.038574 0.050000
0.578400 0.038574 0.050000
0.607925 0.038574 0.050000
0.637604 0.038574 0.050000
0.667433 0.038574 0.050000
0.697405 0.038574 0.050000
0.727515 0.038574 0.050000
0.757760 0.038574 0.050000
0.788135 0.038574 0.050000
0.818635 0.038574 0.050000
0.849258 0.038574 0.050000
0.880000 0.038574 0.050000
0.000000 0.067946 0.050000
0.018143 0.067946 0.050000
0.039434 0.067946 0.050000
0.062100 0.067946 0.050000
0.085708 0.067946 0.050000
0.110043 0.067946 0.050000
0.134972 0.067946 0.050000
0.160407 0.067946 0.050000
0.186284 0.067946 0.050000
0.212553 0.067946 0.050000
0.239174 0.067946 0.050000
0.266118 0.067946 0.050000
0.293358 0.067946 0.050000
0.320872 0.067946 0.050000
0.348641 0.067946 0.050000
0.376649 0.067946 0.050000
0.404883 0.067946 0.050000
0.433329 0.067946 0.050000
0.461977 0.067946 0.050000
0.490816 0.067946 0.050000
0.519838 0.067946 0.050000
0.549035 0.067946 0.050000
0.578400 0.067946 0.050000
0.607925 0.067946 0.050000
0.637604 0.067946 0.050000
0.667433 0.067946 0.050000
0.697405 0.067946 0.050000
0.727515 0.067946 0.050000
0.757760 0.067946 0.050000
0.788135 0.067946 0.050000
0.818635 0.067946 0.050000
0.849258 0.067946 0.050000
0.880000 0.067946 0.050000
0.000000 0.097627 0.050000
0.018143 0.097627 0.050000
0.039434 0.097627 0.050000
0.062100 0.097627 0.050000
0.085708 0.097627 0.050000
0.110043 0.097627 0.050000
0.134972 0.097627 0.050000
0.160407 0.097627 0.050000
0.186284 0.097627 0.050000
0.212553 0.097627 0.050000
0.239174 0.097627 0.050000
0.266118 0.097627 0.050000
0.293358 0.097627 0.050000
0.320872 0.097627 0.050000
0.348641 0.097627 0.050000
0.376649 0.097627 0.050000
0.404883 0.097627 0.050000
0.433329 0.097627 0.050000
0.461977 0.097627 0.050000
0.490816 0.097627 0.050000
0.519838 0.097627 0.050000
0.549035 0.097627 0.050000
0.578400 0.097627 0.050000
0.607925 0.097627 0.050000
0.637604 0.097627 0.050000
0.667433 0.097627 0.050000
0.697405 0.097627 0.050000
0.727515 0.097627 0.050000
0.757760 0.097627 0.050000
0.788135 0.097627 0.050000
0.818635 0.097627 0.050000
0.849258 0.097627 0.050000
0.880000 0.097627 0.050000
0.000000 0.127510 0.050000
0.018143 0.127510 0.050000
0.039434 0.127510 0.050000
0.062100 0.127510 0.050000
0.085708 0.127510 0.050000
0.110043 0.127510 0.050000
0.134972 0.127510 0.050000
0.160407 0.127510 0.050000
0.186284 0.127510 0.050000
0.212553 0.127510 0.050000
0.239174 0.127510 0.050000
0.266118 0.127510 0.050000
0.293358 0.127510 0.050000
0.320872 0.127510 0.050000
0.348641 0.127510 0.050000
0.376649 0.127510 0.050000
0.404883 0.127510 0.050000
0.433329 0.127510 0.050000
0.461977 0.127510 0.050000
0.490816 0.127510 0.050000
0.519838 0.127510 0.050000
0.549035 0.127510 0.050000
0.578400 0.127510 0.050000
0.607925 0.127510 0.050000
0.637604 0.127510 0.050000
0.667433 0.127510 0.050000
0.697405 0.127510 0.050000
0.727515 0.127510 0.050000
0.757760 0.127510 0.050000
0.788135 0.127510 0.050000
0.818635 0.127510 0.050000
0.849258 0.127510 0.050000
0.880000 0.127510 0.050000
0.000000 0.157544 0.050000
0.018143 0.157544 0.050000
0.039434 0.157544 0.050000
0.062100 0.157544 0.050000
0.085708 0.157544 0.050000
0.110043 0.157544 0.050000
0.134972 0.157544 0.050000
0.160407 0.157544 0.050000
0.186284 0.157544 0.050000
0.212553 0.157544 0.050000
0.239174 0.157544 0.050000
0.266118 0.157544 0.050000
0.293358 0.157544 0.050000
0.320872 0.157544 0.050000
0.348641 0.157544 0.050000
0.376649 0.157544 0.050000
0.404883 0.157544 0.050000
0.433329 0.157544 0.050000
0.461977 0.157544 0.050000
0.490816 0.157544 0.050000
0.519838 0.157544 0.050000
0.549035 0.157544 0.050000
0.578400 0.157544 0.050000
0.607925 0.157544 0.050000
0.637604 0.157544 0.050000
0.667433 0.157544 0.050000
0.697405 0.157544 0.050000
0.727515 0.157544 0.050000
0.757760 0.157544 0.050000
0.788135 0.157544 0.050000
0.818635 0.157544 0.050000
0.849258 0.157544 0.050000
0.880000 0.157544 0.050000
0.000000 0.187700 0.050000
0.018143 0.187700 0.050000
0.039434 0.187700 0.050000
0.062100 0.187700 0.050000
0.085708 0.187700 0.050000
0.110043 0.187700 0.050000
0.134972 0.187700 0.050000
0.160407 0.187700 0.050000
0.186284 0.187700 0.050000
0.212553 0.187700 0.050000
0.239174 0.187700 0.050000
0.266118 0.187700 0.050000
0.293358 0.187700 0.050000
0.320872 0.187700 0.050000
0.348641 0.187700 0.050000
0.376649 0.187700 0.050000
0.404883 0.187700 0.050000
0.433329 0.187700 0.050000
0.461977 0.187700 0.050000
0.490816 0.187700 0.050000
0.519838 0.187700 0.050000
0.549035 0.187700 0.050000
0.578400 0.187700 0.050000
0.607925 0.187700 0.050000
0.637604 0.187700 0.050000
0.667433 0.187700 0.050000
0.697405 0.187700 0.050000
0.727515 0.187700 0.050000
0.757760 0.187700 0.050000
0.788135 0.187700 0.050000
0.818635 0.187700 0.050000
0.849258 0.187700 0.050000
0.880000 0.187700 0.050000
0.000000 0.217957 0.050000
0.018143 0.217957 0.050000
0.039434 0.217957 0.050000
0.062100 0.217957 0.050000
0.085708 0.217957 0.050000
0.110043 0.217957 0.050000
0.134972 0.217957 0.050000
0.160407 0.217957 0.050000
0.186284 0.217957 0.050000
0.212553 0.217957 0.050000
0.239174 0.217957 0.050000
0.266118 0.217957 0.050000
0.293358 0.217957 0.050000
0.320872 0.217957 0.050000
0.348641 0.217957 0.050000
0.376649 0.217957 0.050000
0.404883 0.217957 0.050000
0.433329 0.217957 0.050000
0.461977 0.217957 0.050000
0.490816 0.217957 0.050000
0.519838 0.217957 0.050000
0.549035 0.217957 0.050000
0.578400 0.217957 0.050000
0.607925 0.217957 0.050000
0.637604 0.217957 0.050000
0.667433 0.217957 0.050000
0.697405 0.217957 0.050000
0.727515 0.217957 0.050000
0.757760 0.217957 0.050000
0.788135 0.217957 0.050000
0.818635 0.217957 0.050000
0.849258 0.217957 0.050000
0.880000 0.217957 0.050000
0.000000 0.248300 0.050000
0.018143 0.248300 0.050000
0.039434 0.248300 0.050000
0.062100 0.248300 0.050000
0.085708 0.248300 0.050000
0.110043 0.248300 0.050000
0.134972 0.248300 0.050000
0.160407 0.248300 0.050000
0.186284 0.248300 0.050000
0.212553 0.248300 0.050000
0.239174 0.248300 0.050000
0.266118 0.248300 0.050000
0.293358 0.248300 0.050000
0.320872 0.248300 0.050000
0.348641 0.248300 0.050000
0.376649 0.248300 0.050000
0.404883 0.248300 0.050000
0.433329 0.248300 0.050000
0.461977 0.248300 0.050000
0.490816 0.248300 0.050000
0.519838 0.248300 0.050000
0.549035 0.248300 0.050000
0.578400 0.248300 0.050000
0.607925 0.248300 0.050000
0.637604 0.248300 0.050000
0.667433 0.248300 0.050000
0.697405 0.248300 0.050000
0.727515 0.248300 0.050000
0.757760 0.248300 0.050000
0.788135 0.248300 0.050000
0.818635 0.248300 0.050000
0.849258 0.248300 0.050000
0.880000 0.248300 0.050000
0.000000 0.278720 0.050000
0.018143 0.278720 0.050000
0.039434 0.278720 0.050000
0.062100 0.278720 0.050000
0.085708 0.278720 0.050000
0.110043 0.278720 0.050000
0.134972 0.278720 0.050000
0.160407 0.278720 0.050000
0.186284 0.278720 0.050000
0.212553 0.278720 0.050000
0.239174 0.278720 0.050000
0.266118 0.278720 0.050000
0.293358 0.278720 0.050000
0.320872 0.278720 0.050000
0.348641 0.278720 0.050000
0.376649 0.278720 0.050000
0.404883 0.278720 0.050000
0.433329 0.278720 0.050000
0.461977 0.278720 0.050000
0.490816 0.278720 0.050000
0.519838 0.278720 0.050000
0.549035 0.278720 0.050000
0.578400 0.278720 0.050000
0.607925 0.278720 0.050000
0.637604 0.278720 0.050000
0.667433 0.278720 0.050000
0.697405 0.278720 0.050000
0.727515 0.278720 0.050000
0.757760 0.278720 0.050000
0.788135 0.278720 0.050000
0.818635 0.278720 0.050000
0.849258 0.278720 0.050000
0.880000 0.278720 0.050000
0.000000 0.309208 0.050000
0.018143 0.309208 0.050000
0.039434 0.309208 0.050000
0.062100 0.309208 0.050000
0.085708 0.309208 0.050000
0.110043 0.309208 0.050000
0.134972 0.309208 0.050000
0.160407 0.309208 0.050000
0.186284 0.309208 0.050000
0.212553 0.309208 0.050000
0.239174 0.309208 0.050000
0.266118 0.309208 0.050000
0.293358 0.309208 0.050000
0.320872 0.309208 0.050000
0.348641 0.309208 0.050000
0.376649 0.309208 0.050000
0.404883 0.309208 0.050000
0.433329 0.309208 0.050000
0.461977 0.309208 0.050000
0.490816 0.309208 0.050000
0.519838 0.309208 0.050000
0.549035 0.309208 0.050000
0.578400 0.309208 0.050000
0.607925 0.309208 0.050000
0.637604 0.309208 0.050000
0.667433 0.309208 0.050000
0.697405 0.309208 0.050000
0.727515 0.309208 0.050000
0.757760 0.309208 0.050000
0.788135 0.309208 0.050000
0.818635 0.309208 0.050000
0.849258 0.309208 0.050000
0.880000 0.309208 0.050000
0.000000 0.339757 0.050000
0.018143 0.339757 0.050000
0.039434 0.339757 0.050000
0.062100 0.339757 0.050000
0.085708 0.339757 0.050000
0.110043 0.339757 0.050000
0.134972 0.339757 0.050000
0.160407 0.339757 0.050000
0.186284 0.339757 0.050000
0.212553 0.339757 0.050000
0.239174 0.339757 0.050000
0.266118 0.339757 0.050000
0.293358 0.339757 0.050000
0.320872 0.339757 0.050000
0.348641 0.339757 0.050000
0.376649 0.339757 0.050000
0.404883 0.339757 0.050000
0.433329 0.339757 0.050000
0.461977 0.339757 0.050000
0.490816 0.339757 0.050000
0.519838 0.339757 0.050000
0.549035 0.339757 0.050000
0.578400 0.339757 0.050000
0.607925 0.339757 0.050000
0.637604 0.339757 0.050000
0.667433 0.339757 0.050000
0.697405 0.339757 0.050000
0.727515 0.339757 0.050000
0.757760 0.339757 0.050000
0.788135 0.339757 0.050000
0.818635 0.339757 0.050000
0.849258 0.339757 0.050000
0.880000 0.339757 0.050000
0.000000 0.370361 0.050000
0.018143 0.370361 0.050000
0.039434 0.370361 0.050000
0.062100 0.370361 0.050000
0.085708 0.370361 0.050000
0.110043 0.370361 0.050000
0.134972 0.370361 0.050000
0.160407 0.370361 0.050000
0.186284 0.370361 0.050000
0.212553 0.370361 0.050000
0.239174 0.370361 0.050000
0.266118 0.370361 0.050000
0.293358 0.370361 0.050000
0.320872 0.370361 0.050000
0.348641 0.370361 0.050000
0.376649 0.370361 0.050000
0.404883 0.370361 0.050000
0.433329 0.370361 0.050000
0.461977 0.370361 0.050000
0.490816 0.370361 0.050000
0.519838 0.370361 0.050000
0.549035 0.370361 0.050000
0.578400 0.370361 0.050000
0.607925 0.370361 0.050000
0.637604 0.370361 0.050000
0.667433 0.370361 0.050000
0.697405 0.370361 0.050000
0.727515 0.370361 0.050000
0.757760 0.370361 0.050000
0.788135 0.370361 0.050000
0.818635 0.370361 0.050000
0.849258 0.370361 0.050000
0.880000 0.370361 0.050000
0.000000 0.401017 0.050000
0.018143 0.401017 0.050000
0.039434 0.401017 0.050000
0.062100 0.401017 0.050000
0.085708 0.401017 0.050000
0.110043 0.401017 0.050000
0.134972 0.401017 0.050000
0.160407 0.401017 0.050000
0.186284 0.401017 0.050000
0.212553 0.401017 0.050000
0.239174 0.401017 0.050000
0.266118 0.401017 0.050000
0.293358 0.401017 0.050000
0.320872 0.401017 0.050000
0.348641 0.401017 0.050000
0.376649 0.401017 0.050000
0.404883 0.401017 0.050000
0.433329 0.401017 0.050000
0.461977 0.401017 0.050000
0.490816 0.401017 0.050000
0.519838 0.401017 0.050000
0.549035 0.401017 0.050000
0.578400 0.401017 0.050000
0.607925 0.401017 0.050000
0.637604 0.401017 0.050000
0.667433 0.401017 0.050000
0.697405 0.401017 0.050000
0.727515 0.401017 0.050000
0.757760 0.401017 0.050000
0.788135 0.401017 0.050000
0.818635 0.401017 0.050000
0.849258 0.401017 0.050000
0.880000 0.401017 0.050000
0.000000 0.431720 0.050000
0.018143 0.431720 0.050000
0.039434 0.431720 0.050000
0.062100 0.431720 0.050000
0.085708 0.431720 0.050000
0.110043 0.431720 0.050000
0.134972 0.431720 0.050000
0.160407 0.431720 0.050000
0.186284 0.431720 0.050000
0.212553 0.431720 0.050000
0.239174 0.431720 0.050000
0.266118 0.431720 0.050000
0.293358 0.431720 0.050000
0.320872 0.431720 0.050000
0.348641 0.431720 0.050000
0.376649 0.431720 0.050000
0.404883 0.431720 0.050000
0.433329 0.431720 0.050000
0.461977 0.431720 0.050000
0.490816 0.431720 0.050000
0.519838 0.431720 0.050000
0.549035 0.431720 0.050000
0.578400 0.431720 0.050000
0.607925 0.431720 0.050000
0.637604 0.431720 0.050000
0.667433 0.431720 0.050000
0.697405 0.431720 0.050000
0.727515 0.431720 0.050000
0.757760 0.431720 0.050000
0.788135 0.431720 0.050000
0.818635 0.431720 0.050000
0.849258 0.431720 0.050000
0.880000 0.431720 0.050000
0.000000 0.462466 0.050000
0.018143 0.462466 0.050000
0.039434 0.462466 0.050000
0.062100 0.462466 0.050000
0.085708 0.462466 0.050000
0.110043 0.462466 0.050000
0.134972 0.462466 0.050000
0.160407 0.462466 0.050000
0.186284 0.462466 0.050000
0.212553 0.462466 0.050000
0.239174 0.462466 0.050000
0.266118 0.462466 0.050000
0.293358 0.462466 0.050000
0.320872 0.462466 0.050000
0.348641 0.462466 0.050000
0.376649 0.462466 0.050000
0.404883 0.462466 0.050000
0.433329 0.462466 0.050000
0.461977 0.462466 0.050000
0.490816 0.462466 0.050000
0.519838 0.462466 0.050000
0.549035 0.462466 0.050000
0.578400 0.462466 0.050000
0.607925 0.462466 0.050000
0.637604 0.462466 0.050000
0.667433 0.462466 0.050000
0.697405 0.462466 0.050000
0.727515 0.462466 0.050000
0.757760 0.462466 0.050000
0.788135 0.462466 0.050000
0.818635 0.462466 0.050000
0.849258 0.462466 0.050000
0.880000 0.462466 0.050000
0.000000 0.493254 0.050000
0.018143 0.493254 0.050000
0.039434 0.493254 0.050000
0.062100 0.493254 0.050000
0.085708 0.493254 0.050000
0.110043 0.493254 0.050000
0.134972 0.493254 0.050000
0.160407 0.493254 0.050000
0.186284 0.493254 0.050000
0.212553 0.493254 0.050000
0.239174 0.493254 0.050000
0.266118 0.493254 0.050000
0.293358 0.493254 0.050000
0.320872 0.493254 0.050000
0.348641 0.493254 0.050000
0.376649 0.493254 0.050000
0.404883 0.493254 0.050000
0.433329 0.493254 0.050000
0.461977 0.493254 0.050000
0.490816 0.493254 0.050000
0.519838 0.493254 0.050000
0.549035 0.493254 0.050000
0.578400 0.493254 0.050000
0.607925 0.493254 0.050000
0.637604 0.493254 0.050000
0.667433 0.493254 0.050000
0.697405 0.493254 0.050000
0.727515 0.493254 0.050000
0.757760 0.493254 0.050000
0.788135 0.493254 0.050000
0.818635 0.493254 0.050000
0.849258 0.493254 0.050000
0.880000 0.493254 0.050000
0.000000 0.524080 0.050000
0.018143 0.524080 0.050000
0.039434 0.524080 0.050000
0.062100 0.524080 0.050000
0.085708 0.524080 0.050000
0.110043 0.524080 0.050000
0.134972 0.524080 0.050000
0.160407 0.524080 0.050000
0.186284 0.524080 0.050000
0.212553 0.524080 0.050000
0.239174 0.524080 0.050000
0.266118 0.524080 0.050000
0.293358 0.524080 0.050000
0.320872 0.524080 0.050000
0.348641 0.524080 0.050000
0.376649 0.524080 0.050000
0.404883 0.524080 0.050000
0.433329 0.524080 0.050000
0.461977 0.524080 0.050000
0.490816 0.524080 0.050000
0.519838 0.524080 0.050000
0.549035 0.524080 0.050000
0.578400 0.524080 0.050000
0.607925 0.524080 0.050000
0.637604 0.524080 0.050000
0.667433 0.524080 0.050000
0.697405 0.524080 0.050000
0.727515 0.524080 0.050000
0.757760 0.524080 0.050000
0.788135 0.524080 0.050000
0.818635 0.524080 0.050000
0.849258 0.524080 0.050000
0.880000 0.524080 0.050000
0.000000 0.554943 0.050000
0.018143 0.554943 0.050000
0.039434 0.554943 0.050000
0.062100 0.554943 0.050000
0.085708 0.554943 0.050000
0.110043 0.554943 0.050000
0.134972 0.554943 0.050000
0.160407 0.554943 0.050000
0.186284 0.554943 0.050000
0.212553 0.554943 0.050000
0.239174 0.554943 0.050000
0.266118 0.554943 0.050000
0.293358 0.554943 0.050000
0.320872 0.554943 0.050000
0.348641 0.554943 0.050000
0.376649 0.554943 0.050000
0.404883 0.554943 0.050000
0.433329 0.554943 0.050000
0.461977 0.554943 0.050000
0.490816 0.554943 0.050000
0.519838 0.554943 0.050000
0.549035 0.554943 0.050000
0.578400 0.554943 0.050000
0.607925 0.554943 0.050000
0.637604 0.554943 0.050000
0.667433 0.554943 0.050000
0.697405 0.554943 0.050000
0.727515 0.554943 0.050000
0.757760 0.554943 0.050000
0.788135 0.554943 0.050000
0.818635 0.554943 0.050000
0.849258 0.554943 0.050000
0.880000 0.554943 0.050000
0.000000 0.585840 0.050000
0.018143 0.585840 0.050000
0.039434 0.585840 0.050000
0.062100 0.585840 0.050000
0.085708 0.585840 0.050000
0.110043 0.585840 0.050000
0.134972 0.585840 0.050000
0.160407 0.585840 0.050000
0.186284 0.585840 0.050000
0.212553 0.585840 0.050000
0.239174 0.585840 0.050000
0.266118 0.585840 0.050000
0.293358 0.585840 0.050000
0.320872 0.585840 0.050000
0.348641 0.585840 0.050000
0.376649 0.585840 0.050000
0.404883 0.585840 0.050000
0.433329 0.585840 0.050000
0.461977 0.585840 0.050000
0.490816 0.585840 0.050000
0.519838 0.585840 0.050000
0.549035 0.585840 0.050000
0.578400 0.585840 0.050000
0.607925 0.585840 0.050000
0.637604 0.585840 0.050000
0.667433 0.585840 0.050000
0.697405 0.585840 0.050000
0.727515 0.585840 0.050000
0.757760 0.585840 0.050000
0.788135 0.585840 0.050000
0.818635 0.585840 0.050000
0.849258 0.585840 0.050000
0.880000 0.585840 0.050000
0.000000 0.616769 0.050000
0.018143 0.616769 0.050000
0.039434 0.616769 0.050000
0.062100 0.616769 0.050000
0.085708 0.616769 0.050000
0.110043 0.616769 0.050000
0.134972 0.616769 0.050000
0.160407 0.616769 0.050000
0.186284 0.616769 0.050000
0.212553 0.616769 0.050000
0.239174 0.616769 0.050000
0.266118 0.616769 0.050000
0.293358 0.616769 0.050000
0.320872 0.616769 0.050000
0.348641 0.616769 0.050000
0.376649 0.616769 0.050000
0.404883 0.616769 0.050000
0.433329 0.616769 0.050000
0.461977 0.616769 0.050000
0.490816 0.616769 0.050000
0.519838 0.616769 0.050000
0.549035 0.616769 0.050000
0.578400 0.616769 0.050000
0.607925 0.616769 0.050000
0.637604 0.616769 0.050000
0.667433 0.616769 0.050000
0.697405 0.616769 0.050000
0.727515 0.616769 0.050000
0.757760 0.616769 0.050000
0.788135 0.616769 0.050000
0.818635 0.616769 0.050000
0.849258 0.616769 0.050000
0.880000 0.616769 0.050000
0.000000 0.647730 0.050000
0.018143 0.647730 0.050000
0.039434 0.647730 0.050000
0.062100 0.647730 0.050000
0.085708 0.647730 0.050000
0.110043 0.647730 0.050000
0.134972 0.647730 0.050000
0.160407 0.647730 0.050000
0.186284 0.647730 0.050000
0.212553 0.647730 0.050000
0.239174 0.647730 0.050000
0.266118 0.647730 0.050000
0.293358 0.647730 0.050000
0.320872 0.647730 0.050000
0.348641 0.647730 0.050000
0.376649 0.647730 0.050000
0.404883 0.647730 0.050000
0.433329 0.647730 0.050000
0.461977 0.647730 0.050000
0.490816 0.647730 0.050000
0.519838 0.647730 0.050000
0.549035 0.647730 0.050000
0.578400 0.647730 0.050000
0.607925 0.647730 0.050000
0.637604 0.647730 0.050000
0.667433 0.647730 0.050000
0.697405 0.647730 0.050000
0.727515 0.647730 0.050000
0.757760 0.647730 0.050000
0.788135 0.647730 0.050000
0.818635 0.647730 0.050000
0.849258 0.647730 0.050000
0.880000 0.647730 0.050000
0.000000 0.678720 0.050000
0.018143 0.678720 0.050000
0.039434 0.678720 0.050000
0.062100 0.678720 0.050000
0.085708 0.678720 0.050000
0.110043 0.678720 0.050000
0.134972 0.678720 0.050000
0.160407 0.678720 0.050000
0.186284 0.678720 0.050000
0.212553 0.678720 0.050000
0.239174 0.678720 0.050000
0.266118 0.678720 0.050000
0.293358 0.678720 0.050000
0.320872 0.678720 0.050000
0.348641 0.678720 0.050000
0.376649 0.678720 0.050000
0.404883 0.678720 0.050000
0.433329 0.678720 0.050000
0.461977 0.678720 0.050000
0.490816 0.678720 0.050000
0.519838 0.678720 0.050000
0.549035 0.678720 0.050000
0.578400 0.678720 0.050000
0.607925 0.678720 0.050000
0.637604 0.678720 0.050000
0.667433 0.678720 0.050000
0.697405 0.678720 0.050000
0.727515 0.678720 0.050000
0.757760 0.678720 0.050000
0.788135 0.678720 0.050000
0.818635 0.678720 0.050000
0.849258 0.678720 0.050000
0.880000 0.678720 0.050000
0.000000 0.709738 0.050000
0.018143 0.709738 0.050000
0.039434 0.709738 0.050000
0.062100 0.709738 0.050000
0.085708 0.709738 0.050000
0.110043 0.709738 0.050000
0.134972 0.709738 0.050000
0.160407 0.709738 0.050000
0.186284 0.709738 0.050000
0.212553 0.709738 0.050000
0.239174 0.709738 0.050000
0.266118 0.709738 0.050000
0.293358 0.709738 0.050000
0.320872 0.709738 0.050000
0.348641 0.709738 0.050000
0.376649 0.709738 0.050000
0.404883 0.709738 0.050000
0.433329 0.709738 0.050000
0.461977 0.709738 0.050000
0.490816 0.709738 0.050000
0.519838 0.709738 0.050000
0.549035 0.709738 0.050000
0.578400 0.709738 0.050000
0.607925 0.709738 0.050000
0.637604 0.709738 0.050000
0.667433 0.709738 0.050000
0.697405 0.709738 0.050000
0.727515 0.709738 0.050000
0.757760 0.709738 0.050000
0.788135 0.709738 0.050000
0.818635 0.709738 0.050000
0.849258 0.709738 0.050000
0.880000 0.709738 0.050000
0.000000 0.740783 0.050000
0.018143 0.740783 0.050000
0.039434 0.740783 0.050000
0.062100 0.740783 0.050000
0.085708 0.740783 0.050000
0.110043 0.740783 0.050000
0.134972 0.740783 0.050000
0.160407 0.740783 0.050000
0.186284 0.740783 0.050000
0.212553 0.740783 0.050000
0.239174 0.740783 0.050000
0.266118 0.740783 0.050000
0.293358 0.740783 0.050000
0.320872 0.740783 0.050000
0.348641 0.740783 0.050000
0.376649 0.740783 0.050000
0.404883 0.740783 0.050000
0.433329 0.740783 0.050000
0.461977 0.740783 0.050000
0.490816 0.740783 0.050000
0.519838 0.740783 0.050000
0.549035 0.740783 0.050000
0.578400 0.740783 0.050000
0.607925 0.740783 0.050000
0.637604 0.740783 0.050000
0.667433 0.740783 0.050000
0.697405 0.740783 0.050000
0.727515 0.740783 0.050000
0.757760 0.740783 0.050000
0.788135 0.740783 0.050000
0.818635 0.740783 0.050000
0.849258 0.740783 0.050000
0.880000 0.740783 0.050000
0.000000 0.771854 0.050000
0.018143 0.771854 0.050000
0.039434 0.771854 0.050000
0.062100 0.771854 0.050000
0.085708 0.771854 0.050000
0.110043 0.771854 0.050000
0.134972 0.771854 0.050000
0.160407 0.771854 0.050000
0.186284 0.771854 0.050000
0.212553 0.771854 0.050000
0.239174 0.771854 0.050000
0.266118 0.771854 0.050000
0.293358 0.771854 0.050000
0.320872 0.771854 0.050000
0.348641 0.771854 0.050000
0.376649 0.771854 0.050000
0.404883 0.771854 0.050000
0.433329 0.771854 0.050000
0.461977 0.771854 0.050000
0.490816 0.771854 0.050000
0.519838 0.771854 0.050000
0.549035 0.771854 0.050000
0.578400 0.771854 0.050000
0.607925 0.771854 0.050000
0.637604 0.771854 0.050000
0.667433 0.771854 0.050000
0.697405 0.771854 0.050000
0.727515 0.771854 0.050000
0.757760 0.771854 0.050000
0.788135 0.771854 0.050000
0.818635 0.771854 0.050000
0.849258 0.771854 0.050000
0.880000 0.771854 0.050000
0.000000 0.802950 0.050000
0.018143 0.802950 0.050000
0.039434 0.802950 0.050000
0.062100 0.802950 0.050000
0.085708 0.802950 0.050000
0.110043 0.802950 0.050000
0.134972 0.802950 0.050000
0.160407 0.802950 0.050000
0.186284 0.802950 0.050000
0.212553 0.802950 0.050000
0.239174 0.802950 0.050000
0.266118 0.802950 0.050000
0.293358 0.802950 0.050000
0.320872 0.802950 0.050000
0.348641 0.802950 0.050000
0.376649 0.802950 0.050000
0.404883 0.802950 0.050000
0.433329 0.802950 0.050000
0.461977 0.802950 0.050000
0.490816 0.802950 0.050000
0.519838 0.802950 0.050000
0.549035 0.802950 0.050000
0.578400 0.802950 0.050000
0.607925 0.802950 0.050000
0.637604 0.802950 0.050000
0.667433 0.802950 0.050000
0.697405 0.802950 0.050000
0.727515 0.802950 0.050000
