app/src/main/assets/luts/arctic.cube
TITLE "Arctic"
LUT_3D_SIZE 5
DOMAIN_MIN 0.0 0.0 0.0
DOMAIN_MAX 1.0 1.0 1.0
0.000000 0.010000 0.050000
0.186284 0.010000 0.050000
0.404883 0.010000 0.050000
0.637604 0.010000 0.050000
0.880000 0.010000 0.050000
0.000000 0.248300 0.050000
0.186284 0.248300 0.050000
0.404883 0.248300 0.050000
0.637604 0.248300 0.050000
0.880000 0.248300 0.050000
0.000000 0.493254 0.050000
0.186284 0.493254 0.050000
0.404883 0.493254 0.050000
0.637604 0.493254 0.050000
0.880000 0.493254 0.050000
0.000000 0.740783 0.050000
0.186284 0.740783 0.050000
0.404883 0.740783 0.050000
0.637604 0.740783 0.050000
0.880000 0.740783 0.050000
0.000000 0.990000 0.050000
0.186284 0.990000 0.050000
0.404883 0.990000 0.050000
0.637604 0.990000 0.050000
0.880000 0.990000 0.050000
0.000000 0.010000 0.380251
0.186284 0.010000 0.380251
0.404883 0.010000 0.380251
0.637604 0.010000 0.380251
0.880000 0.010000 0.380251
0.000000 0.248300 0.380251
0.186284 0.248300 0.380251
0.404883 0.248300 0.380251
0.637604 0.248300 0.380251
0.880000 0.248300 0.380251
0.000000 0.493254 0.380251
0.186284 0.493254 0.380251
0.404883 0.493254 0.380251
0.637604 0.493254 0.380251
0.880000 0.493254 0.380251
0.000000 0.740783 0.380251
0.186284 0.740783 0.380251
0.404883 0.740783 0.380251
0.637604 0.740783 0.380251
0.880000 0.740783 0.380251
0.000000 0.990000 0.380251
0.186284 0.990000 0.380251
0.404883 0.990000 0.380251
0.637604 0.990000 0.380251
0.880000 0.990000 0.380251
0.000000 0.010000 0.666270
0.186284 0.010000 0.666270
0.404883 0.010000 0.666270
0.637604 0.010000 0.666270
0.880000 0.010000 0.666270
0.000000 0.248300 0.666270
0.186284 0.248300 0.666270
0.404883 0.248300 0.666270
0.637604 0.248300 0.666270
0.880000 0.248300 0.666270
0.000000 0.493254 0.666270
0.186284 0.493254 0.666270
0.404883 0.493254 0.666270
0.637604 0.493254 0.666270
0.880000 0.493254 0.666270
0.000000 0.740783 0.666270
0.186284 0.740783 0.666270
0.404883 0.740783 0.666270
0.637604 0.740783 0.666270
0.880000 0.740783 0.666270
0.000000 0.990000 0.666270
0.186284 0.990000 0.666270
0.404883 0.990000 0.666270
0.637604 0.990000 0.666270
0.880000 0.990000 0.666270
0.000000 0.010000 0.937673
0.186284 0.010000 0.937673
0.404883 0.010000 0.937673
0.637604 0.010000 0.937673
0.880000 0.010000 0.937673
0.000000 0.248300 0.937673
0.186284 0.248300 0.937673
0.404883 0.248300 0.937673
0.637604 0.248300 0.937673
0.880000 0.248300 0.937673
0.000000 0.493254 0.937673
0.186284 0.493254 0.937673
0.404883 0.493254 0.937673
0.637604 0.493254 0.937673
0.880000 0.493254 0.937673
0.000000 0.740783 0.937673
0.186284 0.740783 0.937673
0.404883 0.740783 0.937673
0.637604 0.740783 0.937673
0.880000 0.740783 0.937673
0.000000 0.990000 0.937673
0.186284 0.990000 0.937673
0.404883 0.990000 0.937673
0.637604 0.990000 0.937673
0.880000 0.990000 0.937673
0.000000 0.010000 1.000000
0.186284 0.010000 1.000000
0.404883 0.010000 1.000000
0.637604 0.010000 1.000000
0.880000 0.010000 1.000000
0.000000 0.248300 1.000000
0.186284 0.248300 1.000000
0.404883 0.248300 1.000000
0.637604 0.248300 1.000000
0.880000 0.248300 1.000000
0.000000 0.493254 1.000000
0.186284 0.493254 1.000000
0.404883 0.493254 1.000000
0.637604 0.493254 1.000000
0.880000 0.493254 1.000000
0.000000 0.740783 1.000000
0.186284 0.740783 1.000000
0.404883 0.740783 1.000000
0.637604 0.740783 1.000000
0.880000 0.740783 1.000000
0.000000 0.990000 1.000000
0.186284 0.990000 1.000000
0.404883 0.990000 1.000000
0.637604 0.990000 1.000000
0.880000 0.990000 1.000000
