app/src/main/assets/luts/cinestill_800t.cube
TITLE "Cinestill 800T"
LUT_3D_SIZE 5
DOMAIN_MIN 0.0 0.0 0.0
DOMAIN_MAX 1.0 1.0 1.0
0.020000 0.000000 0.040000
0.301341 0.000000 0.040000
0.563514 0.000000 0.040000
0.873637 0.000000 0.040000
1.000000 0.000000 0.040000
0.020000 0.238300 0.040000
0.301341 0.238300 0.040000
0.563514 0.238300 0.040000
0.873637 0.238300 0.040000
1.000000 0.238300 0.040000
0.020000 0.483254 0.040000
0.301341 0.483254 0.040000
0.563514 0.483254 0.040000
0.873637 0.483254 0.040000
1.000000 0.483254 0.040000
0.020000 0.730783 0.040000
0.301341 0.730783 0.040000
0.563514 0.730783 0.040000
0.873637 0.730783 0.040000
1.000000 0.730783 0.040000
0.020000 0.980000 0.040000
0.301341 0.980000 0.040000
0.563514 0.980000 0.040000
0.873637 0.980000 0.040000
1.000000 0.980000 0.040000
0.020000 0.000000 0.358868
0.301341 0.000000 0.358868
0.563514 0.000000 0.358868
0.873637 0.000000 0.358868
1.000000 0.000000 0.358868
0.020000 0.238300 0.358868
0.301341 0.238300 0.358868
0.563514 0.238300 0.358868
0.873637 0.238300 0.358868
1.000000 0.238300 0.358868
0.020000 0.483254 0.358868
0.301341 0.483254 0.358868
0.563514 0.483254 0.358868
0.873637 0.483254 0.358868
1.000000 0.483254 0.358868
0.020000 0.730783 0.358868
0.301341 0.730783 0.358868
0.563514 0.730783 0.358868
0.873637 0.730783 0.358868
1.000000 0.730783 0.358868
0.020000 0.980000 0.358868
0.301341 0.980000 0.358868
0.563514 0.980000 0.358868
0.873637 0.980000 0.358868
1.000000 0.980000 0.358868
0.020000 0.000000 0.626837
0.301341 0.000000 0.626837
0.563514 0.000000 0.626837
0.873637 0.000000 0.626837
1.000000 0.000000 0.626837
0.020000 0.238300 0.626837
0.301341 0.238300 0.626837
0.563514 0.238300 0.626837
0.873637 0.238300 0.626837
1.000000 0.238300 0.626837
0.020000 0.483254 0.626837
0.301341 0.483254 0.626837
0.563514 0.483254 0.626837
0.873637 0.483254 0.626837
1.000000 0.483254 0.626837
0.020000 0.730783 0.626837
0.301341 0.730783 0.626837
0.563514 0.730783 0.626837
0.873637 0.730783 0.626837
1.000000 0.730783 0.626837
0.020000 0.980000 0.626837
0.301341 0.980000 0.626837
0.563514 0.980000 0.626837
0.873637 0.980000 0.626837
1.000000 0.980000 0.626837
0.020000 0.000000 0.878451
0.301341 0.000000 0.878451
0.563514 0.000000 0.878451
0.873637 0.000000 0.878451
1.000000 0.000000 0.878451
0.020000 0.238300 0.878451
0.301341 0.238300 0.878451
0.563514 0.238300 0.878451
0.873637 0.238300 0.878451
1.000000 0.238300 0.878451
0.020000 0.483254 0.878451
0.301341 0.483254 0.878451
0.563514 0.483254 0.878451
0.873637 0.483254 0.878451
1.000000 0.483254 0.878451
0.020000 0.730783 0.878451
0.301341 0.730783 0.878451
0.563514 0.730783 0.878451
0.873637 0.730783 0.878451
1.000000 0.730783 0.878451
0.020000 0.980000 0.878451
0.301341 0.980000 0.878451
0.563514 0.980000 0.878451
0.873637 0.980000 0.878451
1.000000 0.980000 0.878451
0.020000 0.000000 1.000000
0.301341 0.000000 1.000000
0.563514 0.000000 1.000000
0.873637 0.000000 1.000000
1.000000 0.000000 1.000000
0.020000 0.238300 1.000000
0.301341 0.238300 1.000000
0.563514 0.238300 1.000000
0.873637 0.238300 1.000000
1.000000 0.238300 1.000000
0.020000 0.483254 1.000000
0.301341 0.483254 1.000000
0.563514 0.483254 1.000000
0.873637 0.483254 1.000000
1.000000 0.483254 1.000000
0.020000 0.730783 1.000000
0.301341 0.730783 1.000000
0.563514 0.730783 1.000000
0.873637 0.730783 1.000000
1.000000 0.730783 1.000000
0.020000 0.980000 1.000000
0.301341 0.980000 1.000000
0.563514 0.980000 1.000000
0.873637 0.980000 1.000000
1.000000 0.980000 1.000000
