app/src/main/assets/luts/cinema.cube
# Generated 3D LUT
TITLE "Cinema"
LUT_3D_SIZE 5
DOMAIN_MIN 0.000000 0.000000 0.000000
DOMAIN_MAX 0.903226 0.903226 0.903226
0.000000 0.000000 0.132000
0.112865 0.000000 0.106378
0.392729 0.000000 0.080755
0.672594 0.000000 0.055133
0.952459 0.000000 0.029511
0.000000 0.252153 0.081698
0.152497 0.251377 0.056076
0.432361 0.250600 0.030453
0.712226 0.249824 0.004831
0.992091 0.249047 0.000000
0.000000 0.510306 0.031396
0.192129 0.509530 0.005773
0.471993 0.508753 0.000000
0.751858 0.507977 0.000000
1.000000 0.507200 0.000000
0.000000 0.768459 0.000000
0.231761 0.767683 0.000000
0.511625 0.766906 0.000000
0.791490 0.766130 0.000000
1.000000 0.765354 0.000000
0.000000 1.000000 0.000000
0.271393 1.000000 0.000000
0.551257 1.000000 0.000000
0.831122 1.000000 0.000000
1.000000 1.000000 0.000000
0.000000 0.000000 0.381908
0.120562 0.000000 0.356286
0.400426 0.000000 0.330664
0.680291 0.000000 0.305041
0.960156 0.000000 0.279419
0.000000 0.251857 0.331606
0.160194 0.251081 0.305984
0.440058 0.250304 0.280362
0.719923 0.249528 0.254739
0.999788 0.248751 0.229117
0.000000 0.510010 0.281304
0.199826 0.509234 0.255682
0.479690 0.508457 0.230059
0.759555 0.507681 0.204437
1.000000 0.506904 0.178815
0.000000 0.768163 0.231002
0.239457 0.767387 0.205380
0.519322 0.766610 0.179757
0.799187 0.765834 0.154135
1.000000 0.765058 0.128513
0.000000 1.000000 0.180700
0.279089 1.000000 0.155078
0.558954 1.000000 0.129455
0.838819 1.000000 0.103833
1.000000 1.000000 0.078210
0.000000 0.000000 0.631817
0.128258 0.000000 0.606194
0.408123 0.000000 0.580572
0.687988 0.000000 0.554950
0.967853 0.000000 0.529327
0.000000 0.251561 0.581515
0.167890 0.250785 0.555892
0.447755 0.250008 0.530270
0.727620 0.249232 0.504647
1.000000 0.248455 0.479025
0.000000 0.509714 0.531212
0.207522 0.508938 0.505590
0.487387 0.508161 0.479968
0.767252 0.507385 0.454345
1.000000 0.506608 0.428723
0.000000 0.767867 0.480910
0.247154 0.767091 0.455288
0.527019 0.766314 0.429666
0.806884 0.765538 0.404043
1.000000 0.764762 0.378421
0.006922 1.000000 0.430608
0.286786 1.000000 0.404986
0.566651 1.000000 0.379364
0.846516 1.000000 0.353741
1.000000 1.000000 0.328119
0.000000 0.000000 0.881725
0.135955 0.000000 0.856103
0.415820 0.000000 0.830480
0.695685 0.000000 0.804858
0.975549 0.000000 0.779236
0.000000 0.251265 0.831423
0.175587 0.250489 0.805801
0.455452 0.249712 0.780178
0.735317 0.248936 0.754556
1.000000 0.248159 0.728933
0.000000 0.509418 0.781121
0.215219 0.508642 0.755498
0.495084 0.507865 0.729876
0.774949 0.507089 0.704254
1.000000 0.506312 0.678631
0.000000 0.767571 0.730819
0.254851 0.766795 0.705196
0.534716 0.766018 0.679574
0.814581 0.765242 0.653952
1.000000 0.764466 0.628329
0.014618 1.000000 0.680517
0.294483 1.000000 0.654894
0.574348 1.000000 0.629272
0.854213 1.000000 0.603649
1.000000 1.000000 0.578027
0.000000 0.000000 1.000000
0.143652 0.000000 1.000000
0.423517 0.000000 1.000000
0.703382 0.000000 1.000000
0.983246 0.000000 1.000000
0.000000 0.250969 1.000000
0.183284 0.250193 1.000000
0.463149 0.249416 1.000000
0.743014 0.248640 1.000000
1.000000 0.247863 0.978842
0.000000 0.509122 1.000000
0.222916 0.508346 1.000000
0.502781 0.507569 0.979784
0.782646 0.506793 0.954162
1.000000 0.506016 0.928540
0.000000 0.767275 0.980727
0.262548 0.766499 0.955105
0.542413 0.765722 0.929482
0.822277 0.764946 0.903860
1.000000 0.764169 0.878238
0.022315 1.000000 0.930425
0.302180 1.000000 0.904803
0.582045 1.000000 0.879180
0.861909 1.000000 0.853558
1.000000 1.000000 0.827935
