app/src/main/assets/luts/cinestill_800t.cube
TITLE "Cinestill 800T"
LUT_3D_SIZE 9
DOMAIN_MIN 0.0 0.0 0.0
DOMAIN_MAX 1.0 1.0 1.0
0.020000 0.000000 0.040000
0.165631 0.000000 0.040000
0.301341 0.000000 0.040000
0.433541 0.000000 0.040000
0.563514 0.000000 0.040000
0.714818 0.000000 0.040000
0.873637 0.000000 0.040000
1.000000 0.000000 0.040000
1.000000 0.000000 0.040000
0.020000 0.117510 0.040000
0.165631 0.117510 0.040000
0.301341 0.117510 0.040000
0.433541 0.117510 0.040000
0.563514 0.117510 0.040000
0.714818 0.117510 0.040000
0.873637 0.117510 0.040000
1.000000 0.117510 0.040000
1.000000 0.117510 0.040000
0.020000 0.238300 0.040000
0.165631 0.238300 0.040000
0.301341 0.238300 0.040000
0.433541 0.238300 0.040000
0.563514 0.238300 0.040000
0.714818 0.238300 0.040000
0.873637 0.238300 0.040000
1.000000 0.238300 0.040000
1.000000 0.238300 0.040000
0.020000 0.360361 0.040000
0.165631 0.360361 0.040000
0.301341 0.360361 0.040000
0.433541 0.360361 0.040000
0.563514 0.360361 0.040000
0.714818 0.360361 0.040000
0.873637 0.360361 0.040000
1.000000 0.360361 0.040000
1.000000 0.360361 0.040000
0.020000 0.483254 0.040000
0.165631 0.483254 0.040000
0.301341 0.483254 0.040000
0.433541 0.483254 0.040000
0.563514 0.483254 0.040000
0.714818 0.483254 0.040000
0.873637 0.483254 0.040000
1.000000 0.483254 0.040000
1.000000 0.483254 0.040000
0.020000 0.606769 0.040000
0.165631 0.606769 0.040000
0.301341 0.606769 0.040000
0.433541 0.606769 0.040000
0.563514 0.606769 0.040000
0.714818 0.606769 0.040000
0.873637 0.606769 0.040000
1.000000 0.606769 0.040000
1.000000 0.606769 0.040000
0.020000 0.730783 0.040000
0.165631 0.730783 0.040000
0.301341 0.730783 0.040000
0.433541 0.730783 0.040000
0.563514 0.730783 0.040000
0.714818 0.730783 0.040000
0.873637 0.730783 0.040000
1.000000 0.730783 0.040000
1.000000 0.730783 0.040000
0.020000 0.855213 0.040000
0.165631 0.855213 0.040000
0.301341 0.855213 0.040000
0.433541 0.855213 0.040000
0.563514 0.855213 0.040000
0.714818 0.855213 0.040000
0.873637 0.855213 0.040000
1.000000 0.855213 0.040000
1.000000 0.855213 0.040000
0.020000 0.980000 0.040000
0.165631 0.980000 0.040000
0.301341 0.980000 0.040000
0.433541 0.980000 0.040000
0.563514 0.980000 0.040000
0.714818 0.980000 0.040000
0.873637 0.980000 0.040000
1.000000 0.980000 0.040000
1.000000 0.980000 0.040000
0.020000 0.000000 0.213262
0.165631 0.000000 0.213262
0.301341 0.000000 0.213262
0.433541 0.000000 0.213262
0.563514 0.000000 0.213262
0.714818 0.000000 0.213262
0.873637 0.000000 0.213262
1.000000 0.000000 0.213262
1.000000 0.000000 0.213262
0.020000 0.117510 0.213262
0.165631 0.117510 0.213262
0.301341 0.117510 0.213262
0.433541 0.117510 0.213262
0.563514 0.117510 0.213262
0.714818 0.117510 0.213262
0.873637 0.117510 0.213262
1.000000 0.117510 0.213262
1.000000 0.117510 0.213262
0.020000 0.238300 0.213262
0.165631 0.238300 0.213262
0.301341 0.238300 0.213262
0.433541 0.238300 0.213262
0.563514 0.238300 0.213262
0.714818 0.238300 0.213262
0.873637 0.238300 0.213262
1.000000 0.238300 0.213262
1.000000 0.238300 0.213262
0.020000 0.360361 0.213262
0.165631 0.360361 0.213262
0.301341 0.360361 0.213262
0.433541 0.360361 0.213262
0.563514 0.360361 0.213262
0.714818 0.360361 0.213262
0.873637 0.360361 0.213262
1.000000 0.360361 0.213262
1.000000 0.360361 0.213262
0.020000 0.483254 0.213262
0.165631 0.483254 0.213262
0.301341 0.483254 0.213262
0.433541 0.483254 0.213262
0.563514 0.483254 0.213262
0.714818 0.483254 0.213262
0.873637 0.483254 0.213262
1.000000 0.483254 0.213262
1.000000 0.483254 0.213262
0.020000 0.606769 0.213262
0.165631 0.606769 0.213262
0.301341 0.606769 0.213262
0.433541 0.606769 0.213262
0.563514 0.606769 0.213262
0.714818 0.606769 0.213262
0.873637 0.606769 0.213262
1.000000 0.606769 0.213262
1.000000 0.606769 0.213262
0.020000 0.730783 0.213262
0.165631 0.730783 0.213262
0.301341 0.730783 0.213262
0.433541 0.730783 0.213262
0.563514 0.730783 0.213262
0.714818 0.730783 0.213262
0.873637 0.730783 0.213262
1.000000 0.730783 0.213262
1.000000 0.730783 0.213262
0.020000 0.855213 0.213262
0.165631 0.855213 0.213262
0.301341 0.855213 0.213262
0.433541 0.855213 0.213262
0.563514 0.855213 0.213262
0.714818 0.855213 0.213262
0.873637 0.855213 0.213262
1.000000 0.855213 0.213262
1.000000 0.855213 0.213262
0.020000 0.980000 0.213262
0.165631 0.980000 0.213262
0.301341 0.980000 0.213262
0.433541 0.980000 0.213262
0.563514 0.980000 0.213262
0.714818 0.980000 0.213262
0.873637 0.980000 0.213262
1.000000 0.980000 0.213262
1.000000 0.980000 0.213262
0.020000 0.000000 0.358868
0.165631 0.000000 0.358868
0.301341 0.000000 0.358868
0.433541 0.000000 0.358868
0.563514 0.000000 0.358868
0.714818 0.000000 0.358868
0.873637 0.000000 0.358868
1.000000 0.000000 0.358868
1.000000 0.000000 0.358868
0.020000 0.117510 0.358868
0.165631 0.117510 0.358868
0.301341 0.117510 0.358868
0.433541 0.117510 0.358868
0.563514 0.117510 0.358868
0.714818 0.117510 0.358868
0.873637 0.117510 0.358868
1.000000 0.117510 0.358868
1.000000 0.117510 0.358868
0.020000 0.238300 0.358868
0.165631 0.238300 0.358868
0.301341 0.238300 0.358868
0.433541 0.238300 0.358868
0.563514 0.238300 0.358868
0.714818 0.238300 0.358868
0.873637 0.238300 0.358868
1.000000 0.238300 0.358868
1.000000 0.238300 0.358868
0.020000 0.360361 0.358868
0.165631 0.360361 0.358868
0.301341 0.360361 0.358868
0.433541 0.360361 0.358868
0.563514 0.360361 0.358868
0.714818 0.360361 0.358868
0.873637 0.360361 0.358868
1.000000 0.360361 0.358868
1.000000 0.360361 0.358868
0.020000 0.483254 0.358868
0.165631 0.483254 0.358868
0.301341 0.483254 0.358868
0.433541 0.483254 0.358868
0.563514 0.483254 0.358868
0.714818 0.483254 0.358868
0.873637 0.483254 0.358868
1.000000 0.483254 0.358868
1.000000 0.483254 0.358868
0.020000 0.606769 0.358868
0.165631 0.606769 0.358868
0.301341 0.606769 0.358868
0.433541 0.606769 0.358868
0.563514 0.606769 0.358868
0.714818 0.606769 0.358868
0.873637 0.606769 0.358868
1.000000 0.606769 0.358868
1.000000 0.606769 0.358868
0.020000 0.730783 0.358868
0.165631 0.730783 0.358868
0.301341 0.730783 0.358868
0.433541 0.730783 0.358868
0.563514 0.730783 0.358868
0.714818 0.730783 0.358868
0.873637 0.730783 0.358868
1.000000 0.730783 0.358868
1.000000 0.730783 0.358868
0.020000 0.855213 0.358868
0.165631 0.855213 0.358868
0.301341 0.855213 0.358868
0.433541 0.855213 0.358868
0.563514 0.855213 0.358868
0.714818 0.855213 0.358868
0.873637 0.855213 0.358868
1.000000 0.855213 0.358868
1.000000 0.855213 0.358868
0.020000 0.980000 0.358868
0.165631 0.980000 0.358868
0.301341 0.980000 0.358868
0.433541 0.980000 0.358868
0.563514 0.980000 0.358868
0.714818 0.980000 0.358868
0.873637 0.980000 0.358868
1.000000 0.980000 0.358868
1.000000 0.980000 0.358868
0.020000 0.000000 0.495587
0.165631 0.000000 0.495587
0.301341 0.000000 0.495587
0.433541 0.000000 0.495587
0.563514 0.000000 0.495587
0.714818 0.000000 0.495587
0.873637 0.000000 0.495587
1.000000 0.000000 0.495587
1.000000 0.000000 0.495587
0.020000 0.117510 0.495587
0.165631 0.117510 0.495587
0.301341 0.117510 0.495587
0.433541 0.117510 0.495587
0.563514 0.117510 0.495587
0.714818 0.117510 0.495587
0.873637 0.117510 0.495587
1.000000 0.117510 0.495587
1.000000 0.117510 0.495587
0.020000 0.238300 0.495587
0.165631 0.238300 0.495587
0.301341 0.238300 0.495587
0.433541 0.238300 0.495587
0.563514 0.238300 0.495587
0.714818 0.238300 0.495587
0.873637 0.238300 0.495587
1.000000 0.238300 0.495587
1.000000 0.238300 0.495587
0.020000 0.360361 0.495587
0.165631 0.360361 0.495587
0.301341 0.360361 0.495587
0.433541 0.360361 0.495587
0.563514 0.360361 0.495587
0.714818 0.360361 0.495587
0.873637 0.360361 0.495587
1.000000 0.360361 0.495587
1.000000 0.360361 0.495587
0.020000 0.483254 0.495587
0.165631 0.483254 0.495587
0.301341 0.483254 0.495587
0.433541 0.483254 0.495587
0.563514 0.483254 0.495587
0.714818 0.483254 0.495587
0.873637 0.483254 0.495587
1.000000 0.483254 0.495587
1.000000 0.483254 0.495587
0.020000 0.606769 0.495587
0.165631 0.606769 0.495587
0.301341 0.606769 0.495587
0.433541 0.606769 0.495587
0.563514 0.606769 0.495587
0.714818 0.606769 0.495587
0.873637 0.606769 0.495587
1.000000 0.606769 0.495587
1.000000 0.606769 0.495587
0.020000 0.730783 0.495587
0.165631 0.730783 0.495587
0.301341 0.730783 0.495587
0.433541 0.730783 0.495587
0.563514 0.730783 0.495587
0.714818 0.730783 0.495587
0.873637 0.730783 0.495587
1.000000 0.730783 0.495587
1.000000 0.730783 0.495587
0.020000 0.855213 0.495587
0.165631 0.855213 0.495587
0.301341 0.855213 0.495587
0.433541 0.855213 0.495587
0.563514 0.855213 0.495587
0.714818 0.855213 0.495587
0.873637 0.855213 0.495587
1.000000 0.855213 0.495587
1.000000 0.855213 0.495587
0.020000 0.980000 0.495587
0.165631 0.980000 0.495587
0.301341 0.980000 0.495587
0.433541 0.980000 0.495587
0.563514 0.980000 0.495587
0.714818 0.980000 0.495587
0.873637 0.980000 0.495587
1.000000 0.980000 0.495587
1.000000 0.980000 0.495587
0.020000 0.000000 0.626837
0.165631 0.000000 0.626837
0.301341 0.000000 0.626837
0.433541 0.000000 0.626837
0.563514 0.000000 0.626837
0.714818 0.000000 0.626837
0.873637 0.000000 0.626837
1.000000 0.000000 0.626837
1.000000 0.000000 0.626837
0.020000 0.117510 0.626837
0.165631 0.117510 0.626837
0.301341 0.117510 0.626837
0.433541 0.117510 0.626837
0.563514 0.117510 0.626837
0.714818 0.117510 0.626837
0.873637 0.117510 0.626837
1.000000 0.117510 0.626837
1.000000 0.117510 0.626837
0.020000 0.238300 0.626837
0.165631 0.238300 0.626837
0.301341 0.238300 0.626837
0.433541 0.238300 0.626837
0.563514 0.238300 0.626837
0.714818 0.238300 0.626837
0.873637 0.238300 0.626837
1.000000 0.238300 0.626837
1.000000 0.238300 0.626837
0.020000 0.360361 0.626837
0.165631 0.360361 0.626837
0.301341 0.360361 0.626837
0.433541 0.360361 0.626837
0.563514 0.360361 0.626837
0.714818 0.360361 0.626837
0.873637 0.360361 0.626837
1.000000 0.360361 0.626837
1.000000 0.360361 0.626837
0.020000 0.483254 0.626837
0.165631 0.483254 0.626837
0.301341 0.483254 0.626837
0.433541 0.483254 0.626837
0.563514 0.483254 0.626837
0.714818 0.483254 0.626837
0.873637 0.483254 0.626837
1.000000 0.483254 0.626837
1.000000 0.483254 0.626837
0.020000 0.606769 0.626837
0.165631 0.606769 0.626837
0.301341 0.606769 0.626837
0.433541 0.606769 0.626837
0.563514 0.606769 0.626837
0.714818 0.606769 0.626837
0.873637 0.606769 0.626837
1.000000 0.606769 0.626837
1.000000 0.606769 0.626837
0.020000 0.730783 0.626837
0.165631 0.730783 0.626837
0.301341 0.730783 0.626837
0.433541 0.730783 0.626837
0.563514 0.730783 0.626837
0.714818 0.730783 0.626837
0.873637 0.730783 0.626837
1.000000 0.730783 0.626837
1.000000 0.730783 0.626837
0.020000 0.855213 0.626837
0.165631 0.855213 0.626837
0.301341 0.855213 0.626837
0.433541 0.855213 0.626837
0.563514 0.855213 0.626837
0.714818 0.855213 0.626837
0.873637 0.855213 0.626837
1.000000 0.855213 0.626837
1.000000 0.855213 0.626837
0.020000 0.980000 0.626837
0.165631 0.980000 0.626837
0.301341 0.980000 0.626837
0.433541 0.980000 0.626837
0.563514 0.980000 0.626837
0.714818 0.980000 0.626837
0.873637 0.980000 0.626837
1.000000 0.980000 0.626837
1.000000 0.980000 0.626837
0.020000 0.000000 0.754164
0.165631 0.000000 0.754164
0.301341 0.000000 0.754164
0.433541 0.000000 0.754164
0.563514 0.000000 0.754164
0.714818 0.000000 0.754164
0.873637 0.000000 0.754164
1.000000 0.000000 0.754164
1.000000 0.000000 0.754164
0.020000 0.117510 0.754164
0.165631 0.117510 0.754164
0.301341 0.117510 0.754164
0.433541 0.117510 0.754164
0.563514 0.117510 0.754164
0.714818 0.117510 0.754164
0.873637 0.117510 0.754164
1.000000 0.117510 0.754164
1.000000 0.117510 0.754164
0.020000 0.238300 0.754164
0.165631 0.238300 0.754164
0.301341 0.238300 0.754164
0.433541 0.238300 0.754164
0.563514 0.238300 0.754164
0.714818 0.238300 0.754164
0.873637 0.238300 0.754164
1.000000 0.238300 0.754164
1.000000 0.238300 0.754164
0.020000 0.360361 0.754164
0.165631 0.360361 0.754164
0.301341 0.360361 0.754164
0.433541 0.360361 0.754164
0.563514 0.360361 0.754164
0.714818 0.360361 0.754164
0.873637 0.360361 0.754164
1.000000 0.360361 0.754164
1.000000 0.360361 0.754164
0.020000 0.483254 0.754164
0.165631 0.483254 0.754164
0.301341 0.483254 0.754164
0.433541 0.483254 0.754164
0.563514 0.483254 0.754164
0.714818 0.483254 0.754164
0.873637 0.483254 0.754164
1.000000 0.483254 0.754164
1.000000 0.483254 0.754164
0.020000 0.606769 0.754164
0.165631 0.606769 0.754164
0.301341 0.606769 0.754164
0.433541 0.606769 0.754164
0.563514 0.606769 0.754164
0.714818 0.606769 0.754164
0.873637 0.606769 0.754164
1.000000 0.606769 0.754164
1.000000 0.606769 0.754164
0.020000 0.730783 0.754164
0.165631 0.730783 0.754164
0.301341 0.730783 0.754164
0.433541 0.730783 0.754164
0.563514 0.730783 0.754164
0.714818 0.730783 0.754164
0.873637 0.730783 0.754164
1.000000 0.730783 0.754164
1.000000 0.730783 0.754164
0.020000 0.855213 0.754164
0.165631 0.855213 0.754164
0.301341 0.855213 0.754164
0.433541 0.855213 0.754164
0.563514 0.855213 0.754164
0.714818 0.855213 0.754164
0.873637 0.855213 0.754164
1.000000 0.855213 0.754164
1.000000 0.855213 0.754164
0.020000 0.980000 0.754164
0.165631 0.980000 0.754164
0.301341 0.980000 0.754164
0.433541 0.980000 0.754164
0.563514 0.980000 0.754164
0.714818 0.980000 0.754164
0.873637 0.980000 0.754164
1.000000 0.980000 0.754164
1.000000 0.980000 0.754164
0.020000 0.000000 0.878451
0.165631 0.000000 0.878451
0.301341 0.000000 0.878451
0.433541 0.000000 0.878451
0.563514 0.000000 0.878451
0.714818 0.000000 0.878451
0.873637 0.000000 0.878451
1.000000 0.000000 0.878451
1.000000 0.000000 0.878451
0.020000 0.117510 0.878451
0.165631 0.117510 0.878451
0.301341 0.117510 0.878451
0.433541 0.117510 0.878451
0.563514 0.117510 0.878451
0.714818 0.117510 0.878451
0.873637 0.117510 0.878451
1.000000 0.117510 0.878451
1.000000 0.117510 0.878451
0.020000 0.238300 0.878451
0.165631 0.238300 0.878451
0.301341 0.238300 0.878451
0.433541 0.238300 0.878451
0.563514 0.238300 0.878451
0.714818 0.238300 0.878451
0.873637 0.238300 0.878451
1.000000 0.238300 0.878451
1.000000 0.238300 0.878451
0.020000 0.360361 0.878451
0.165631 0.360361 0.878451
0.301341 0.360361 0.878451
0.433541 0.360361 0.878451
0.563514 0.360361 0.878451
0.714818 0.360361 0.878451
0.873637 0.360361 0.878451
1.000000 0.360361 0.878451
1.000000 0.360361 0.878451
0.020000 0.483254 0.878451
0.165631 0.483254 0.878451
0.301341 0.483254 0.878451
0.433541 0.483254 0.878451
0.563514 0.483254 0.878451
0.714818 0.483254 0.878451
0.873637 0.483254 0.878451
1.000000 0.483254 0.878451
1.000000 0.483254 0.878451
0.020000 0.606769 0.878451
0.165631 0.606769 0.878451
0.301341 0.606769 0.878451
0.433541 0.606769 0.878451
0.563514 0.606769 0.878451
0.714818 0.606769 0.878451
0.873637 0.606769 0.878451
1.000000 0.606769 0.878451
1.000000 0.606769 0.878451
0.020000 0.730783 0.878451
0.165631 0.730783 0.878451
0.301341 0.730783 0.878451
0.433541 0.730783 0.878451
0.563514 0.730783 0.878451
0.714818 0.730783 0.878451
0.873637 0.730783 0.878451
1.000000 0.730783 0.878451
1.000000 0.730783 0.878451
0.020000 0.855213 0.878451
0.165631 0.855213 0.878451
0.301341 0.855213 0.878451
0.433541 0.855213 0.878451
0.563514 0.855213 0.878451
0.714818 0.855213 0.878451
0.873637 0.855213 0.878451
1.000000 0.855213 0.878451
1.000000 0.855213 0.878451
0.020000 0.980000 0.878451
0.165631 0.980000 0.878451
0.301341 0.980000 0.878451
0.433541 0.980000 0.878451
0.563514 0.980000 0.878451
0.714818 0.980000 0.878451
0.873637 0.980000 0.878451
1.000000 0.980000 0.878451
1.000000 0.980000 0.878451
0.020000 0.000000 1.000000
0.165631 0.000000 1.000000
0.301341 0.000000 1.000000
0.433541 0.000000 1.000000
0.563514 0.000000 1.000000
0.714818 0.000000 1.000000
0.873637 0.000000 1.000000
1.000000 0.000000 1.000000
1.000000 0.000000 1.000000
0.020000 0.117510 1.000000
0.165631 0.117510 1.000000
0.301341 0.117510 1.000000
0.433541 0.117510 1.000000
0.563514 0.117510 1.000000
0.714818 0.117510 1.000000
0.873637 0.117510 1.000000
1.000000 0.117510 1.000000
1.000000 0.117510 1.000000
0.020000 0.238300 1.000000
0.165631 0.238300 1.000000
0.301341 0.238300 1.000000
0.433541 0.238300 1.000000
0.563514 0.238300 1.000000
0.714818 0.238300 1.000000
0.873637 0.238300 1.000000
1.000000 0.238300 1.000000
1.000000 0.238300 1.000000
0.020000 0.360361 1.000000
0.165631 0.360361 1.000000
0.301341 0.360361 1.000000
0.433541 0.360361 1.000000
0.563514 0.360361 1.000000
0.714818 0.360361 1.000000
0.873637 0.360361 1.000000
1.000000 0.360361 1.000000
1.000000 0.360361 1.000000
0.020000 0.483254 1.000000
0.165631 0.483254 1.000000
0.301341 0.483254 1.000000
0.433541 0.483254 1.000000
0.563514 0.483254 1.000000
0.714818 0.483254 1.000000
0.873637 0.483254 1.000000
1.000000 0.483254 1.000000
1.000000 0.483254 1.000000
0.020000 0.606769 1.000000
0.165631 0.606769 1.000000
0.301341 0.606769 1.000000
0.433541 0.606769 1.000000
0.563514 0.606769 1.000000
0.714818 0.606769 1.000000
0.873637 0.606769 1.000000
1.000000 0.606769 1.000000
1.000000 0.606769 1.000000
0.020000 0.730783 1.000000
0.165631 0.730783 1.000000
0.301341 0.730783 1.000000
0.433541 0.730783 1.000000
0.563514 0.730783 1.000000
0.714818 0.730783 1.000000
0.873637 0.730783 1.000000
1.000000 0.730783 1.000000
1.000000 0.730783 1.000000
0.020000 0.855213 1.000000
0.165631 0.855213 1.000000
0.301341 0.855213 1.000000
0.433541 0.855213 1.000000
0.563514 0.855213 1.000000
0.714818 0.855213 1.000000
0.873637 0.855213 1.000000
1.000000 0.855213 1.000000
1.000000 0.855213 1.000000
0.020000 0.980000 1.000000
0.165631 0.980000 1.000000
0.301341 0.980000 1.000000
0.433541 0.980000 1.000000
0.563514 0.980000 1.000000
0.714818 0.980000 1.000000
0.873637 0.980000 1.000000
1.000000 0.980000 1.000000
1.000000 0.980000 1.000000
0.020000 0.000000 1.000000
0.165631 0.000000 1.000000
0.301341 0.000000 1.000000
0.433541 0.000000 1.000000
0.563514 0.000000 1.000000
0.714818 0.000000 1.000000
0.873637 0.000000 1.000000
1.000000 0.000000 1.000000
1.000000 0.000000 1.000000
0.020000 0.117510 1.000000
0.165631 0.117510 1.000000
0.301341 0.117510 1.000000
0.433541 0.117510 1.000000
0.563514 0.117510 1.000000
0.714818 0.117510 1.000000
0.873637 0.117510 1.000000
1.000000 0.117510 1.000000
1.000000 0.117510 1.000000
0.020000 0.238300 1.000000
0.165631 0.238300 1.000000
0.301341 0.238300 1.000000
0.433541 0.238300 1.000000
0.563514 0.238300 1.000000
0.714818 0.238300 1.000000
0.873637 0.238300 1.000000
1.000000 0.238300 1.000000
1.000000 0.238300 1.000000
0.020000 0.360361 1.000000
0.165631 0.360361 1.000000
0.301341 0.360361 1.000000
0.433541 0.360361 1.000000
0.563514 0.360361 1.000000
0.714818 0.360361 1.000000
0.873637 0.360361 1.000000
1.000000 0.360361 1.000000
1.000000 0.360361 1.000000
0.020000 0.483254 1.000000
0.165631 0.483254 1.000000
0.301341 0.483254 1.000000
0.433541 0.483254 1.000000
0.563514 0.483254 1.000000
0.714818 0.483254 1.000000
0.873637 0.483254 1.000000
1.000000 0.483254 1.000000
1.000000 0.483254 1.000000
0.020000 0.606769 1.000000
0.165631 0.606769 1.000000
0.301341 0.606769 1.000000
0.433541 0.606769 1.000000
0.563514 0.606769 1.000000
0.714818 0.606769 1.000000
0.873637 0.606769 1.000000
1.000000 0.606769 1.000000
1.000000 0.606769 1.000000
0.020000 0.730783 1.000000
0.165631 0.730783 1.000000
0.301341 0.730783 1.000000
0.433541 0.730783 1.000000
0.563514 0.730783 1.000000
0.714818 0.730783 1.000000
0.873637 0.730783 1.000000
1.000000 0.730783 1.000000
1.000000 0.730783 1.000000
0.020000 0.855213 1.000000
0.165631 0.855213 1.000000
0.301341 0.855213 1.000000
0.433541 0.855213 1.000000
0.563514 0.855213 1.000000
0.714818 0.855213 1.000000
0.873637 0.855213 1.000000
1.000000 0.855213 1.000000
1.000000 0.855213 1.000000
0.020000 0.980000 1.000000
0.165631 0.980000 1.000000
0.301341 0.980000 1.000000
0.433541 0.980000 1.000000
0.563514 0.980000 1.000000
0.714818 0.980000 1.000000
0.873637 0.980000 1.000000
1.000000 0.980000 1.000000
1.000000 0.980000 1.000000
