app/src/main/assets/luts/cinema.cube
# Generated 3D LUT
TITLE "Cinema"
LUT_3D_SIZE 8
DOMAIN_MIN 0.000000 0.000000 0.000000
DOMAIN_MAX 0.903226 0.903226 0.903226
0.000000 0.000000 0.132000
0.000000 0.000000 0.117359
0.152845 0.000000 0.102717
0.312768 0.000000 0.088076
0.472691 0.000000 0.073435
0.632614 0.000000 0.058793
0.792536 0.000000 0.044152
0.952459 0.000000 0.029511
0.000000 0.141516 0.103256
0.015570 0.141072 0.088615
0.175492 0.140629 0.073973
0.335415 0.140185 0.059332
0.495338 0.139741 0.044691
0.655260 0.139298 0.030049
0.815183 0.138854 0.015408
0.975106 0.138410 0.000766
0.000000 0.289032 0.074512
0.038216 0.288588 0.059871
0.198139 0.288145 0.045229
0.358062 0.287701 0.030588
0.517985 0.287257 0.015946
0.677907 0.286814 0.001305
0.837830 0.286370 0.000000
0.997753 0.285926 0.000000
0.000000 0.436548 0.045768
0.060863 0.436105 0.031126
0.220786 0.435661 0.016485
0.380709 0.435217 0.001844
0.540631 0.434773 0.000000
0.700554 0.434330 0.000000
0.860477 0.433886 0.000000
1.000000 0.433442 0.000000
0.000000 0.584064 0.017024
0.083510 0.583621 0.002382
0.243433 0.583177 0.000000
0.403355 0.582733 0.000000
0.563278 0.582290 0.000000
0.723201 0.581846 0.000000
0.883124 0.581402 0.000000
1.000000 0.580959 0.000000
0.000000 0.731580 0.000000
0.106157 0.731137 0.000000
0.266080 0.730693 0.000000
0.426002 0.730249 0.000000
0.585925 0.729806 0.000000
0.745848 0.729362 0.000000
0.905770 0.728918 0.000000
1.000000 0.728475 0.000000
0.000000 0.879096 0.000000
0.128804 0.878653 0.000000
0.288726 0.878209 0.000000
0.448649 0.877765 0.000000
0.608572 0.877322 0.000000
0.768495 0.876878 0.000000
0.928417 0.876434 0.000000
1.000000 0.875991 0.000000
0.000000 1.000000 0.000000
0.151451 1.000000 0.000000
0.311373 1.000000 0.000000
0.471296 1.000000 0.000000
0.631219 1.000000 0.000000
0.791141 1.000000 0.000000
0.951064 1.000000 0.000000
1.000000 1.000000 0.000000
0.000000 0.000000 0.274805
0.000000 0.000000 0.260163
0.157244 0.000000 0.245522
0.317166 0.000000 0.230881
0.477089 0.000000 0.216239
0.637012 0.000000 0.201598
0.796934 0.000000 0.186957
0.956857 0.000000 0.172315
0.000000 0.141347 0.246061
0.019968 0.140903 0.231419
0.179890 0.140460 0.216778
0.339813 0.140016 0.202137
0.499736 0.139572 0.187495
0.659659 0.139129 0.172854
0.819581 0.138685 0.158213
0.979504 0.138241 0.143571
0.000000 0.288863 0.217317
0.042615 0.288419 0.202675
0.202537 0.287976 0.188034
0.362460 0.287532 0.173393
0.522383 0.287088 0.158751
0.682305 0.286645 0.144110
0.842228 0.286201 0.129469
1.000000 0.285757 0.114827
0.000000 0.436379 0.188573
0.065261 0.435935 0.173931
0.225184 0.435492 0.159290
0.385107 0.435048 0.144649
0.545030 0.434604 0.130007
0.704952 0.434161 0.115366
0.864875 0.433717 0.100724
1.000000 0.433273 0.086083
0.000000 0.583895 0.159829
0.087908 0.583451 0.145187
0.247831 0.583008 0.130546
0.407754 0.582564 0.115904
0.567676 0.582120 0.101263
0.727599 0.581677 0.086622
0.887522 0.581233 0.071980
1.000000 0.580789 0.057339
0.000000 0.731411 0.131084
0.110555 0.730967 0.116443
0.270478 0.730524 0.101802
0.430401 0.730080 0.087160
0.590323 0.729636 0.072519
0.750246 0.729193 0.057878
0.910169 0.728749 0.043236
1.000000 0.728305 0.028595
0.000000 0.878927 0.102340
0.133202 0.878484 0.087699
0.293125 0.878040 0.073058
0.453047 0.877596 0.058416
0.612970 0.877153 0.043775
0.772893 0.876709 0.029134
0.932815 0.876265 0.014492
1.000000 0.875821 0.000000
0.000000 1.000000 0.073596
0.155849 1.000000 0.058955
0.315771 1.000000 0.044314
0.475694 1.000000 0.029672
0.635617 1.000000 0.015031
0.795540 1.000000 0.000390
0.955462 1.000000 0.000000
1.000000 1.000000 0.000000
0.000000 0.000000 0.417610
0.001719 0.000000 0.402968
0.161642 0.000000 0.388327
0.321565 0.000000 0.373685
0.481487 0.000000 0.359044
0.641410 0.000000 0.344403
0.801333 0.000000 0.329761
0.961255 0.000000 0.315120
0.000000 0.141178 0.388865
0.024366 0.140734 0.374224
0.184289 0.140290 0.359583
0.344211 0.139847 0.344941
0.504134 0.139403 0.330300
0.664057 0.138959 0.315659
0.823979 0.138516 0.301017
0.983902 0.138072 0.286376
0.000000 0.288694 0.360121
0.047013 0.288250 0.345480
0.206935 0.287806 0.330839
0.366858 0.287363 0.316197
0.526781 0.286919 0.301556
0.686704 0.286475 0.286915
0.846626 0.286032 0.272273
1.000000 0.285588 0.257632
0.000000 0.436210 0.331377
0.069660 0.435766 0.316736
0.229582 0.435323 0.302095
0.389505 0.434879 0.287453
0.549428 0.434435 0.272812
0.709350 0.433991 0.258171
0.869273 0.433548 0.243529
1.000000 0.433104 0.228888
0.000000 0.583726 0.302633
0.092306 0.583282 0.287992
0.252229 0.582839 0.273351
0.412152 0.582395 0.258709
0.572075 0.581951 0.244068
0.731997 0.581508 0.229427
0.891920 0.581064 0.214785
1.000000 0.580620 0.200144
0.000000 0.731242 0.273889
0.114953 0.730798 0.259248
0.274876 0.730355 0.244607
0.434799 0.729911 0.229965
0.594721 0.729467 0.215324
0.754644 0.729024 0.200682
0.914567 0.728580 0.186041
1.000000 0.728136 0.171400
0.000000 0.878758 0.245145
0.137600 0.878314 0.230504
0.297523 0.877871 0.215862
0.457446 0.877427 0.201221
0.617368 0.876983 0.186580
0.777291 0.876540 0.171938
0.937214 0.876096 0.157297
1.000000 0.875652 0.142656
0.000324 1.000000 0.216401
0.160247 1.000000 0.201760
0.320170 1.000000 0.187118
0.480092 1.000000 0.172477
0.640015 1.000000 0.157836
0.799938 1.000000 0.143194
0.959861 1.000000 0.128553
1.000000 1.000000 0.113912
0.000000 0.000000 0.560414
0.006117 0.000000 0.545773
0.166040 0.000000 0.531132
0.325963 0.000000 0.516490
0.485885 0.000000 0.501849
0.645808 0.000000 0.487208
0.805731 0.000000 0.472566
0.965654 0.000000 0.457925
0.000000 0.141009 0.531670
0.028764 0.140565 0.517029
0.188687 0.140121 0.502388
0.348610 0.139678 0.487746
0.508532 0.139234 0.473105
0.668455 0.138790 0.458463
0.828378 0.138347 0.443822
0.988300 0.137903 0.429181
0.000000 0.288525 0.502926
0.051411 0.288081 0.488285
0.211334 0.287637 0.473643
0.371256 0.287194 0.459002
0.531179 0.286750 0.444361
0.691102 0.286306 0.429719
0.851025 0.285863 0.415078
1.000000 0.285419 0.400437
0.000000 0.436041 0.474182
0.074058 0.435597 0.459541
0.233981 0.435153 0.444899
0.393903 0.434710 0.430258
0.553826 0.434266 0.415617
0.713749 0.433822 0.400975
0.873671 0.433379 0.386334
1.000000 0.432935 0.371693
0.000000 0.583557 0.445438
0.096705 0.583113 0.430797
0.256627 0.582669 0.416155
0.416550 0.582226 0.401514
0.576473 0.581782 0.386873
0.736395 0.581338 0.372231
0.896318 0.580895 0.357590
1.000000 0.580451 0.342949
0.000000 0.731073 0.416694
0.119351 0.730629 0.402053
0.279274 0.730185 0.387411
0.439197 0.729742 0.372770
0.599120 0.729298 0.358129
0.759042 0.728854 0.343487
0.918965 0.728411 0.328846
1.000000 0.727967 0.314205
0.000000 0.878589 0.387950
0.141998 0.878145 0.373309
0.301921 0.877702 0.358667
0.461844 0.877258 0.344026
0.621766 0.876814 0.329385
0.781689 0.876371 0.314743
0.941612 0.875927 0.300102
1.000000 0.875483 0.285460
0.004722 1.000000 0.359206
0.164645 1.000000 0.344565
0.324568 1.000000 0.329923
0.484491 1.000000 0.315282
0.644413 1.000000 0.300640
0.804336 1.000000 0.285999
0.964259 1.000000 0.271358
1.000000 1.000000 0.256716
0.000000 0.000000 0.703219
0.010515 0.000000 0.688578
0.170438 0.000000 0.673936
0.330361 0.000000 0.659295
0.490284 0.000000 0.644654
0.650206 0.000000 0.630012
0.810129 0.000000 0.615371
0.970052 0.000000 0.600730
0.000000 0.140839 0.674475
0.033162 0.140396 0.659834
0.193085 0.139952 0.645192
0.353008 0.139508 0.630551
0.512930 0.139065 0.615910
0.672853 0.138621 0.601268
0.832776 0.138177 0.586627
0.992699 0.137734 0.571986
0.000000 0.288355 0.645731
0.055809 0.287912 0.631090
0.215732 0.287468 0.616448
0.375655 0.287024 0.601807
0.535577 0.286581 0.587166
0.695500 0.286137 0.572524
0.855423 0.285693 0.557883
1.000000 0.285250 0.543241
0.000000 0.435872 0.616987
0.078456 0.435428 0.602346
0.238379 0.434984 0.587704
0.398301 0.434541 0.573063
0.558224 0.434097 0.558421
0.718147 0.433653 0.543780
0.878070 0.433209 0.529139
1.000000 0.432766 0.514497
0.000000 0.583388 0.588243
0.101103 0.582944 0.573601
0.261026 0.582500 0.558960
0.420948 0.582057 0.544319
0.580871 0.581613 0.529677
0.740794 0.581169 0.515036
0.900716 0.580726 0.500395
1.000000 0.580282 0.485753
0.000000 0.730904 0.559499
0.123750 0.730460 0.544857
0.283672 0.730016 0.530216
0.443595 0.729573 0.515575
0.603518 0.729129 0.500933
0.763441 0.728685 0.486292
0.923363 0.728242 0.471651
1.000000 0.727798 0.457009
0.000000 0.878420 0.530755
0.146397 0.877976 0.516113
0.306319 0.877532 0.501472
0.466242 0.877089 0.486831
0.626165 0.876645 0.472189
0.786087 0.876201 0.457548
0.946010 0.875758 0.442907
1.000000 0.875314 0.428265
0.009121 1.000000 0.502011
0.169043 1.000000 0.487369
0.328966 1.000000 0.472728
0.488889 1.000000 0.458087
0.648811 1.000000 0.443445
0.808734 1.000000 0.428804
0.968657 1.000000 0.414163
1.000000 1.000000 0.399521
0.000000 0.000000 0.846024
0.014914 0.000000 0.831383
0.174836 0.000000 0.816741
0.334759 0.000000 0.802100
0.494682 0.000000 0.787458
0.654605 0.000000 0.772817
0.814527 0.000000 0.758176
0.974450 0.000000 0.743534
0.000000 0.140670 0.817280
0.037561 0.140227 0.802638
0.197483 0.139783 0.787997
0.357406 0.139339 0.773356
0.517329 0.138896 0.758714
0.677251 0.138452 0.744073
0.837174 0.138008 0.729432
0.997097 0.137565 0.714790
0.000000 0.288186 0.788536
0.060207 0.287743 0.773894
0.220130 0.287299 0.759253
0.380053 0.286855 0.744612
0.539975 0.286412 0.729970
0.699898 0.285968 0.715329
0.859821 0.285524 0.700688
1.000000 0.285081 0.686046
0.000000 0.435702 0.759792
0.082854 0.435259 0.745150
0.242777 0.434815 0.730509
0.402700 0.434371 0.715868
0.562622 0.433928 0.701226
0.722545 0.433484 0.686585
0.882468 0.433040 0.671944
1.000000 0.432597 0.657302
0.000000 0.583218 0.731048
0.105501 0.582775 0.716406
0.265424 0.582331 0.701765
0.425346 0.581887 0.687124
0.585269 0.581444 0.672482
0.745192 0.581000 0.657841
0.905115 0.580556 0.643199
1.000000 0.580113 0.628558
0.000000 0.730735 0.702304
0.128148 0.730291 0.687662
0.288071 0.729847 0.673021
0.447993 0.729403 0.658379
0.607916 0.728960 0.643738
0.767839 0.728516 0.629097
0.927761 0.728072 0.614455
1.000000 0.727629 0.599814
0.000000 0.878251 0.673559
0.150795 0.877807 0.658918
0.310717 0.877363 0.644277
0.470640 0.876920 0.629635
0.630563 0.876476 0.614994
0.790486 0.876032 0.600353
0.950408 0.875589 0.585711
1.000000 0.875145 0.571070
0.013519 1.000000 0.644815
0.173442 1.000000 0.630174
0.333364 1.000000 0.615533
0.493287 1.000000 0.600891
0.653210 1.000000 0.586250
0.813132 1.000000 0.571609
0.973055 1.000000 0.556967
1.000000 1.000000 0.542326
0.000000 0.000000 0.988829
0.019312 0.000000 0.974187
0.179235 0.000000 0.959546
0.339157 0.000000 0.944905
0.499080 0.000000 0.930263
0.659003 0.000000 0.915622
0.818925 0.000000 0.900981
0.978848 0.000000 0.886339
0.000000 0.140501 0.960085
0.041959 0.140057 0.945443
0.201881 0.139614 0.930802
0.361804 0.139170 0.916161
0.521727 0.138726 0.901519
0.681650 0.138283 0.886878
0.841572 0.137839 0.872236
1.000000 0.137395 0.857595
0.000000 0.288017 0.931341
0.064606 0.287573 0.916699
0.224528 0.287130 0.902058
0.384451 0.286686 0.887416
0.544374 0.286242 0.872775
0.704296 0.285799 0.858134
0.864219 0.285355 0.843492
1.000000 0.284911 0.828851
0.000000 0.435533 0.902596
0.087252 0.435090 0.887955
0.247175 0.434646 0.873314
0.407098 0.434202 0.858672
0.567021 0.433759 0.844031
0.726943 0.433315 0.829390
0.886866 0.432871 0.814748
1.000000 0.432427 0.800107
0.000000 0.583049 0.873852
0.109899 0.582606 0.859211
0.269822 0.582162 0.844570
0.429745 0.581718 0.829928
0.589667 0.581275 0.815287
0.749590 0.580831 0.800646
0.909513 0.580387 0.786004
1.000000 0.579944 0.771363
0.000000 0.730565 0.845108
0.132546 0.730122 0.830467
0.292469 0.729678 0.815826
0.452391 0.729234 0.801184
0.612314 0.728791 0.786543
0.772237 0.728347 0.771902
0.932160 0.727903 0.757260
1.000000 0.727460 0.742619
0.000000 0.878081 0.816364
0.155193 0.877638 0.801723
0.315116 0.877194 0.787082
0.475038 0.876750 0.772440
0.634961 0.876307 0.757799
0.794884 0.875863 0.743157
0.954806 0.875419 0.728516
1.000000 0.874976 0.713875
0.017917 1.000000 0.787620
0.177840 1.000000 0.772979
0.337762 1.000000 0.758337
0.497685 1.000000 0.743696
0.657608 1.000000 0.729055
0.817531 1.000000 0.714413
0.977453 1.000000 0.699772
1.000000 1.000000 0.685131
0.000000 0.000000 1.000000
0.023710 0.000000 1.000000
0.183633 0.000000 1.000000
0.343555 0.000000 1.000000
0.503478 0.000000 1.000000
0.663401 0.000000 1.000000
0.823324 0.000000 1.000000
0.983246 0.000000 1.000000
0.000000 0.140332 1.000000
0.046357 0.139888 1.000000
0.206280 0.139445 1.000000
0.366202 0.139001 1.000000
0.526125 0.138557 1.000000
0.686048 0.138114 1.000000
0.845970 0.137670 1.000000
1.000000 0.137226 1.000000
0.000000 0.287848 1.000000
0.069004 0.287404 1.000000
0.228926 0.286961 1.000000
0.388849 0.286517 1.000000
0.548772 0.286073 1.000000
0.708695 0.285630 1.000000
0.868617 0.285186 0.986297
1.000000 0.284742 0.971656
0.000000 0.435364 1.000000
0.091651 0.434920 1.000000
0.251573 0.434477 1.000000
0.411496 0.434033 1.000000
0.571419 0.433589 0.986836
0.731341 0.433146 0.972194
0.891264 0.432702 0.957553
1.000000 0.432258 0.942912
0.000000 0.582880 1.000000
0.114297 0.582436 1.000000
0.274220 0.581993 0.987374
0.434143 0.581549 0.972733
0.594066 0.581105 0.958092
0.753988 0.580662 0.943450
0.913911 0.580218 0.928809
1.000000 0.579774 0.914168
0.000000 0.730396 0.987913
0.136944 0.729953 0.973272
0.296867 0.729509 0.958630
0.456790 0.729065 0.943989
0.616712 0.728621 0.929348
0.776635 0.728178 0.914706
0.936558 0.727734 0.900065
1.000000 0.727290 0.885424
0.000000 0.877912 0.959169
0.159591 0.877469 0.944528
0.319514 0.877025 0.929886
0.479437 0.876581 0.915245
0.639359 0.876138 0.900604
0.799282 0.875694 0.885962
0.959205 0.875250 0.871321
1.000000 0.874807 0.856680
0.022315 1.000000 0.930425
0.182238 1.000000 0.915784
0.342161 1.000000 0.901142
0.502083 1.000000 0.886501
0.662006 1.000000 0.871860
0.821929 1.000000 0.857218
0.981851 1.000000 0.842577
1.000000 1.000000 0.827935
