app/src/main/assets/luts/cinema.cube
# Generated 3D LUT
TITLE "Cinema"
LUT_3D_SIZE 32
DOMAIN_MIN 0.0 0.0 0.0
DOMAIN_MAX 1.0 1.0 1.0
0.000000 0.000000 0.132000
0.000000 0.000000 0.128340
0.000000 0.000000 0.124679
0.000000 0.000000 0.121019
0.000000 0.000000 0.117359
0.032903 0.000000 0.113698
0.072884 0.000000 0.110038
0.112865 0.000000 0.106378
0.152845 0.000000 0.102717
0.192826 0.000000 0.099057
0.232807 0.000000 0.095397
0.272787 0.000000 0.091736
0.312768 0.000000 0.088076
0.352749 0.000000 0.084416
0.392729 0.000000 0.080755
0.432710 0.000000 0.077095
0.472691 0.000000 0.073435
0.512672 0.000000 0.069774
0.552652 0.000000 0.066114
0.592633 0.000000 0.062454
0.632614 0.000000 0.058793
0.672594 0.000000 0.055133
0.712575 0.000000 0.051473
0.752556 0.000000 0.047812
0.792536 0.000000 0.044152
0.832517 0.000000 0.040492
0.872498 0.000000 0.036831
0.912478 0.000000 0.033171
0.952459 0.000000 0.029511
0.992440 0.000000 0.025850
1.000000 0.000000 0.022190
1.000000 0.000000 0.018530
0.000000 0.030879 0.124814
0.000000 0.030768 0.121154
0.000000 0.030657 0.117493
0.000000 0.030546 0.113833
0.000000 0.030435 0.110173
0.038565 0.030324 0.106512
0.078546 0.030214 0.102852
0.118526 0.030103 0.099192
0.158507 0.029992 0.095531
0.198488 0.029881 0.091871
0.238468 0.029770 0.088211
0.278449 0.029659 0.084550
0.318430 0.029548 0.080890
0.358411 0.029437 0.077230
0.398391 0.029326 0.073569
0.438372 0.029215 0.069909
0.478353 0.029104 0.066249
0.518333 0.028993 0.062588
0.558314 0.028882 0.058928
0.598295 0.028772 0.055268
0.638275 0.028661 0.051607
0.678256 0.028550 0.047947
0.718237 0.028439 0.044287
0.758217 0.028328 0.040626
0.798198 0.028217 0.036966
0.838179 0.028106 0.033306
0.878159 0.027995 0.029645
0.918140 0.027884 0.025985
0.958121 0.027773 0.022325
0.998101 0.027662 0.018664
1.000000 0.027551 0.015004
1.000000 0.027441 0.011343
0.000000 0.067758 0.117628
0.000000 0.067647 0.113968
0.000000 0.067536 0.110307
0.000000 0.067425 0.106647
0.004246 0.067314 0.102987
0.044227 0.067203 0.099326
0.084207 0.067093 0.095666
0.124188 0.066982 0.092006
0.164169 0.066871 0.088345
0.204150 0.066760 0.084685
0.244130 0.066649 0.081025
0.284111 0.066538 0.077364
0.324092 0.066427 0.073704
0.364072 0.066316 0.070044
0.404053 0.066205 0.066383
0.444034 0.066094 0.062723
0.484014 0.065983 0.059063
0.523995 0.065872 0.055402
0.563976 0.065761 0.051742
0.603956 0.065651 0.048082
0.643937 0.065540 0.044421
0.683918 0.065429 0.040761
0.723898 0.065318 0.037101
0.763879 0.065207 0.033440
0.803860 0.065096 0.029780
0.843840 0.064985 0.026120
0.883821 0.064874 0.022459
0.923802 0.064763 0.018799
0.963782 0.064652 0.015138
1.000000 0.064541 0.011478
1.000000 0.064430 0.007818
1.000000 0.064320 0.004157
0.000000 0.104637 0.110442
0.000000 0.104526 0.106782
0.000000 0.104415 0.103121
0.000000 0.104304 0.099461
0.009908 0.104193 0.095801
0.049889 0.104082 0.092140
0.089869 0.103972 0.088480
0.129850 0.103861 0.084820
0.169831 0.103750 0.081159
0.209811 0.103639 0.077499
0.249792 0.103528 0.073839
0.289773 0.103417 0.070178
0.329753 0.103306 0.066518
0.369734 0.103195 0.062858
0.409715 0.103084 0.059197
0.449695 0.102973 0.055537
0.489676 0.102862 0.051877
0.529657 0.102751 0.048216
0.569637 0.102641 0.044556
0.609618 0.102530 0.040896
0.649599 0.102419 0.037235
0.689579 0.102308 0.033575
0.729560 0.102197 0.029915
0.769541 0.102086 0.026254
0.809521 0.101975 0.022594
0.849502 0.101864 0.018933
0.889483 0.101753 0.015273
0.929463 0.101642 0.011613
0.969444 0.101531 0.007952
1.000000 0.101420 0.004292
1.000000 0.101309 0.000632
1.000000 0.101199 0.000000
0.000000 0.141516 0.103256
0.000000 0.141405 0.099596
0.000000 0.141294 0.095935
0.000000 0.141183 0.092275
0.015570 0.141072 0.088615
0.055550 0.140961 0.084954
0.095531 0.140851 0.081294
0.135512 0.140740 0.077634
0.175492 0.140629 0.073973
0.215473 0.140518 0.070313
0.255454 0.140407 0.066653
0.295434 0.140296 0.062992
0.335415 0.140185 0.059332
0.375396 0.140074 0.055672
0.415376 0.139963 0.052011
0.455357 0.139852 0.048351
0.495338 0.139741 0.044691
0.535318 0.139630 0.041030
0.575299 0.139520 0.037370
0.615280 0.139409 0.033710
0.655260 0.139298 0.030049
0.695241 0.139187 0.026389
0.735222 0.139076 0.022728
0.775202 0.138965 0.019068
0.815183 0.138854 0.015408
0.855164 0.138743 0.011747
0.895144 0.138632 0.008087
0.935125 0.138521 0.004427
0.975106 0.138410 0.000766
1.000000 0.138299 0.000000
1.000000 0.138188 0.000000
1.000000 0.138078 0.000000
0.000000 0.178395 0.096070
0.000000 0.178284 0.092410
0.000000 0.178173 0.088749
0.000000 0.178062 0.085089
0.021231 0.177951 0.081429
0.061212 0.177840 0.077768
0.101193 0.177730 0.074108
0.141173 0.177619 0.070448
0.181154 0.177508 0.066787
0.221135 0.177397 0.063127
0.261115 0.177286 0.059467
0.301096 0.177175 0.055806
0.341077 0.177064 0.052146
0.381057 0.176953 0.048486
0.421038 0.176842 0.044825
0.461019 0.176731 0.041165
0.500999 0.176620 0.037504
0.540980 0.176509 0.033844
0.580961 0.176399 0.030184
0.620941 0.176288 0.026523
0.660922 0.176177 0.022863
0.700903 0.176066 0.019203
0.740883 0.175955 0.015542
0.780864 0.175844 0.011882
0.820845 0.175733 0.008222
0.860825 0.175622 0.004561
0.900806 0.175511 0.000901
0.940787 0.175400 0.000000
0.980768 0.175289 0.000000
1.000000 0.175178 0.000000
1.000000 0.175068 0.000000
1.000000 0.174957 0.000000
0.000000 0.215274 0.088884
0.000000 0.215163 0.085224
0.000000 0.215052 0.081563
0.000000 0.214941 0.077903
0.026893 0.214830 0.074243
0.066874 0.214720 0.070582
0.106854 0.214609 0.066922
0.146835 0.214498 0.063262
0.186816 0.214387 0.059601
0.226796 0.214276 0.055941
0.266777 0.214165 0.052281
0.306758 0.214054 0.048620
0.346738 0.213943 0.044960
0.386719 0.213832 0.041300
0.426700 0.213721 0.037639
0.466680 0.213610 0.033979
0.506661 0.213499 0.030318
0.546642 0.213388 0.026658
0.586622 0.213278 0.022998
0.626603 0.213167 0.019337
0.666584 0.213056 0.015677
0.706564 0.212945 0.012017
0.746545 0.212834 0.008356
0.786526 0.212723 0.004696
0.826507 0.212612 0.001036
0.866487 0.212501 0.000000
0.906468 0.212390 0.000000
0.946449 0.212279 0.000000
0.986429 0.212168 0.000000
1.000000 0.212057 0.000000
1.000000 0.211947 0.000000
1.000000 0.211836 0.000000
0.000000 0.252153 0.081698
0.000000 0.252042 0.078038
0.000000 0.251931 0.074377
0.000000 0.251820 0.070717
0.032555 0.251709 0.067057
0.072535 0.251599 0.063396
0.112516 0.251488 0.059736
0.152497 0.251377 0.056076
0.192477 0.251266 0.052415
0.232458 0.251155 0.048755
0.272439 0.251044 0.045095
0.312419 0.250933 0.041434
0.352400 0.250822 0.037774
0.392381 0.250711 0.034113
0.432361 0.250600 0.030453
0.472342 0.250489 0.026793
0.512323 0.250378 0.023132
0.552303 0.250267 0.019472
0.592284 0.250157 0.015812
0.632265 0.250046 0.012151
0.672246 0.249935 0.008491
0.712226 0.249824 0.004831
0.752207 0.249713 0.001170
0.792188 0.249602 0.000000
0.832168 0.249491 0.000000
0.872149 0.249380 0.000000
0.912130 0.249269 0.000000
0.952110 0.249158 0.000000
0.992091 0.249047 0.000000
1.000000 0.248936 0.000000
1.000000 0.248826 0.000000
1.000000 0.248715 0.000000
0.000000 0.289032 0.074512
0.000000 0.288921 0.070852
0.000000 0.288810 0.067191
0.000000 0.288699 0.063531
0.038216 0.288588 0.059871
0.078197 0.288478 0.056210
0.118178 0.288367 0.052550
0.158158 0.288256 0.048890
0.198139 0.288145 0.045229
0.238120 0.288034 0.041569
0.278100 0.287923 0.037908
0.318081 0.287812 0.034248
0.358062 0.287701 0.030588
0.398042 0.287590 0.026927
0.438023 0.287479 0.023267
0.478004 0.287368 0.019607
0.517985 0.287257 0.015946
0.557965 0.287147 0.012286
0.597946 0.287036 0.008626
0.637927 0.286925 0.004965
0.677907 0.286814 0.001305
0.717888 0.286703 0.000000
0.757869 0.286592 0.000000
0.797849 0.286481 0.000000
0.837830 0.286370 0.000000
0.877811 0.286259 0.000000
0.917791 0.286148 0.000000
0.957772 0.286037 0.000000
0.997753 0.285926 0.000000
1.000000 0.285815 0.000000
1.000000 0.285705 0.000000
1.000000 0.285594 0.000000
0.000000 0.325911 0.067326
0.000000 0.325800 0.063666
0.000000 0.325689 0.060005
0.003897 0.325578 0.056345
0.043878 0.325467 0.052685
0.083859 0.325357 0.049024
0.123839 0.325246 0.045364
0.163820 0.325135 0.041703
0.203801 0.325024 0.038043
0.243781 0.324913 0.034383
0.283762 0.324802 0.030722
0.323743 0.324691 0.027062
0.363724 0.324580 0.023402
0.403704 0.324469 0.019741
0.443685 0.324358 0.016081
0.483666 0.324247 0.012421
0.523646 0.324136 0.008760
0.563627 0.324026 0.005100
0.603608 0.323915 0.001440
0.643588 0.323804 0.000000
0.683569 0.323693 0.000000
0.723550 0.323582 0.000000
0.763530 0.323471 0.000000
0.803511 0.323360 0.000000
0.843492 0.323249 0.000000
0.883472 0.323138 0.000000
0.923453 0.323027 0.000000
0.963434 0.322916 0.000000
1.000000 0.322805 0.000000
1.000000 0.322694 0.000000
1.000000 0.322584 0.000000
1.000000 0.322473 0.000000
0.000000 0.362790 0.060140
0.000000 0.362679 0.056480
0.000000 0.362568 0.052819
0.009559 0.362457 0.049159
0.049540 0.362346 0.045498
0.089520 0.362236 0.041838
0.129501 0.362125 0.038178
0.169482 0.362014 0.034517
0.209463 0.361903 0.030857
0.249443 0.361792 0.027197
0.289424 0.361681 0.023536
0.329405 0.361570 0.019876
0.369385 0.361459 0.016216
0.409366 0.361348 0.012555
0.449347 0.361237 0.008895
0.489327 0.361126 0.005235
0.529308 0.361015 0.001574
0.569289 0.360905 0.000000
0.609269 0.360794 0.000000
0.649250 0.360683 0.000000
0.689231 0.360572 0.000000
0.729211 0.360461 0.000000
0.769192 0.360350 0.000000
0.809173 0.360239 0.000000
0.849153 0.360128 0.000000
0.889134 0.360017 0.000000
0.929115 0.359906 0.000000
0.969095 0.359795 0.000000
1.000000 0.359684 0.000000
1.000000 0.359573 0.000000
1.000000 0.359463 0.000000
1.000000 0.359352 0.000000
0.000000 0.399669 0.052954
0.000000 0.399558 0.049293
0.000000 0.399447 0.045633
0.015221 0.399336 0.041973
0.055202 0.399226 0.038312
0.095182 0.399115 0.034652
0.135163 0.399004 0.030992
0.175144 0.398893 0.027331
0.215124 0.398782 0.023671
0.255105 0.398671 0.020011
0.295086 0.398560 0.016350
0.335066 0.398449 0.012690
0.375047 0.398338 0.009030
0.415028 0.398227 0.005369
0.455008 0.398116 0.001709
0.494989 0.398005 0.000000
0.534970 0.397894 0.000000
0.574950 0.397784 0.000000
0.614931 0.397673 0.000000
0.654912 0.397562 0.000000
0.694892 0.397451 0.000000
0.734873 0.397340 0.000000
0.774854 0.397229 0.000000
0.814834 0.397118 0.000000
0.854815 0.397007 0.000000
0.894796 0.396896 0.000000
0.934776 0.396785 0.000000
0.974757 0.396674 0.000000
1.000000 0.396563 0.000000
1.000000 0.396453 0.000000
1.000000 0.396342 0.000000
1.000000 0.396231 0.000000
0.000000 0.436548 0.045768
0.000000 0.436437 0.042107
0.000000 0.436326 0.038447
0.020883 0.436215 0.034787
0.060863 0.436105 0.031126
0.100844 0.435994 0.027466
0.140825 0.435883 0.023806
0.180805 0.435772 0.020145
0.220786 0.435661 0.016485
0.260767 0.435550 0.012825
0.300747 0.435439 0.009164
0.340728 0.435328 0.005504
0.380709 0.435217 0.001844
0.420689 0.435106 0.000000
0.460670 0.434995 0.000000
0.500651 0.434884 0.000000
0.540631 0.434773 0.000000
0.580612 0.434663 0.000000
0.620593 0.434552 0.000000
0.660573 0.434441 0.000000
0.700554 0.434330 0.000000
0.740535 0.434219 0.000000
0.780515 0.434108 0.000000
0.820496 0.433997 0.000000
0.860477 0.433886 0.000000
0.900457 0.433775 0.000000
0.940438 0.433664 0.000000
0.980419 0.433553 0.000000
1.000000 0.433442 0.000000
1.000000 0.433332 0.000000
1.000000 0.433221 0.000000
1.000000 0.433110 0.000000
0.000000 0.473427 0.038582
0.000000 0.473316 0.034921
0.000000 0.473205 0.031261
0.026544 0.473094 0.027601
0.066525 0.472984 0.023940
0.106506 0.472873 0.020280
0.146486 0.472762 0.016620
0.186467 0.472651 0.012959
0.226448 0.472540 0.009299
0.266428 0.472429 0.005639
0.306409 0.472318 0.001978
0.346390 0.472207 0.000000
0.386370 0.472096 0.000000
0.426351 0.471985 0.000000
0.466332 0.471874 0.000000
0.506312 0.471763 0.000000
0.546293 0.471652 0.000000
0.586274 0.471542 0.000000
0.626254 0.471431 0.000000
0.666235 0.471320 0.000000
0.706216 0.471209 0.000000
0.746196 0.471098 0.000000
0.786177 0.470987 0.000000
0.826158 0.470876 0.000000
0.866138 0.470765 0.000000
0.906119 0.470654 0.000000
0.946100 0.470543 0.000000
0.986081 0.470432 0.000000
1.000000 0.470321 0.000000
1.000000 0.470211 0.000000
1.000000 0.470100 0.000000
1.000000 0.469989 0.000000
0.000000 0.510306 0.031396
0.000000 0.510195 0.027735
0.000000 0.510084 0.024075
0.032206 0.509973 0.020415
0.072187 0.509863 0.016754
0.112167 0.509752 0.013094
0.152148 0.509641 0.009434
0.192129 0.509530 0.005773
0.232109 0.509419 0.002113
0.272090 0.509308 0.000000
0.312071 0.509197 0.000000
0.352051 0.509086 0.000000
0.392032 0.508975 0.000000
0.432013 0.508864 0.000000
0.471993 0.508753 0.000000
0.511974 0.508642 0.000000
0.551955 0.508532 0.000000
0.591935 0.508421 0.000000
0.631916 0.508310 0.000000
0.671897 0.508199 0.000000
0.711877 0.508088 0.000000
0.751858 0.507977 0.000000
0.791839 0.507866 0.000000
0.831820 0.507755 0.000000
0.871800 0.507644 0.000000
0.911781 0.507533 0.000000
0.951762 0.507422 0.000000
0.991742 0.507311 0.000000
1.000000 0.507200 0.000000
1.000000 0.507090 0.000000
1.000000 0.506979 0.000000
1.000000 0.506868 0.000000
0.000000 0.547185 0.024210
0.000000 0.547074 0.020549
0.000000 0.546963 0.016889
0.037868 0.546852 0.013229
0.077848 0.546742 0.009568
0.117829 0.546631 0.005908
0.157810 0.546520 0.002248
0.197790 0.546409 0.000000
0.237771 0.546298 0.000000
0.277752 0.546187 0.000000
0.317732 0.546076 0.000000
0.357713 0.545965 0.000000
0.397694 0.545854 0.000000
0.437674 0.545743 0.000000
0.477655 0.545632 0.000000
0.517636 0.545521 0.000000
0.557616 0.545411 0.000000
0.597597 0.545300 0.000000
0.637578 0.545189 0.000000
0.677559 0.545078 0.000000
0.717539 0.544967 0.000000
0.757520 0.544856 0.000000
0.797501 0.544745 0.000000
0.837481 0.544634 0.000000
0.877462 0.544523 0.000000
0.917443 0.544412 0.000000
0.957423 0.544301 0.000000
0.997404 0.544190 0.000000
1.000000 0.544080 0.000000
1.000000 0.543969 0.000000
1.000000 0.543858 0.000000
1.000000 0.543747 0.000000
0.000000 0.584064 0.017024
0.000000 0.583953 0.013363
0.003549 0.583842 0.009703
0.043529 0.583731 0.006043
0.083510 0.583621 0.002382
0.123491 0.583510 0.000000
0.163471 0.583399 0.000000
0.203452 0.583288 0.000000
0.243433 0.583177 0.000000
0.283413 0.583066 0.000000
0.323394 0.582955 0.000000
0.363375 0.582844 0.000000
0.403355 0.582733 0.000000
0.443336 0.582622 0.000000
0.483317 0.582511 0.000000
0.523298 0.582400 0.000000
0.563278 0.582290 0.000000
0.603259 0.582179 0.000000
0.643240 0.582068 0.000000
0.683220 0.581957 0.000000
0.723201 0.581846 0.000000
0.763182 0.581735 0.000000
0.803162 0.581624 0.000000
0.843143 0.581513 0.000000
0.883124 0.581402 0.000000
0.923104 0.581291 0.000000
0.963085 0.581180 0.000000
1.000000 0.581069 0.000000
1.000000 0.580959 0.000000
1.000000 0.580848 0.000000
1.000000 0.580737 0.000000
1.000000 0.580626 0.000000
0.000000 0.620943 0.009838
0.000000 0.620832 0.006177
0.009210 0.620721 0.002517
0.049191 0.620611 0.000000
0.089172 0.620500 0.000000
0.129152 0.620389 0.000000
0.169133 0.620278 0.000000
0.209114 0.620167 0.000000
0.249094 0.620056 0.000000
0.289075 0.619945 0.000000
0.329056 0.619834 0.000000
0.369037 0.619723 0.000000
0.409017 0.619612 0.000000
0.448998 0.619501 0.000000
0.488979 0.619390 0.000000
0.528959 0.619279 0.000000
0.568940 0.619169 0.000000
0.608921 0.619058 0.000000
0.648901 0.618947 0.000000
0.688882 0.618836 0.000000
0.728863 0.618725 0.000000
0.768843 0.618614 0.000000
0.808824 0.618503 0.000000
0.848805 0.618392 0.000000
0.888785 0.618281 0.000000
0.928766 0.618170 0.000000
0.968747 0.618059 0.000000
1.000000 0.617948 0.000000
1.000000 0.617838 0.000000
1.000000 0.617727 0.000000
1.000000 0.617616 0.000000
1.000000 0.617505 0.000000
0.000000 0.657822 0.002652
0.000000 0.657711 0.000000
0.014872 0.657600 0.000000
0.054853 0.657490 0.000000
0.094833 0.657379 0.000000
0.134814 0.657268 0.000000
0.174795 0.657157 0.000000
0.214776 0.657046 0.000000
0.254756 0.656935 0.000000
0.294737 0.656824 0.000000
0.334718 0.656713 0.000000
0.374698 0.656602 0.000000
0.414679 0.656491 0.000000
0.454660 0.656380 0.000000
0.494640 0.656269 0.000000
0.534621 0.656158 0.000000
0.574602 0.656048 0.000000
0.614582 0.655937 0.000000
0.654563 0.655826 0.000000
0.694544 0.655715 0.000000
0.734524 0.655604 0.000000
0.774505 0.655493 0.000000
0.814486 0.655382 0.000000
0.854466 0.655271 0.000000
0.894447 0.655160 0.000000
0.934428 0.655049 0.000000
0.974408 0.654938 0.000000
1.000000 0.654827 0.000000
1.000000 0.654717 0.000000
1.000000 0.654606 0.000000
1.000000 0.654495 0.000000
1.000000 0.654384 0.000000
0.000000 0.694701 0.000000
0.000000 0.694590 0.000000
0.020534 0.694479 0.000000
0.060515 0.694369 0.000000
0.100495 0.694258 0.000000
0.140476 0.694147 0.000000
0.180457 0.694036 0.000000
0.220437 0.693925 0.000000
0.260418 0.693814 0.000000
0.300399 0.693703 0.000000
0.340379 0.693592 0.000000
0.380360 0.693481 0.000000
0.420341 0.693370 0.000000
0.460321 0.693259 0.000000
0.500302 0.693148 0.000000
0.540283 0.693038 0.000000
0.580263 0.692927 0.000000
0.620244 0.692816 0.000000
0.660225 0.692705 0.000000
0.700205 0.692594 0.000000
0.740186 0.692483 0.000000
0.780167 0.692372 0.000000
0.820147 0.692261 0.000000
0.860128 0.692150 0.000000
0.900109 0.692039 0.000000
0.940089 0.691928 0.000000
0.980070 0.691817 0.000000
1.000000 0.691706 0.000000
1.000000 0.691596 0.000000
1.000000 0.691485 0.000000
1.000000 0.691374 0.000000
1.000000 0.691263 0.000000
0.000000 0.731580 0.000000
0.000000 0.731469 0.000000
0.026196 0.731358 0.000000
0.066176 0.731248 0.000000
0.106157 0.731137 0.000000
0.146138 0.731026 0.000000
0.186118 0.730915 0.000000
0.226099 0.730804 0.000000
0.266080 0.730693 0.000000
0.306060 0.730582 0.000000
0.346041 0.730471 0.000000
0.386022 0.730360 0.000000
0.426002 0.730249 0.000000
0.465983 0.730138 0.000000
0.505964 0.730027 0.000000
0.545944 0.729917 0.000000
0.585925 0.729806 0.000000
0.625906 0.729695 0.000000
0.665886 0.729584 0.000000
0.705867 0.729473 0.000000
0.745848 0.729362 0.000000
0.785828 0.729251 0.000000
0.825809 0.729140 0.000000
0.865790 0.729029 0.000000
0.905770 0.728918 0.000000
0.945751 0.728807 0.000000
0.985732 0.728696 0.000000
1.000000 0.728585 0.000000
1.000000 0.728475 0.000000
1.000000 0.728364 0.000000
1.000000 0.728253 0.000000
1.000000 0.728142 0.000000
0.000000 0.768459 0.000000
0.000000 0.768348 0.000000
0.031857 0.768237 0.000000
0.071838 0.768127 0.000000
0.111819 0.768016 0.000000
0.151799 0.767905 0.000000
0.191780 0.767794 0.000000
0.231761 0.767683 0.000000
0.271741 0.767572 0.000000
0.311722 0.767461 0.000000
0.351703 0.767350 0.000000
0.391683 0.767239 0.000000
0.431664 0.767128 0.000000
0.471645 0.767017 0.000000
0.511625 0.766906 0.000000
0.551606 0.766796 0.000000
0.591587 0.766685 0.000000
0.631567 0.766574 0.000000
0.671548 0.766463 0.000000
0.711529 0.766352 0.000000
0.751509 0.766241 0.000000
0.791490 0.766130 0.000000
0.831471 0.766019 0.000000
0.871451 0.765908 0.000000
0.911432 0.765797 0.000000
0.951413 0.765686 0.000000
0.991394 0.765575 0.000000
1.000000 0.765465 0.000000
1.000000 0.765354 0.000000
1.000000 0.765243 0.000000
1.000000 0.765132 0.000000
1.000000 0.765021 0.000000
0.000000 0.805338 0.000000
0.000000 0.805227 0.000000
0.037519 0.805117 0.000000
0.077500 0.805006 0.000000
0.117480 0.804895 0.000000
0.157461 0.804784 0.000000
0.197442 0.804673 0.000000
0.237422 0.804562 0.000000
0.277403 0.804451 0.000000
0.317384 0.804340 0.000000
0.357364 0.804229 0.000000
0.397345 0.804118 0.000000
0.437326 0.804007 0.000000
0.477306 0.803896 0.000000
0.517287 0.803785 0.000000
0.557268 0.803675 0.000000
0.597248 0.803564 0.000000
0.637229 0.803453 0.000000
0.677210 0.803342 0.000000
0.717190 0.803231 0.000000
0.757171 0.803120 0.000000
0.797152 0.803009 0.000000
0.837133 0.802898 0.000000
0.877113 0.802787 0.000000
0.917094 0.802676 0.000000
0.957075 0.802565 0.000000
0.997055 0.802454 0.000000
1.000000 0.802344 0.000000
1.000000 0.802233 0.000000
1.000000 0.802122 0.000000
1.000000 0.802011 0.000000
1.000000 0.801900 0.000000
0.000000 0.842217 0.000000
0.003200 0.842106 0.000000
0.043181 0.841996 0.000000
0.083161 0.841885 0.000000
0.123142 0.841774 0.000000
0.163123 0.841663 0.000000
0.203103 0.841552 0.000000
0.243084 0.841441 0.000000
0.283065 0.841330 0.000000
0.323045 0.841219 0.000000
0.363026 0.841108 0.000000
0.403007 0.840997 0.000000
0.442987 0.840886 0.000000
0.482968 0.840775 0.000000
0.522949 0.840664 0.000000
0.562929 0.840554 0.000000
0.602910 0.840443 0.000000
0.642891 0.840332 0.000000
0.682872 0.840221 0.000000
0.722852 0.840110 0.000000
0.762833 0.839999 0.000000
0.802814 0.839888 0.000000
0.842794 0.839777 0.000000
0.882775 0.839666 0.000000
0.922756 0.839555 0.000000
0.962736 0.839444 0.000000
1.000000 0.839333 0.000000
1.000000 0.839223 0.000000
1.000000 0.839112 0.000000
1.000000 0.839001 0.000000
1.000000 0.838890 0.000000
1.000000 0.838779 0.000000
0.000000 0.879096 0.000000
0.008862 0.878985 0.000000
0.048842 0.878875 0.000000
0.088823 0.878764 0.000000
0.128804 0.878653 0.000000
0.168784 0.878542 0.000000
0.208765 0.878431 0.000000
0.248746 0.878320 0.000000
0.288726 0.878209 0.000000
0.328707 0.878098 0.000000
0.368688 0.877987 0.000000
0.408668 0.877876 0.000000
0.448649 0.877765 0.000000
0.488630 0.877654 0.000000
0.528611 0.877544 0.000000
0.568591 0.877433 0.000000
0.608572 0.877322 0.000000
0.648553 0.877211 0.000000
0.688533 0.877100 0.000000
0.728514 0.876989 0.000000
0.768495 0.876878 0.000000
0.808475 0.876767 0.000000
0.848456 0.876656 0.000000
0.888437 0.876545 0.000000
0.928417 0.876434 0.000000
0.968398 0.876323 0.000000
1.000000 0.876212 0.000000
1.000000 0.876102 0.000000
1.000000 0.875991 0.000000
1.000000 0.875880 0.000000
1.000000 0.875769 0.000000
1.000000 0.875658 0.000000
0.000000 0.915975 0.000000
0.014523 0.915864 0.000000
0.054504 0.915754 0.000000
0.094485 0.915643 0.000000
0.134465 0.915532 0.000000
0.174446 0.915421 0.000000
0.214427 0.915310 0.000000
0.254407 0.915199 0.000000
0.294388 0.915088 0.000000
0.334369 0.914977 0.000000
0.374350 0.914866 0.000000
0.414330 0.914755 0.000000
0.454311 0.914644 0.000000
0.494292 0.914533 0.000000
0.534272 0.914423 0.000000
0.574253 0.914312 0.000000
0.614234 0.914201 0.000000
0.654214 0.914090 0.000000
0.694195 0.913979 0.000000
0.734176 0.913868 0.000000
0.774156 0.913757 0.000000
0.814137 0.913646 0.000000
0.854118 0.913535 0.000000
0.894098 0.913424 0.000000
0.934079 0.913313 0.000000
0.974060 0.913202 0.000000
1.000000 0.913091 0.000000
1.000000 0.912981 0.000000
1.000000 0.912870 0.000000
1.000000 0.912759 0.000000
1.000000 0.912648 0.000000
1.000000 0.912537 0.000000
0.000000 0.952854 0.000000
0.020185 0.952743 0.000000
0.060166 0.952633 0.000000
0.100146 0.952522 0.000000
0.140127 0.952411 0.000000
0.180108 0.952300 0.000000
0.220089 0.952189 0.000000
0.260069 0.952078 0.000000
0.300050 0.951967 0.000000
0.340031 0.951856 0.000000
0.380011 0.951745 0.000000
0.419992 0.951634 0.000000
0.459973 0.951523 0.000000
0.499953 0.951412 0.000000
0.539934 0.951302 0.000000
0.579915 0.951191 0.000000
0.619895 0.951080 0.000000
0.659876 0.950969 0.000000
0.699857 0.950858 0.000000
0.739837 0.950747 0.000000
0.779818 0.950636 0.000000
0.819799 0.950525 0.000000
0.859779 0.950414 0.000000
0.899760 0.950303 0.000000
0.939741 0.950192 0.000000
0.979721 0.950081 0.000000
1.000000 0.949971 0.000000
1.000000 0.949860 0.000000
1.000000 0.949749 0.000000
1.000000 0.949638 0.000000
1.000000 0.949527 0.000000
1.000000 0.949416 0.000000
0.000000 0.989733 0.000000
0.025847 0.989623 0.000000
0.065828 0.989512 0.000000
0.105808 0.989401 0.000000
0.145789 0.989290 0.000000
0.185770 0.989179 0.000000
0.225750 0.989068 0.000000
0.265731 0.988957 0.000000
0.305712 0.988846 0.000000
0.345692 0.988735 0.000000
0.385673 0.988624 0.000000
0.425654 0.988513 0.000000
0.465634 0.988402 0.000000
0.505615 0.988291 0.000000
0.545596 0.988181 0.000000
0.585576 0.988070 0.000000
0.625557 0.987959 0.000000
0.665538 0.987848 0.000000
0.705518 0.987737 0.000000
0.745499 0.987626 0.000000
0.785480 0.987515 0.000000
