app/src/main/assets/luts/cinestill_800t.cube
TITLE "Cinestill 800T"
LUT_3D_SIZE 33
DOMAIN_MIN 0.0 0.0 0.0
DOMAIN_MAX 1.0 1.0 1.0
0.020000 0.000000 0.040000
0.059021 0.000000 0.040000
0.095383 0.000000 0.040000
0.130806 0.000000 0.040000
0.165631 0.000000 0.040000
0.200019 0.000000 0.040000
0.234062 0.000000 0.040000
0.267822 0.000000 0.040000
0.301341 0.000000 0.040000
0.334650 0.000000 0.040000
0.367774 0.000000 0.040000
0.400732 0.000000 0.040000
0.433541 0.000000 0.040000
0.466214 0.000000 0.040000
0.498761 0.000000 0.040000
0.531191 0.000000 0.040000
0.563514 0.000000 0.040000
0.595736 0.000000 0.040000
0.634829 0.000000 0.040000
0.674876 0.000000 0.040000
0.714818 0.000000 0.040000
0.754661 0.000000 0.040000
0.794408 0.000000 0.040000
0.834066 0.000000 0.040000
0.873637 0.000000 0.040000
0.913125 0.000000 0.040000
0.952535 0.000000 0.040000
0.991869 0.000000 0.040000
1.000000 0.000000 0.040000
1.000000 0.000000 0.040000
1.000000 0.000000 0.040000
1.000000 0.000000 0.040000
1.000000 0.000000 0.040000
0.020000 0.028574 0.040000
0.059021 0.028574 0.040000
0.095383 0.028574 0.040000
0.130806 0.028574 0.040000
0.165631 0.028574 0.040000
0.200019 0.028574 0.040000
0.234062 0.028574 0.040000
0.267822 0.028574 0.040000
0.301341 0.028574 0.040000
0.334650 0.028574 0.040000
0.367774 0.028574 0.040000
0.400732 0.028574 0.040000
0.433541 0.028574 0.040000
0.466214 0.028574 0.040000
0.498761 0.028574 0.040000
0.531191 0.028574 0.040000
0.563514 0.028574 0.040000
0.595736 0.028574 0.040000
0.634829 0.028574 0.040000
0.674876 0.028574 0.040000
0.714818 0.028574 0.040000
0.754661 0.028574 0.040000
0.794408 0.028574 0.040000
0.834066 0.028574 0.040000
0.873637 0.028574 0.040000
0.913125 0.028574 0.040000
0.952535 0.028574 0.040000
0.991869 0.028574 0.040000
1.000000 0.028574 0.040000
1.000000 0.028574 0.040000
1.000000 0.028574 0.040000
1.000000 0.028574 0.040000
1.000000 0.028574 0.040000
0.020000 0.057946 0.040000
0.059021 0.057946 0.040000
0.095383 0.057946 0.040000
0.130806 0.057946 0.040000
0.165631 0.057946 0.040000
0.200019 0.057946 0.040000
0.234062 0.057946 0.040000
0.267822 0.057946 0.040000
0.301341 0.057946 0.040000
0.334650 0.057946 0.040000
0.367774 0.057946 0.040000
0.400732 0.057946 0.040000
0.433541 0.057946 0.040000
0.466214 0.057946 0.040000
0.498761 0.057946 0.040000
0.531191 0.057946 0.040000
0.563514 0.057946 0.040000
0.595736 0.057946 0.040000
0.634829 0.057946 0.040000
0.674876 0.057946 0.040000
0.714818 0.057946 0.040000
0.754661 0.057946 0.040000
0.794408 0.057946 0.040000
0.834066 0.057946 0.040000
0.873637 0.057946 0.040000
0.913125 0.057946 0.040000
0.952535 0.057946 0.040000
0.991869 0.057946 0.040000
1.000000 0.057946 0.040000
1.000000 0.057946 0.040000
1.000000 0.057946 0.040000
1.000000 0.057946 0.040000
1.000000 0.057946 0.040000
0.020000 0.087627 0.040000
0.059021 0.087627 0.040000
0.095383 0.087627 0.040000
0.130806 0.087627 0.040000
0.165631 0.087627 0.040000
0.200019 0.087627 0.040000
0.234062 0.087627 0.040000
0.267822 0.087627 0.040000
0.301341 0.087627 0.040000
0.334650 0.087627 0.040000
0.367774 0.087627 0.040000
0.400732 0.087627 0.040000
0.433541 0.087627 0.040000
0.466214 0.087627 0.040000
0.498761 0.087627 0.040000
0.531191 0.087627 0.040000
0.563514 0.087627 0.040000
0.595736 0.087627 0.040000
0.634829 0.087627 0.040000
0.674876 0.087627 0.040000
0.714818 0.087627 0.040000
0.754661 0.087627 0.040000
0.794408 0.087627 0.040000
0.834066 0.087627 0.040000
0.873637 0.087627 0.040000
0.913125 0.087627 0.040000
0.952535 0.087627 0.040000
0.991869 0.087627 0.040000
1.000000 0.087627 0.040000
1.000000 0.087627 0.040000
1.000000 0.087627 0.040000
1.000000 0.087627 0.040000
1.000000 0.087627 0.040000
0.020000 0.117510 0.040000
0.059021 0.117510 0.040000
0.095383 0.117510 0.040000
0.130806 0.117510 0.040000
0.165631 0.117510 0.040000
0.200019 0.117510 0.040000
0.234062 0.117510 0.040000
0.267822 0.117510 0.040000
0.301341 0.117510 0.040000
0.334650 0.117510 0.040000
0.367774 0.117510 0.040000
0.400732 0.117510 0.040000
0.433541 0.117510 0.040000
0.466214 0.117510 0.040000
0.498761 0.117510 0.040000
0.531191 0.117510 0.040000
0.563514 0.117510 0.040000
0.595736 0.117510 0.040000
0.634829 0.117510 0.040000
0.674876 0.117510 0.040000
0.714818 0.117510 0.040000
0.754661 0.117510 0.040000
0.794408 0.117510 0.040000
0.834066 0.117510 0.040000
0.873637 0.117510 0.040000
0.913125 0.117510 0.040000
0.952535 0.117510 0.040000
0.991869 0.117510 0.040000
1.000000 0.117510 0.040000
1.000000 0.117510 0.040000
1.000000 0.117510 0.040000
1.000000 0.117510 0.040000
1.000000 0.117510 0.040000
0.020000 0.147544 0.040000
0.059021 0.147544 0.040000
0.095383 0.147544 0.040000
0.130806 0.147544 0.040000
0.165631 0.147544 0.040000
0.200019 0.147544 0.040000
0.234062 0.147544 0.040000
0.267822 0.147544 0.040000
0.301341 0.147544 0.040000
0.334650 0.147544 0.040000
0.367774 0.147544 0.040000
0.400732 0.147544 0.040000
0.433541 0.147544 0.040000
0.466214 0.147544 0.040000
0.498761 0.147544 0.040000
0.531191 0.147544 0.040000
0.563514 0.147544 0.040000
0.595736 0.147544 0.040000
0.634829 0.147544 0.040000
0.674876 0.147544 0.040000
0.714818 0.147544 0.040000
0.754661 0.147544 0.040000
0.794408 0.147544 0.040000
0.834066 0.147544 0.040000
0.873637 0.147544 0.040000
0.913125 0.147544 0.040000
0.952535 0.147544 0.040000
0.991869 0.147544 0.040000
1.000000 0.147544 0.040000
1.000000 0.147544 0.040000
1.000000 0.147544 0.040000
1.000000 0.147544 0.040000
1.000000 0.147544 0.040000
0.020000 0.177700 0.040000
0.059021 0.177700 0.040000
0.095383 0.177700 0.040000
0.130806 0.177700 0.040000
0.165631 0.177700 0.040000
0.200019 0.177700 0.040000
0.234062 0.177700 0.040000
0.267822 0.177700 0.040000
0.301341 0.177700 0.040000
0.334650 0.177700 0.040000
0.367774 0.177700 0.040000
0.400732 0.177700 0.040000
0.433541 0.177700 0.040000
0.466214 0.177700 0.040000
0.498761 0.177700 0.040000
0.531191 0.177700 0.040000
0.563514 0.177700 0.040000
0.595736 0.177700 0.040000
0.634829 0.177700 0.040000
0.674876 0.177700 0.040000
0.714818 0.177700 0.040000
0.754661 0.177700 0.040000
0.794408 0.177700 0.040000
0.834066 0.177700 0.040000
0.873637 0.177700 0.040000
0.913125 0.177700 0.040000
0.952535 0.177700 0.040000
0.991869 0.177700 0.040000
1.000000 0.177700 0.040000
1.000000 0.177700 0.040000
1.000000 0.177700 0.040000
1.000000 0.177700 0.040000
1.000000 0.177700 0.040000
0.020000 0.207957 0.040000
0.059021 0.207957 0.040000
0.095383 0.207957 0.040000
0.130806 0.207957 0.040000
0.165631 0.207957 0.040000
0.200019 0.207957 0.040000
0.234062 0.207957 0.040000
0.267822 0.207957 0.040000
0.301341 0.207957 0.040000
0.334650 0.207957 0.040000
0.367774 0.207957 0.040000
0.400732 0.207957 0.040000
0.433541 0.207957 0.040000
0.466214 0.207957 0.040000
0.498761 0.207957 0.040000
0.531191 0.207957 0.040000
0.563514 0.207957 0.040000
0.595736 0.207957 0.040000
0.634829 0.207957 0.040000
0.674876 0.207957 0.040000
0.714818 0.207957 0.040000
0.754661 0.207957 0.040000
0.794408 0.207957 0.040000
0.834066 0.207957 0.040000
0.873637 0.207957 0.040000
0.913125 0.207957 0.040000
0.952535 0.207957 0.040000
0.991869 0.207957 0.040000
1.000000 0.207957 0.040000
1.000000 0.207957 0.040000
1.000000 0.207957 0.040000
1.000000 0.207957 0.040000
1.000000 0.207957 0.040000
0.020000 0.238300 0.040000
0.059021 0.238300 0.040000
0.095383 0.238300 0.040000
0.130806 0.238300 0.040000
0.165631 0.238300 0.040000
0.200019 0.238300 0.040000
0.234062 0.238300 0.040000
0.267822 0.238300 0.040000
0.301341 0.238300 0.040000
0.334650 0.238300 0.040000
0.367774 0.238300 0.040000
0.400732 0.238300 0.040000
0.433541 0.238300 0.040000
0.466214 0.238300 0.040000
0.498761 0.238300 0.040000
0.531191 0.238300 0.040000
0.563514 0.238300 0.040000
0.595736 0.238300 0.040000
0.634829 0.238300 0.040000
0.674876 0.238300 0.040000
0.714818 0.238300 0.040000
0.754661 0.238300 0.040000
0.794408 0.238300 0.040000
0.834066 0.238300 0.040000
0.873637 0.238300 0.040000
0.913125 0.238300 0.040000
0.952535 0.238300 0.040000
0.991869 0.238300 0.040000
1.000000 0.238300 0.040000
1.000000 0.238300 0.040000
1.000000 0.238300 0.040000
1.000000 0.238300 0.040000
1.000000 0.238300 0.040000
0.020000 0.268720 0.040000
0.059021 0.268720 0.040000
0.095383 0.268720 0.040000
0.130806 0.268720 0.040000
0.165631 0.268720 0.040000
0.200019 0.268720 0.040000
0.234062 0.268720 0.040000
0.267822 0.268720 0.040000
0.301341 0.268720 0.040000
0.334650 0.268720 0.040000
0.367774 0.268720 0.040000
0.400732 0.268720 0.040000
0.433541 0.268720 0.040000
0.466214 0.268720 0.040000
0.498761 0.268720 0.040000
0.531191 0.268720 0.040000
0.563514 0.268720 0.040000
0.595736 0.268720 0.040000
0.634829 0.268720 0.040000
0.674876 0.268720 0.040000
0.714818 0.268720 0.040000
0.754661 0.268720 0.040000
0.794408 0.268720 0.040000
0.834066 0.268720 0.040000
0.873637 0.268720 0.040000
0.913125 0.268720 0.040000
0.952535 0.268720 0.040000
0.991869 0.268720 0.040000
1.000000 0.268720 0.040000
1.000000 0.268720 0.040000
1.000000 0.268720 0.040000
1.000000 0.268720 0.040000
1.000000 0.268720 0.040000
0.020000 0.299208 0.040000
0.059021 0.299208 0.040000
0.095383 0.299208 0.040000
0.130806 0.299208 0.040000
0.165631 0.299208 0.040000
0.200019 0.299208 0.040000
0.234062 0.299208 0.040000
0.267822 0.299208 0.040000
0.301341 0.299208 0.040000
0.334650 0.299208 0.040000
0.367774 0.299208 0.040000
0.400732 0.299208 0.040000
0.433541 0.299208 0.040000
0.466214 0.299208 0.040000
0.498761 0.299208 0.040000
0.531191 0.299208 0.040000
0.563514 0.299208 0.040000
0.595736 0.299208 0.040000
0.634829 0.299208 0.040000
0.674876 0.299208 0.040000
0.714818 0.299208 0.040000
0.754661 0.299208 0.040000
0.794408 0.299208 0.040000
0.834066 0.299208 0.040000
0.873637 0.299208 0.040000
0.913125 0.299208 0.040000
0.952535 0.299208 0.040000
0.991869 0.299208 0.040000
1.000000 0.299208 0.040000
1.000000 0.299208 0.040000
1.000000 0.299208 0.040000
1.000000 0.299208 0.040000
1.000000 0.299208 0.040000
0.020000 0.329757 0.040000
0.059021 0.329757 0.040000
0.095383 0.329757 0.040000
0.130806 0.329757 0.040000
0.165631 0.329757 0.040000
0.200019 0.329757 0.040000
0.234062 0.329757 0.040000
0.267822 0.329757 0.040000
0.301341 0.329757 0.040000
0.334650 0.329757 0.040000
0.367774 0.329757 0.040000
0.400732 0.329757 0.040000
0.433541 0.329757 0.040000
0.466214 0.329757 0.040000
0.498761 0.329757 0.040000
0.531191 0.329757 0.040000
0.563514 0.329757 0.040000
0.595736 0.329757 0.040000
0.634829 0.329757 0.040000
0.674876 0.329757 0.040000
0.714818 0.329757 0.040000
0.754661 0.329757 0.040000
0.794408 0.329757 0.040000
0.834066 0.329757 0.040000
0.873637 0.329757 0.040000
0.913125 0.329757 0.040000
0.952535 0.329757 0.040000
0.991869 0.329757 0.040000
1.000000 0.329757 0.040000
1.000000 0.329757 0.040000
1.000000 0.329757 0.040000
1.000000 0.329757 0.040000
1.000000 0.329757 0.040000
0.020000 0.360361 0.040000
0.059021 0.360361 0.040000
0.095383 0.360361 0.040000
0.130806 0.360361 0.040000
0.165631 0.360361 0.040000
0.200019 0.360361 0.040000
0.234062 0.360361 0.040000
0.267822 0.360361 0.040000
0.301341 0.360361 0.040000
0.334650 0.360361 0.040000
0.367774 0.360361 0.040000
0.400732 0.360361 0.040000
0.433541 0.360361 0.040000
0.466214 0.360361 0.040000
0.498761 0.360361 0.040000
0.531191 0.360361 0.040000
0.563514 0.360361 0.040000
0.595736 0.360361 0.040000
0.634829 0.360361 0.040000
0.674876 0.360361 0.040000
0.714818 0.360361 0.040000
0.754661 0.360361 0.040000
0.794408 0.360361 0.040000
0.834066 0.360361 0.040000
0.873637 0.360361 0.040000
0.913125 0.360361 0.040000
0.952535 0.360361 0.040000
0.991869 0.360361 0.040000
1.000000 0.360361 0.040000
1.000000 0.360361 0.040000
1.000000 0.360361 0.040000
1.000000 0.360361 0.040000
1.000000 0.360361 0.040000
0.020000 0.391017 0.040000
0.059021 0.391017 0.040000
0.095383 0.391017 0.040000
0.130806 0.391017 0.040000
0.165631 0.391017 0.040000
0.200019 0.391017 0.040000
0.234062 0.391017 0.040000
0.267822 0.391017 0.040000
0.301341 0.391017 0.040000
0.334650 0.391017 0.040000
0.367774 0.391017 0.040000
0.400732 0.391017 0.040000
0.433541 0.391017 0.040000
0.466214 0.391017 0.040000
0.498761 0.391017 0.040000
0.531191 0.391017 0.040000
0.563514 0.391017 0.040000
0.595736 0.391017 0.040000
0.634829 0.391017 0.040000
0.674876 0.391017 0.040000
0.714818 0.391017 0.040000
0.754661 0.391017 0.040000
0.794408 0.391017 0.040000
0.834066 0.391017 0.040000
0.873637 0.391017 0.040000
0.913125 0.391017 0.040000
0.952535 0.391017 0.040000
0.991869 0.391017 0.040000
1.000000 0.391017 0.040000
1.000000 0.391017 0.040000
1.000000 0.391017 0.040000
1.000000 0.391017 0.040000
1.000000 0.391017 0.040000
0.020000 0.421720 0.040000
0.059021 0.421720 0.040000
0.095383 0.421720 0.040000
0.130806 0.421720 0.040000
0.165631 0.421720 0.040000
0.200019 0.421720 0.040000
0.234062 0.421720 0.040000
0.267822 0.421720 0.040000
0.301341 0.421720 0.040000
0.334650 0.421720 0.040000
0.367774 0.421720 0.040000
0.400732 0.421720 0.040000
0.433541 0.421720 0.040000
0.466214 0.421720 0.040000
0.498761 0.421720 0.040000
0.531191 0.421720 0.040000
0.563514 0.421720 0.040000
0.595736 0.421720 0.040000
0.634829 0.421720 0.040000
0.674876 0.421720 0.040000
0.714818 0.421720 0.040000
0.754661 0.421720 0.040000
0.794408 0.421720 0.040000
0.834066 0.421720 0.040000
0.873637 0.421720 0.040000
0.913125 0.421720 0.040000
0.952535 0.421720 0.040000
0.991869 0.421720 0.040000
1.000000 0.421720 0.040000
1.000000 0.421720 0.040000
1.000000 0.421720 0.040000
1.000000 0.421720 0.040000
1.000000 0.421720 0.040000
0.020000 0.452466 0.040000
0.059021 0.452466 0.040000
0.095383 0.452466 0.040000
0.130806 0.452466 0.040000
0.165631 0.452466 0.040000
0.200019 0.452466 0.040000
0.234062 0.452466 0.040000
0.267822 0.452466 0.040000
0.301341 0.452466 0.040000
0.334650 0.452466 0.040000
0.367774 0.452466 0.040000
0.400732 0.452466 0.040000
0.433541 0.452466 0.040000
0.466214 0.452466 0.040000
0.498761 0.452466 0.040000
0.531191 0.452466 0.040000
0.563514 0.452466 0.040000
0.595736 0.452466 0.040000
0.634829 0.452466 0.040000
0.674876 0.452466 0.040000
0.714818 0.452466 0.040000
0.754661 0.452466 0.040000
0.794408 0.452466 0.040000
0.834066 0.452466 0.040000
0.873637 0.452466 0.040000
0.913125 0.452466 0.040000
0.952535 0.452466 0.040000
0.991869 0.452466 0.040000
1.000000 0.452466 0.040000
1.000000 0.452466 0.040000
1.000000 0.452466 0.040000
1.000000 0.452466 0.040000
1.000000 0.452466 0.040000
0.020000 0.483254 0.040000
0.059021 0.483254 0.040000
0.095383 0.483254 0.040000
0.130806 0.483254 0.040000
0.165631 0.483254 0.040000
0.200019 0.483254 0.040000
0.234062 0.483254 0.040000
0.267822 0.483254 0.040000
0.301341 0.483254 0.040000
0.334650 0.483254 0.040000
0.367774 0.483254 0.040000
0.400732 0.483254 0.040000
0.433541 0.483254 0.040000
0.466214 0.483254 0.040000
0.498761 0.483254 0.040000
0.531191 0.483254 0.040000
0.563514 0.483254 0.040000
0.595736 0.483254 0.040000
0.634829 0.483254 0.040000
0.674876 0.483254 0.040000
0.714818 0.483254 0.040000
0.754661 0.483254 0.040000
0.794408 0.483254 0.040000
0.834066 0.483254 0.040000
0.873637 0.483254 0.040000
0.913125 0.483254 0.040000
0.952535 0.483254 0.040000
0.991869 0.483254 0.040000
1.000000 0.483254 0.040000
1.000000 0.483254 0.040000
1.000000 0.483254 0.040000
1.000000 0.483254 0.040000
1.000000 0.483254 0.040000
0.020000 0.514080 0.040000
0.059021 0.514080 0.040000
0.095383 0.514080 0.040000
0.130806 0.514080 0.040000
0.165631 0.514080 0.040000
0.200019 0.514080 0.040000
0.234062 0.514080 0.040000
0.267822 0.514080 0.040000
0.301341 0.514080 0.040000
0.334650 0.514080 0.040000
0.367774 0.514080 0.040000
0.400732 0.514080 0.040000
0.433541 0.514080 0.040000
0.466214 0.514080 0.040000
0.498761 0.514080 0.040000
0.531191 0.514080 0.040000
0.563514 0.514080 0.040000
0.595736 0.514080 0.040000
0.634829 0.514080 0.040000
0.674876 0.514080 0.040000
0.714818 0.514080 0.040000
0.754661 0.514080 0.040000
0.794408 0.514080 0.040000
0.834066 0.514080 0.040000
0.873637 0.514080 0.040000
0.913125 0.514080 0.040000
0.952535 0.514080 0.040000
0.991869 0.514080 0.040000
1.000000 0.514080 0.040000
1.000000 0.514080 0.040000
1.000000 0.514080 0.040000
1.000000 0.514080 0.040000
1.000000 0.514080 0.040000
0.020000 0.544943 0.040000
0.059021 0.544943 0.040000
0.095383 0.544943 0.040000
0.130806 0.544943 0.040000
0.165631 0.544943 0.040000
0.200019 0.544943 0.040000
0.234062 0.544943 0.040000
0.267822 0.544943 0.040000
0.301341 0.544943 0.040000
0.334650 0.544943 0.040000
0.367774 0.544943 0.040000
0.400732 0.544943 0.040000
0.433541 0.544943 0.040000
0.466214 0.544943 0.040000
0.498761 0.544943 0.040000
0.531191 0.544943 0.040000
0.563514 0.544943 0.040000
0.595736 0.544943 0.040000
0.634829 0.544943 0.040000
0.674876 0.544943 0.040000
0.714818 0.544943 0.040000
0.754661 0.544943 0.040000
0.794408 0.544943 0.040000
0.834066 0.544943 0.040000
0.873637 0.544943 0.040000
0.913125 0.544943 0.040000
0.952535 0.544943 0.040000
0.991869 0.544943 0.040000
1.000000 0.544943 0.040000
1.000000 0.544943 0.040000
1.000000 0.544943 0.040000
1.000000 0.544943 0.040000
1.000000 0.544943 0.040000
0.020000 0.575840 0.040000
0.059021 0.575840 0.040000
0.095383 0.575840 0.040000
0.130806 0.575840 0.040000
0.165631 0.575840 0.040000
0.200019 0.575840 0.040000
0.234062 0.575840 0.040000
0.267822 0.575840 0.040000
0.301341 0.575840 0.040000
0.334650 0.575840 0.040000
0.367774 0.575840 0.040000
0.400732 0.575840 0.040000
0.433541 0.575840 0.040000
0.466214 0.575840 0.040000
0.498761 0.575840 0.040000
0.531191 0.575840 0.040000
0.563514 0.575840 0.040000
0.595736 0.575840 0.040000
0.634829 0.575840 0.040000
0.674876 0.575840 0.040000
0.714818 0.575840 0.040000
0.754661 0.575840 0.040000
0.794408 0.575840 0.040000
0.834066 0.575840 0.040000
0.873637 0.575840 0.040000
0.913125 0.575840 0.040000
0.952535 0.575840 0.040000
0.991869 0.575840 0.040000
1.000000 0.575840 0.040000
1.000000 0.575840 0.040000
1.000000 0.575840 0.040000
1.000000 0.575840 0.040000
1.000000 0.575840 0.040000
0.020000 0.606769 0.040000
0.059021 0.606769 0.040000
0.095383 0.606769 0.040000
0.130806 0.606769 0.040000
0.165631 0.606769 0.040000
0.200019 0.606769 0.040000
0.234062 0.606769 0.040000
0.267822 0.606769 0.040000
0.301341 0.606769 0.040000
0.334650 0.606769 0.040000
0.367774 0.606769 0.040000
0.400732 0.606769 0.040000
0.433541 0.606769 0.040000
0.466214 0.606769 0.040000
0.498761 0.606769 0.040000
0.531191 0.606769 0.040000
0.563514 0.606769 0.040000
0.595736 0.606769 0.040000
0.634829 0.606769 0.040000
0.674876 0.606769 0.040000
0.714818 0.606769 0.040000
0.754661 0.606769 0.040000
0.794408 0.606769 0.040000
0.834066 0.606769 0.040000
0.873637 0.606769 0.040000
0.913125 0.606769 0.040000
0.952535 0.606769 0.040000
0.991869 0.606769 0.040000
1.000000 0.606769 0.040000
1.000000 0.606769 0.040000
1.000000 0.606769 0.040000
1.000000 0.606769 0.040000
1.000000 0.606769 0.040000
0.020000 0.637730 0.040000
0.059021 0.637730 0.040000
0.095383 0.637730 0.040000
0.130806 0.637730 0.040000
0.165631 0.637730 0.040000
0.200019 0.637730 0.040000
0.234062 0.637730 0.040000
0.267822 0.637730 0.040000
0.301341 0.637730 0.040000
0.334650 0.637730 0.040000
0.367774 0.637730 0.040000
0.400732 0.637730 0.040000
0.433541 0.637730 0.040000
0.466214 0.637730 0.040000
0.498761 0.637730 0.040000
0.531191 0.637730 0.040000
0.563514 0.637730 0.040000
0.595736 0.637730 0.040000
0.634829 0.637730 0.040000
0.674876 0.637730 0.040000
0.714818 0.637730 0.040000
0.754661 0.637730 0.040000
0.794408 0.637730 0.040000
0.834066 0.637730 0.040000
0.873637 0.637730 0.040000
0.913125 0.637730 0.040000
0.952535 0.637730 0.040000
0.991869 0.637730 0.040000
1.000000 0.637730 0.040000
1.000000 0.637730 0.040000
1.000000 0.637730 0.040000
1.000000 0.637730 0.040000
1.000000 0.637730 0.040000
0.020000 0.668720 0.040000
0.059021 0.668720 0.040000
0.095383 0.668720 0.040000
0.130806 0.668720 0.040000
0.165631 0.668720 0.040000
0.200019 0.668720 0.040000
0.234062 0.668720 0.040000
0.267822 0.668720 0.040000
0.301341 0.668720 0.040000
0.334650 0.668720 0.040000
0.367774 0.668720 0.040000
0.400732 0.668720 0.040000
0.433541 0.668720 0.040000
0.466214 0.668720 0.040000
0.498761 0.668720 0.040000
0.531191 0.668720 0.040000
0.563514 0.668720 0.040000
0.595736 0.668720 0.040000
0.634829 0.668720 0.040000
0.674876 0.668720 0.040000
0.714818 0.668720 0.040000
0.754661 0.668720 0.040000
0.794408 0.668720 0.040000
0.834066 0.668720 0.040000
0.873637 0.668720 0.040000
0.913125 0.668720 0.040000
0.952535 0.668720 0.040000
0.991869 0.668720 0.040000
1.000000 0.668720 0.040000
1.000000 0.668720 0.040000
1.000000 0.668720 0.040000
1.000000 0.668720 0.040000
1.000000 0.668720 0.040000
0.020000 0.699738 0.040000
0.059021 0.699738 0.040000
0.095383 0.699738 0.040000
0.130806 0.699738 0.040000
0.165631 0.699738 0.040000
0.200019 0.699738 0.040000
0.234062 0.699738 0.040000
0.267822 0.699738 0.040000
0.301341 0.699738 0.040000
0.334650 0.699738 0.040000
0.367774 0.699738 0.040000
0.400732 0.699738 0.040000
0.433541 0.699738 0.040000
0.466214 0.699738 0.040000
0.498761 0.699738 0.040000
0.531191 0.699738 0.040000
0.563514 0.699738 0.040000
0.595736 0.699738 0.040000
0.634829 0.699738 0.040000
0.674876 0.699738 0.040000
0.714818 0.699738 0.040000
0.754661 0.699738 0.040000
0.794408 0.699738 0.040000
0.834066 0.699738 0.040000
0.873637 0.699738 0.040000
0.913125 0.699738 0.040000
0.952535 0.699738 0.040000
0.991869 0.699738 0.040000
1.000000 0.699738 0.040000
1.000000 0.699738 0.040000
1.000000 0.699738 0.040000
1.000000 0.699738 0.040000
1.000000 0.699738 0.040000
0.020000 0.730783 0.040000
0.059021 0.730783 0.040000
0.095383 0.730783 0.040000
0.130806 0.730783 0.040000
0.165631 0.730783 0.040000
0.200019 0.730783 0.040000
0.234062 0.730783 0.040000
0.267822 0.730783 0.040000
0.301341 0.730783 0.040000
0.334650 0.730783 0.040000
0.367774 0.730783 0.040000
0.400732 0.730783 0.040000
0.433541 0.730783 0.040000
0.466214 0.730783 0.040000
0.498761 0.730783 0.040000
0.531191 0.730783 0.040000
0.563514 0.730783 0.040000
0.595736 0.730783 0.040000
0.634829 0.730783 0.040000
0.674876 0.730783 0.040000
0.714818 0.730783 0.040000
0.754661 0.730783 0.040000
0.794408 0.730783 0.040000
0.834066 0.730783 0.040000
0.873637 0.730783 0.040000
0.913125 0.730783 0.040000
0.952535 0.730783 0.040000
0.991869 0.730783 0.040000
1.000000 0.730783 0.040000
1.000000 0.730783 0.040000
1.000000 0.730783 0.040000
1.000000 0.730783 0.040000
1.000000 0.730783 0.040000
0.020000 0.761854 0.040000
0.059021 0.761854 0.040000
0.095383 0.761854 0.040000
0.130806 0.761854 0.040000
0.165631 0.761854 0.040000
0.200019 0.761854 0.040000
0.234062 0.761854 0.040000
0.267822 0.761854 0.040000
0.301341 0.761854 0.040000
0.334650 0.761854 0.040000
0.367774 0.761854 0.040000
0.400732 0.761854 0.040000
0.433541 0.761854 0.040000
0.466214 0.761854 0.040000
0.498761 0.761854 0.040000
0.531191 0.761854 0.040000
0.563514 0.761854 0.040000
0.595736 0.761854 0.040000
0.634829 0.761854 0.040000
0.674876 0.761854 0.040000
0.714818 0.761854 0.040000
0.754661 0.761854 0.040000
0.794408 0.761854 0.040000
0.834066 0.761854 0.040000
0.873637 0.761854 0.040000
0.913125 0.761854 0.040000
0.952535 0.761854 0.040000
0.991869 0.761854 0.040000
1.000000 0.761854 0.040000
1.000000 0.761854 0.040000
1.000000 0.761854 0.040000
1.000000 0.761854 0.040000
1.000000 0.761854 0.040000
0.020000 0.792950 0.040000
0.059021 0.792950 0.040000
0.095383 0.792950 0.040000
0.130806 0.792950 0.040000
0.165631 0.792950 0.040000
0.200019 0.792950 0.040000
0.234062 0.792950 0.040000
0.267822 0.792950 0.040000
0.301341 0.792950 0.040000
0.334650 0.792950 0.040000
0.367774 0.792950 0.040000
0.400732 0.792950 0.040000
0.433541 0.792950 0.040000
0.466214 0.792950 0.040000
0.498761 0.792950 0.040000
0.531191 0.792950 0.040000
0.563514 0.792950 0.040000
0.595736 0.792950 0.040000
0.634829 0.792950 0.040000
0.674876 0.792950 0.040000
0.714818 0.792950 0.040000
0.754661 0.792950 0.040000
0.794408 0.792950 0.040000
0.834066 0.792950 0.040000
0.873637 0.792950 0.040000
0.913125 0.792950 0.040000
0.952535 0.792950 0.040000
