app/src/main/assets/luts/clarity.cube
TITLE "Clarity"
LUT_3D_SIZE 5
DOMAIN_MIN 0.0 0.0 0.0
DOMAIN_MAX 1.0 1.0 1.0
0.000000 0.000000 0.000000
0.156250 0.000000 0.000000
0.500000 0.000000 0.000000
0.843750 0.000000 0.000000
1.000000 0.000000 0.000000
0.000000 0.156250 0.000000
0.156250 0.156250 0.000000
0.500000 0.156250 0.000000
0.843750 0.156250 0.000000
1.000000 0.156250 0.000000
0.000000 0.500000 0.000000
0.156250 0.500000 0.000000
0.500000 0.500000 0.000000
0.843750 0.500000 0.000000
1.000000 0.500000 0.000000
0.000000 0.843750 0.000000
0.156250 0.843750 0.000000
0.500000 0.843750 0.000000
0.843750 0.843750 0.000000
1.000000 0.843750 0.000000
0.000000 1.000000 0.000000
0.156250 1.000000 0.000000
0.500000 1.000000 0.000000
0.843750 1.000000 0.000000
1.000000 1.000000 0.000000
0.000000 0.000000 0.156250
0.156250 0.000000 0.156250
0.500000 0.000000 0.156250
0.843750 0.000000 0.156250
1.000000 0.000000 0.156250
0.000000 0.156250 0.156250
0.156250 0.156250 0.156250
0.500000 0.115000 0.115000
0.843750 0.073750 0.073750
1.000000 0.055000 0.055000
0.000000 0.500000 0.156250
0.115000 0.500000 0.115000
0.500000 0.500000 0.115000
0.843750 0.458750 0.073750
1.000000 0.440000 0.055000
0.000000 0.843750 0.156250
0.073750 0.843750 0.073750
0.458750 0.843750 0.073750
0.843750 0.843750 0.073750
1.000000 0.825000 0.055000
0.000000 1.000000 0.156250
0.055000 1.000000 0.055000
0.440000 1.000000 0.055000
0.825000 1.000000 0.055000
1.000000 1.000000 0.055000
0.000000 0.000000 0.500000
0.156250 0.000000 0.500000
0.500000 0.000000 0.500000
0.843750 0.000000 0.500000
1.000000 0.000000 0.500000
0.000000 0.156250 0.500000
0.115000 0.115000 0.500000
0.500000 0.115000 0.500000
0.843750 0.073750 0.458750
1.000000 0.055000 0.440000
0.000000 0.500000 0.500000
0.115000 0.500000 0.500000
0.500000 0.500000 0.500000
0.843750 0.458750 0.458750
1.000000 0.440000 0.440000
0.000000 0.843750 0.500000
0.073750 0.843750 0.458750
0.458750 0.843750 0.458750
0.843750 0.843750 0.458750
1.000000 0.825000 0.440000
0.000000 1.000000 0.500000
0.055000 1.000000 0.440000
0.440000 1.000000 0.440000
0.825000 1.000000 0.440000
1.000000 1.000000 0.440000
0.000000 0.000000 0.843750
0.156250 0.000000 0.843750
0.500000 0.000000 0.843750
0.843750 0.000000 0.843750
1.000000 0.000000 0.843750
0.000000 0.156250 0.843750
0.073750 0.073750 0.843750
0.458750 0.073750 0.843750
0.843750 0.073750 0.843750
1.000000 0.055000 0.825000
0.000000 0.500000 0.843750
0.073750 0.458750 0.843750
0.458750 0.458750 0.843750
0.843750 0.458750 0.843750
1.000000 0.440000 0.825000
0.000000 0.843750 0.843750
0.073750 0.843750 0.843750
0.458750 0.843750 0.843750
0.843750 0.843750 0.843750
1.000000 0.825000 0.825000
0.000000 1.000000 0.843750
0.055000 1.000000 0.825000
0.440000 1.000000 0.825000
0.825000 1.000000 0.825000
1.000000 1.000000 0.825000
0.000000 0.000000 1.000000
0.156250 0.000000 1.000000
0.500000 0.000000 1.000000
0.843750 0.000000 1.000000
1.000000 0.000000 1.000000
0.000000 0.156250 1.000000
0.055000 0.055000 1.000000
0.440000 0.055000 1.000000
0.825000 0.055000 1.000000
1.000000 0.055000 1.000000
0.000000 0.500000 1.000000
0.055000 0.440000 1.000000
0.440000 0.440000 1.000000
0.825000 0.440000 1.000000
1.000000 0.440000 1.000000
0.000000 0.843750 1.000000
0.055000 0.825000 1.000000
0.440000 0.825000 1.000000
0.825000 0.825000 1.000000
1.000000 0.825000 1.000000
0.000000 1.000000 1.000000
0.055000 1.000000 1.000000
0.440000 1.000000 1.000000
0.825000 1.000000 1.000000
1.000000 1.000000 1.000000
