app/src/main/assets/luts/clarity.cube
TITLE "Clarity"
LUT_3D_SIZE 9
DOMAIN_MIN 0.0 0.0 0.0
DOMAIN_MAX 1.0 1.0 1.0
0.000000 0.000000 0.000000
0.042969 0.000000 0.000000
0.156250 0.000000 0.000000
0.316406 0.000000 0.000000
0.500000 0.000000 0.000000
0.683594 0.000000 0.000000
0.843750 0.000000 0.000000
0.957031 0.000000 0.000000
1.000000 0.000000 0.000000
0.000000 0.042969 0.000000
0.042969 0.042969 0.000000
0.156250 0.042969 0.000000
0.316406 0.042969 0.000000
0.500000 0.042969 0.000000
0.683594 0.042969 0.000000
0.843750 0.042969 0.000000
0.957031 0.042969 0.000000
1.000000 0.042969 0.000000
0.000000 0.156250 0.000000
0.042969 0.156250 0.000000
0.156250 0.156250 0.000000
0.316406 0.156250 0.000000
0.500000 0.156250 0.000000
0.683594 0.156250 0.000000
0.843750 0.156250 0.000000
0.957031 0.156250 0.000000
1.000000 0.156250 0.000000
0.000000 0.316406 0.000000
0.042969 0.316406 0.000000
0.156250 0.316406 0.000000
0.316406 0.316406 0.000000
0.500000 0.316406 0.000000
0.683594 0.316406 0.000000
0.843750 0.316406 0.000000
0.957031 0.316406 0.000000
1.000000 0.316406 0.000000
0.000000 0.500000 0.000000
0.042969 0.500000 0.000000
0.156250 0.500000 0.000000
0.316406 0.500000 0.000000
0.500000 0.500000 0.000000
0.683594 0.500000 0.000000
0.843750 0.500000 0.000000
0.957031 0.500000 0.000000
1.000000 0.500000 0.000000
0.000000 0.683594 0.000000
0.042969 0.683594 0.000000
0.156250 0.683594 0.000000
0.316406 0.683594 0.000000
0.500000 0.683594 0.000000
0.683594 0.683594 0.000000
0.843750 0.683594 0.000000
0.957031 0.683594 0.000000
1.000000 0.683594 0.000000
0.000000 0.843750 0.000000
0.042969 0.843750 0.000000
0.156250 0.843750 0.000000
0.316406 0.843750 0.000000
0.500000 0.843750 0.000000
0.683594 0.843750 0.000000
0.843750 0.843750 0.000000
0.957031 0.843750 0.000000
1.000000 0.843750 0.000000
0.000000 0.957031 0.000000
0.042969 0.957031 0.000000
0.156250 0.957031 0.000000
0.316406 0.957031 0.000000
0.500000 0.957031 0.000000
0.683594 0.957031 0.000000
0.843750 0.957031 0.000000
0.957031 0.957031 0.000000
1.000000 0.957031 0.000000
0.000000 1.000000 0.000000
0.042969 1.000000 0.000000
0.156250 1.000000 0.000000
0.316406 1.000000 0.000000
0.500000 1.000000 0.000000
0.683594 1.000000 0.000000
0.843750 1.000000 0.000000
0.957031 1.000000 0.000000
1.000000 1.000000 0.000000
0.000000 0.000000 0.042969
0.042969 0.000000 0.042969
0.156250 0.000000 0.042969
0.316406 0.000000 0.042969
0.500000 0.000000 0.042969
0.683594 0.000000 0.042969
0.843750 0.000000 0.042969
0.957031 0.000000 0.042969
1.000000 0.000000 0.042969
0.000000 0.042969 0.042969
0.042969 0.042969 0.042969
0.156250 0.029375 0.029375
0.316406 0.010156 0.010156
0.500000 0.000000 0.000000
0.683594 0.000000 0.000000
0.843750 0.000000 0.000000
0.957031 0.000000 0.000000
1.000000 0.000000 0.000000
0.000000 0.156250 0.042969
0.029375 0.156250 0.029375
0.156250 0.156250 0.029375
0.316406 0.137031 0.010156
0.500000 0.123932 0.000000
0.683594 0.120879 0.000000
0.843750 0.119360 0.000000
0.957031 0.118606 0.000000
1.000000 0.118367 0.000000
0.000000 0.316406 0.042969
0.010156 0.316406 0.010156
0.137031 0.316406 0.010156
0.316406 0.316406 0.010156
0.500000 0.299145 0.000000
0.683594 0.291778 0.000000
0.843750 0.288110 0.000000
0.957031 0.286291 0.000000
1.000000 0.285714 0.000000
0.000000 0.500000 0.042969
0.000000 0.500000 0.000000
0.123932 0.500000 0.000000
0.299145 0.500000 0.000000
0.500000 0.500000 0.000000
0.683594 0.487686 0.000000
0.843750 0.481555 0.000000
0.957031 0.478516 0.000000
1.000000 0.477551 0.000000
0.000000 0.683594 0.042969
0.000000 0.683594 0.000000
0.120879 0.683594 0.000000
0.291778 0.683594 0.000000
0.487686 0.683594 0.000000
0.683594 0.683594 0.000000
0.843750 0.675000 0.000000
0.957031 0.670740 0.000000
1.000000 0.669388 0.000000
0.000000 0.843750 0.042969
0.000000 0.843750 0.000000
0.119360 0.843750 0.000000
0.288110 0.843750 0.000000
0.481555 0.843750 0.000000
0.675000 0.843750 0.000000
0.843750 0.843750 0.000000
0.957031 0.838425 0.000000
1.000000 0.836735 0.000000
0.000000 0.957031 0.042969
0.000000 0.957031 0.000000
0.118606 0.957031 0.000000
0.286291 0.957031 0.000000
0.478516 0.957031 0.000000
0.670740 0.957031 0.000000
0.838425 0.957031 0.000000
0.957031 0.957031 0.000000
1.000000 0.955102 0.000000
0.000000 1.000000 0.042969
0.000000 1.000000 0.000000
0.118367 1.000000 0.000000
0.285714 1.000000 0.000000
0.477551 1.000000 0.000000
0.669388 1.000000 0.000000
0.836735 1.000000 0.000000
0.955102 1.000000 0.000000
1.000000 1.000000 0.000000
0.000000 0.000000 0.156250
0.042969 0.000000 0.156250
0.156250 0.000000 0.156250
0.316406 0.000000 0.156250
0.500000 0.000000 0.156250
0.683594 0.000000 0.156250
0.843750 0.000000 0.156250
0.957031 0.000000 0.156250
1.000000 0.000000 0.156250
0.000000 0.042969 0.156250
0.029375 0.029375 0.156250
0.156250 0.029375 0.156250
0.316406 0.010156 0.137031
0.500000 0.000000 0.123932
0.683594 0.000000 0.120879
0.843750 0.000000 0.119360
0.957031 0.000000 0.118606
1.000000 0.000000 0.118367
0.000000 0.156250 0.156250
0.029375 0.156250 0.156250
0.156250 0.156250 0.156250
0.316406 0.137031 0.137031
0.500000 0.115000 0.115000
0.683594 0.092969 0.092969
0.843750 0.073750 0.073750
0.957031 0.060156 0.060156
1.000000 0.055000 0.055000
0.000000 0.316406 0.156250
0.010156 0.316406 0.137031
0.137031 0.316406 0.137031
0.316406 0.316406 0.137031
0.500000 0.294375 0.115000
0.683594 0.272344 0.092969
0.843750 0.253125 0.073750
0.957031 0.239531 0.060156
1.000000 0.234375 0.055000
0.000000 0.500000 0.156250
0.000000 0.500000 0.123932
0.115000 0.500000 0.115000
0.294375 0.500000 0.115000
0.500000 0.500000 0.115000
0.683594 0.477969 0.092969
0.843750 0.458750 0.073750
0.957031 0.445156 0.060156
1.000000 0.440000 0.055000
0.000000 0.683594 0.156250
0.000000 0.683594 0.120879
0.092969 0.683594 0.092969
0.272344 0.683594 0.092969
0.477969 0.683594 0.092969
0.683594 0.683594 0.092969
0.843750 0.664375 0.073750
0.957031 0.650781 0.060156
1.000000 0.645625 0.055000
0.000000 0.843750 0.156250
0.000000 0.843750 0.119360
0.073750 0.843750 0.073750
0.253125 0.843750 0.073750
0.458750 0.843750 0.073750
0.664375 0.843750 0.073750
0.843750 0.843750 0.073750
0.957031 0.830156 0.060156
1.000000 0.825000 0.055000
0.000000 0.957031 0.156250
0.000000 0.957031 0.118606
0.060156 0.957031 0.060156
0.239531 0.957031 0.060156
0.445156 0.957031 0.060156
0.650781 0.957031 0.060156
0.830156 0.957031 0.060156
0.957031 0.957031 0.060156
1.000000 0.951875 0.055000
0.000000 1.000000 0.156250
0.000000 1.000000 0.118367
0.055000 1.000000 0.055000
0.234375 1.000000 0.055000
0.440000 1.000000 0.055000
0.645625 1.000000 0.055000
0.825000 1.000000 0.055000
0.951875 1.000000 0.055000
1.000000 1.000000 0.055000
0.000000 0.000000 0.316406
0.042969 0.000000 0.316406
0.156250 0.000000 0.316406
0.316406 0.000000 0.316406
0.500000 0.000000 0.316406
0.683594 0.000000 0.316406
0.843750 0.000000 0.316406
0.957031 0.000000 0.316406
1.000000 0.000000 0.316406
0.000000 0.042969 0.316406
0.010156 0.010156 0.316406
0.137031 0.010156 0.316406
0.316406 0.010156 0.316406
0.500000 0.000000 0.299145
0.683594 0.000000 0.291778
0.843750 0.000000 0.288110
0.957031 0.000000 0.286291
1.000000 0.000000 0.285714
0.000000 0.156250 0.316406
0.010156 0.137031 0.316406
0.137031 0.137031 0.316406
0.316406 0.137031 0.316406
0.500000 0.115000 0.294375
0.683594 0.092969 0.272344
0.843750 0.073750 0.253125
0.957031 0.060156 0.239531
1.000000 0.055000 0.234375
0.000000 0.316406 0.316406
0.010156 0.316406 0.316406
0.137031 0.316406 0.316406
0.316406 0.316406 0.316406
0.500000 0.294375 0.294375
0.683594 0.272344 0.272344
0.843750 0.253125 0.253125
0.957031 0.239531 0.239531
1.000000 0.234375 0.234375
0.000000 0.500000 0.316406
0.000000 0.500000 0.299145
0.115000 0.500000 0.294375
0.294375 0.500000 0.294375
0.500000 0.500000 0.294375
0.683594 0.477969 0.272344
0.843750 0.458750 0.253125
0.957031 0.445156 0.239531
1.000000 0.440000 0.234375
0.000000 0.683594 0.316406
0.000000 0.683594 0.291778
0.092969 0.683594 0.272344
0.272344 0.683594 0.272344
0.477969 0.683594 0.272344
0.683594 0.683594 0.272344
0.843750 0.664375 0.253125
0.957031 0.650781 0.239531
1.000000 0.645625 0.234375
0.000000 0.843750 0.316406
0.000000 0.843750 0.288110
0.073750 0.843750 0.253125
0.253125 0.843750 0.253125
0.458750 0.843750 0.253125
0.664375 0.843750 0.253125
0.843750 0.843750 0.253125
0.957031 0.830156 0.239531
1.000000 0.825000 0.234375
0.000000 0.957031 0.316406
0.000000 0.957031 0.286291
0.060156 0.957031 0.239531
0.239531 0.957031 0.239531
0.445156 0.957031 0.239531
0.650781 0.957031 0.239531
0.830156 0.957031 0.239531
0.957031 0.957031 0.239531
1.000000 0.951875 0.234375
0.000000 1.000000 0.316406
0.000000 1.000000 0.285714
0.055000 1.000000 0.234375
0.234375 1.000000 0.234375
0.440000 1.000000 0.234375
0.645625 1.000000 0.234375
0.825000 1.000000 0.234375
0.951875 1.000000 0.234375
1.000000 1.000000 0.234375
0.000000 0.000000 0.500000
0.042969 0.000000 0.500000
0.156250 0.000000 0.500000
0.316406 0.000000 0.500000
0.500000 0.000000 0.500000
0.683594 0.000000 0.500000
0.843750 0.000000 0.500000
0.957031 0.000000 0.500000
1.000000 0.000000 0.500000
0.000000 0.042969 0.500000
0.000000 0.000000 0.500000
0.123932 0.000000 0.500000
0.299145 0.000000 0.500000
0.500000 0.000000 0.500000
0.683594 0.000000 0.487686
0.843750 0.000000 0.481555
0.957031 0.000000 0.478516
1.000000 0.000000 0.477551
0.000000 0.156250 0.500000
0.000000 0.123932 0.500000
0.115000 0.115000 0.500000
0.294375 0.115000 0.500000
0.500000 0.115000 0.500000
0.683594 0.092969 0.477969
0.843750 0.073750 0.458750
0.957031 0.060156 0.445156
1.000000 0.055000 0.440000
0.000000 0.316406 0.500000
0.000000 0.299145 0.500000
0.115000 0.294375 0.500000
0.294375 0.294375 0.500000
0.500000 0.294375 0.500000
0.683594 0.272344 0.477969
0.843750 0.253125 0.458750
0.957031 0.239531 0.445156
1.000000 0.234375 0.440000
0.000000 0.500000 0.500000
0.000000 0.500000 0.500000
0.115000 0.500000 0.500000
0.294375 0.500000 0.500000
0.500000 0.500000 0.500000
0.683594 0.477969 0.477969
0.843750 0.458750 0.458750
0.957031 0.445156 0.445156
1.000000 0.440000 0.440000
0.000000 0.683594 0.500000
0.000000 0.683594 0.487686
0.092969 0.683594 0.477969
0.272344 0.683594 0.477969
0.477969 0.683594 0.477969
0.683594 0.683594 0.477969
0.843750 0.664375 0.458750
0.957031 0.650781 0.445156
1.000000 0.645625 0.440000
0.000000 0.843750 0.500000
0.000000 0.843750 0.481555
0.073750 0.843750 0.458750
0.253125 0.843750 0.458750
0.458750 0.843750 0.458750
0.664375 0.843750 0.458750
0.843750 0.843750 0.458750
0.957031 0.830156 0.445156
1.000000 0.825000 0.440000
0.000000 0.957031 0.500000
0.000000 0.957031 0.478516
0.060156 0.957031 0.445156
0.239531 0.957031 0.445156
0.445156 0.957031 0.445156
0.650781 0.957031 0.445156
0.830156 0.957031 0.445156
0.957031 0.957031 0.445156
1.000000 0.951875 0.440000
0.000000 1.000000 0.500000
0.000000 1.000000 0.477551
0.055000 1.000000 0.440000
0.234375 1.000000 0.440000
0.440000 1.000000 0.440000
0.645625 1.000000 0.440000
0.825000 1.000000 0.440000
0.951875 1.000000 0.440000
1.000000 1.000000 0.440000
0.000000 0.000000 0.683594
0.042969 0.000000 0.683594
0.156250 0.000000 0.683594
0.316406 0.000000 0.683594
0.500000 0.000000 0.683594
0.683594 0.000000 0.683594
0.843750 0.000000 0.683594
0.957031 0.000000 0.683594
1.000000 0.000000 0.683594
0.000000 0.042969 0.683594
0.000000 0.000000 0.683594
0.120879 0.000000 0.683594
0.291778 0.000000 0.683594
0.487686 0.000000 0.683594
0.683594 0.000000 0.683594
0.843750 0.000000 0.675000
0.957031 0.000000 0.670740
1.000000 0.000000 0.669388
0.000000 0.156250 0.683594
0.000000 0.120879 0.683594
0.092969 0.092969 0.683594
0.272344 0.092969 0.683594
0.477969 0.092969 0.683594
0.683594 0.092969 0.683594
0.843750 0.073750 0.664375
0.957031 0.060156 0.650781
1.000000 0.055000 0.645625
0.000000 0.316406 0.683594
0.000000 0.291778 0.683594
0.092969 0.272344 0.683594
0.272344 0.272344 0.683594
0.477969 0.272344 0.683594
0.683594 0.272344 0.683594
0.843750 0.253125 0.664375
0.957031 0.239531 0.650781
1.000000 0.234375 0.645625
0.000000 0.500000 0.683594
0.000000 0.487686 0.683594
0.092969 0.477969 0.683594
0.272344 0.477969 0.683594
0.477969 0.477969 0.683594
0.683594 0.477969 0.683594
0.843750 0.458750 0.664375
0.957031 0.445156 0.650781
1.000000 0.440000 0.645625
0.000000 0.683594 0.683594
0.000000 0.683594 0.683594
0.092969 0.683594 0.683594
0.272344 0.683594 0.683594
0.477969 0.683594 0.683594
0.683594 0.683594 0.683594
0.843750 0.664375 0.664375
0.957031 0.650781 0.650781
1.000000 0.645625 0.645625
0.000000 0.843750 0.683594
0.000000 0.843750 0.675000
0.073750 0.843750 0.664375
0.253125 0.843750 0.664375
0.458750 0.843750 0.664375
0.664375 0.843750 0.664375
0.843750 0.843750 0.664375
0.957031 0.830156 0.650781
1.000000 0.825000 0.645625
0.000000 0.957031 0.683594
0.000000 0.957031 0.670740
0.060156 0.957031 0.650781
0.239531 0.957031 0.650781
0.445156 0.957031 0.650781
0.650781 0.957031 0.650781
0.830156 0.957031 0.650781
0.957031 0.957031 0.650781
1.000000 0.951875 0.645625
0.000000 1.000000 0.683594
0.000000 1.000000 0.669388
0.055000 1.000000 0.645625
0.234375 1.000000 0.645625
0.440000 1.000000 0.645625
0.645625 1.000000 0.645625
0.825000 1.000000 0.645625
0.951875 1.000000 0.645625
1.000000 1.000000 0.645625
0.000000 0.000000 0.843750
0.042969 0.000000 0.843750
0.156250 0.000000 0.843750
0.316406 0.000000 0.843750
0.500000 0.000000 0.843750
0.683594 0.000000 0.843750
0.843750 0.000000 0.843750
0.957031 0.000000 0.843750
1.000000 0.000000 0.843750
0.000000 0.042969 0.843750
0.000000 0.000000 0.843750
0.119360 0.000000 0.843750
0.288110 0.000000 0.843750
0.481555 0.000000 0.843750
0.675000 0.000000 0.843750
0.843750 0.000000 0.843750
0.957031 0.000000 0.838425
1.000000 0.000000 0.836735
0.000000 0.156250 0.843750
0.000000 0.119360 0.843750
0.073750 0.073750 0.843750
0.253125 0.073750 0.843750
0.458750 0.073750 0.843750
0.664375 0.073750 0.843750
0.843750 0.073750 0.843750
0.957031 0.060156 0.830156
1.000000 0.055000 0.825000
0.000000 0.316406 0.843750
0.000000 0.288110 0.843750
0.073750 0.253125 0.843750
0.253125 0.253125 0.843750
0.458750 0.253125 0.843750
0.664375 0.253125 0.843750
0.843750 0.253125 0.843750
0.957031 0.239531 0.830156
1.000000 0.234375 0.825000
0.000000 0.500000 0.843750
0.000000 0.481555 0.843750
0.073750 0.458750 0.843750
0.253125 0.458750 0.843750
0.458750 0.458750 0.843750
0.664375 0.458750 0.843750
0.843750 0.458750 0.843750
0.957031 0.445156 0.830156
1.000000 0.440000 0.825000
0.000000 0.683594 0.843750
0.000000 0.675000 0.843750
0.073750 0.664375 0.843750
0.253125 0.664375 0.843750
0.458750 0.664375 0.843750
0.664375 0.664375 0.843750
0.843750 0.664375 0.843750
0.957031 0.650781 0.830156
1.000000 0.645625 0.825000
0.000000 0.843750 0.843750
0.000000 0.843750 0.843750
0.073750 0.843750 0.843750
0.253125 0.843750 0.843750
0.458750 0.843750 0.843750
0.664375 0.843750 0.843750
0.843750 0.843750 0.843750
0.957031 0.830156 0.830156
1.000000 0.825000 0.825000
0.000000 0.957031 0.843750
0.000000 0.957031 0.838425
0.060156 0.957031 0.830156
0.239531 0.957031 0.830156
0.445156 0.957031 0.830156
0.650781 0.957031 0.830156
0.830156 0.957031 0.830156
0.957031 0.957031 0.830156
1.000000 0.951875 0.825000
0.000000 1.000000 0.843750
0.000000 1.000000 0.836735
0.055000 1.000000 0.825000
0.234375 1.000000 0.825000
0.440000 1.000000 0.825000
0.645625 1.000000 0.825000
0.825000 1.000000 0.825000
0.951875 1.000000 0.825000
1.000000 1.000000 0.825000
0.000000 0.000000 0.957031
0.042969 0.000000 0.957031
0.156250 0.000000 0.957031
0.316406 0.000000 0.957031
0.500000 0.000000 0.957031
0.683594 0.000000 0.957031
0.843750 0.000000 0.957031
0.957031 0.000000 0.957031
1.000000 0.000000 0.957031
0.000000 0.042969 0.957031
0.000000 0.000000 0.957031
0.118606 0.000000 0.957031
0.286291 0.000000 0.957031
0.478516 0.000000 0.957031
0.670740 0.000000 0.957031
0.838425 0.000000 0.957031
0.957031 0.000000 0.957031
1.000000 0.000000 0.955102
0.000000 0.156250 0.957031
0.000000 0.118606 0.957031
0.060156 0.060156 0.957031
0.239531 0.060156 0.957031
0.445156 0.060156 0.957031
0.650781 0.060156 0.957031
0.830156 0.060156 0.957031
0.957031 0.060156 0.957031
1.000000 0.055000 0.951875
0.000000 0.316406 0.957031
0.000000 0.286291 0.957031
0.060156 0.239531 0.957031
0.239531 0.239531 0.957031
0.445156 0.239531 0.957031
0.650781 0.239531 0.957031
0.830156 0.239531 0.957031
0.957031 0.239531 0.957031
1.000000 0.234375 0.951875
0.000000 0.500000 0.957031
0.000000 0.478516 0.957031
0.060156 0.445156 0.957031
0.239531 0.445156 0.957031
0.445156 0.445156 0.957031
0.650781 0.445156 0.957031
0.830156 0.445156 0.957031
0.957031 0.445156 0.957031
1.000000 0.440000 0.951875
0.000000 0.683594 0.957031
0.000000 0.670740 0.957031
0.060156 0.650781 0.957031
0.239531 0.650781 0.957031
0.445156 0.650781 0.957031
0.650781 0.650781 0.957031
0.830156 0.650781 0.957031
0.957031 0.650781 0.957031
1.000000 0.645625 0.951875
0.000000 0.843750 0.957031
0.000000 0.838425 0.957031
0.060156 0.830156 0.957031
0.239531 0.830156 0.957031
0.445156 0.830156 0.957031
0.650781 0.830156 0.957031
0.830156 0.830156 0.957031
0.957031 0.830156 0.957031
1.000000 0.825000 0.951875
0.000000 0.957031 0.957031
0.000000 0.957031 0.957031
0.060156 0.957031 0.957031
0.239531 0.957031 0.957031
0.445156 0.957031 0.957031
0.650781 0.957031 0.957031
0.830156 0.957031 0.957031
0.957031 0.957031 0.957031
1.000000 0.951875 0.951875
0.000000 1.000000 0.957031
0.000000 1.000000 0.955102
0.055000 1.000000 0.951875
0.234375 1.000000 0.951875
0.440000 1.000000 0.951875
0.645625 1.000000 0.951875
0.825000 1.000000 0.951875
0.951875 1.000000 0.951875
1.000000 1.000000 0.951875
0.000000 0.000000 1.000000
0.042969 0.000000 1.000000
0.156250 0.000000 1.000000
0.316406 0.000000 1.000000
0.500000 0.000000 1.000000
0.683594 0.000000 1.000000
0.843750 0.000000 1.000000
0.957031 0.000000 1.000000
1.000000 0.000000 1.000000
0.000000 0.042969 1.000000
0.000000 0.000000 1.000000
0.118367 0.000000 1.000000
0.285714 0.000000 1.000000
0.477551 0.000000 1.000000
0.669388 0.000000 1.000000
0.836735 0.000000 1.000000
0.955102 0.000000 1.000000
1.000000 0.000000 1.000000
0.000000 0.156250 1.000000
0.000000 0.118367 1.000000
0.055000 0.055000 1.000000
0.234375 0.055000 1.000000
0.440000 0.055000 1.000000
0.645625 0.055000 1.000000
0.825000 0.055000 1.000000
0.951875 0.055000 1.000000
1.000000 0.055000 1.000000
0.000000 0.316406 1.000000
0.000000 0.285714 1.000000
0.055000 0.234375 1.000000
0.234375 0.234375 1.000000
0.440000 0.234375 1.000000
0.645625 0.234375 1.000000
0.825000 0.234375 1.000000
0.951875 0.234375 1.000000
1.000000 0.234375 1.000000
0.000000 0.500000 1.000000
0.000000 0.477551 1.000000
0.055000 0.440000 1.000000
0.234375 0.440000 1.000000
0.440000 0.440000 1.000000
0.645625 0.440000 1.000000
0.825000 0.440000 1.000000
0.951875 0.440000 1.000000
1.000000 0.440000 1.000000
0.000000 0.683594 1.000000
0.000000 0.669388 1.000000
0.055000 0.645625 1.000000
0.234375 0.645625 1.000000
0.440000 0.645625 1.000000
0.645625 0.645625 1.000000
0.825000 0.645625 1.000000
0.951875 0.645625 1.000000
1.000000 0.645625 1.000000
0.000000 0.843750 1.000000
0.000000 0.836735 1.000000
0.055000 0.825000 1.000000
0.234375 0.825000 1.000000
0.440000 0.825000 1.000000
0.645625 0.825000 1.000000
0.825000 0.825000 1.000000
0.951875 0.825000 1.000000
1.000000 0.825000 1.000000
0.000000 0.957031 1.000000
0.000000 0.955102 1.000000
0.055000 0.951875 1.000000
0.234375 0.951875 1.000000
0.440000 0.951875 1.000000
0.645625 0.951875 1.000000
0.825000 0.951875 1.000000
0.951875 0.951875 1.000000
1.000000 0.951875 1.000000
0.000000 1.000000 1.000000
0.000000 1.000000 1.000000
0.055000 1.000000 1.000000
0.234375 1.000000 1.000000
0.440000 1.000000 1.000000
0.645625 1.000000 1.000000
0.825000 1.000000 1.000000
0.951875 1.000000 1.000000
1.000000 1.000000 1.000000
