app/src/main/assets/luts/clarity.cube
TITLE "Clarity"
LUT_3D_SIZE 33
DOMAIN_MIN 0.0 0.0 0.0
DOMAIN_MAX 1.0 1.0 1.0
0.000000 0.000000 0.000000
0.002869 0.000000 0.000000
0.011230 0.000000 0.000000
0.024719 0.000000 0.000000
0.042969 0.000000 0.000000
0.065613 0.000000 0.000000
0.092285 0.000000 0.000000
0.122620 0.000000 0.000000
0.156250 0.000000 0.000000
0.192810 0.000000 0.000000
0.231934 0.000000 0.000000
0.273254 0.000000 0.000000
0.316406 0.000000 0.000000
0.361023 0.000000 0.000000
0.406738 0.000000 0.000000
0.453186 0.000000 0.000000
0.500000 0.000000 0.000000
0.546814 0.000000 0.000000
0.593262 0.000000 0.000000
0.638977 0.000000 0.000000
0.683594 0.000000 0.000000
0.726746 0.000000 0.000000
0.768066 0.000000 0.000000
0.807190 0.000000 0.000000
0.843750 0.000000 0.000000
0.877380 0.000000 0.000000
0.907715 0.000000 0.000000
0.934387 0.000000 0.000000
0.957031 0.000000 0.000000
0.975281 0.000000 0.000000
0.988770 0.000000 0.000000
0.997131 0.000000 0.000000
1.000000 0.000000 0.000000
0.000000 0.002869 0.000000
0.002869 0.002869 0.000000
0.011230 0.002869 0.000000
0.024719 0.002869 0.000000
0.042969 0.002869 0.000000
0.065613 0.002869 0.000000
0.092285 0.002869 0.000000
0.122620 0.002869 0.000000
0.156250 0.002869 0.000000
0.192810 0.002869 0.000000
0.231934 0.002869 0.000000
0.273254 0.002869 0.000000
0.316406 0.002869 0.000000
0.361023 0.002869 0.000000
0.406738 0.002869 0.000000
0.453186 0.002869 0.000000
0.500000 0.002869 0.000000
0.546814 0.002869 0.000000
0.593262 0.002869 0.000000
0.638977 0.002869 0.000000
0.683594 0.002869 0.000000
0.726746 0.002869 0.000000
0.768066 0.002869 0.000000
0.807190 0.002869 0.000000
0.843750 0.002869 0.000000
0.877380 0.002869 0.000000
0.907715 0.002869 0.000000
0.934387 0.002869 0.000000
0.957031 0.002869 0.000000
0.975281 0.002869 0.000000
0.988770 0.002869 0.000000
0.997131 0.002869 0.000000
1.000000 0.002869 0.000000
0.000000 0.011230 0.000000
0.002869 0.011230 0.000000
0.011230 0.011230 0.000000
0.024719 0.011230 0.000000
0.042969 0.011230 0.000000
0.065613 0.011230 0.000000
0.092285 0.011230 0.000000
0.122620 0.011230 0.000000
0.156250 0.011230 0.000000
0.192810 0.011230 0.000000
0.231934 0.011230 0.000000
0.273254 0.011230 0.000000
0.316406 0.011230 0.000000
0.361023 0.011230 0.000000
0.406738 0.011230 0.000000
0.453186 0.011230 0.000000
0.500000 0.011230 0.000000
0.546814 0.011230 0.000000
0.593262 0.011230 0.000000
0.638977 0.011230 0.000000
0.683594 0.011230 0.000000
0.726746 0.011230 0.000000
0.768066 0.011230 0.000000
0.807190 0.011230 0.000000
0.843750 0.011230 0.000000
0.877380 0.011230 0.000000
0.907715 0.011230 0.000000
0.934387 0.011230 0.000000
0.957031 0.011230 0.000000
0.975281 0.011230 0.000000
0.988770 0.011230 0.000000
0.997131 0.011230 0.000000
1.000000 0.011230 0.000000
0.000000 0.024719 0.000000
0.002869 0.024719 0.000000
0.011230 0.024719 0.000000
0.024719 0.024719 0.000000
0.042969 0.024719 0.000000
0.065613 0.024719 0.000000
0.092285 0.024719 0.000000
0.122620 0.024719 0.000000
0.156250 0.024719 0.000000
0.192810 0.024719 0.000000
0.231934 0.024719 0.000000
0.273254 0.024719 0.000000
0.316406 0.024719 0.000000
0.361023 0.024719 0.000000
0.406738 0.024719 0.000000
0.453186 0.024719 0.000000
0.500000 0.024719 0.000000
0.546814 0.024719 0.000000
0.593262 0.024719 0.000000
0.638977 0.024719 0.000000
0.683594 0.024719 0.000000
0.726746 0.024719 0.000000
0.768066 0.024719 0.000000
0.807190 0.024719 0.000000
0.843750 0.024719 0.000000
0.877380 0.024719 0.000000
0.907715 0.024719 0.000000
0.934387 0.024719 0.000000
0.957031 0.024719 0.000000
0.975281 0.024719 0.000000
0.988770 0.024719 0.000000
0.997131 0.024719 0.000000
1.000000 0.024719 0.000000
0.000000 0.042969 0.000000
0.002869 0.042969 0.000000
0.011230 0.042969 0.000000
0.024719 0.042969 0.000000
0.042969 0.042969 0.000000
0.065613 0.042969 0.000000
0.092285 0.042969 0.000000
0.122620 0.042969 0.000000
0.156250 0.042969 0.000000
0.192810 0.042969 0.000000
0.231934 0.042969 0.000000
0.273254 0.042969 0.000000
0.316406 0.042969 0.000000
0.361023 0.042969 0.000000
0.406738 0.042969 0.000000
0.453186 0.042969 0.000000
0.500000 0.042969 0.000000
0.546814 0.042969 0.000000
0.593262 0.042969 0.000000
0.638977 0.042969 0.000000
0.683594 0.042969 0.000000
0.726746 0.042969 0.000000
0.768066 0.042969 0.000000
0.807190 0.042969 0.000000
0.843750 0.042969 0.000000
0.877380 0.042969 0.000000
0.907715 0.042969 0.000000
0.934387 0.042969 0.000000
0.957031 0.042969 0.000000
0.975281 0.042969 0.000000
0.988770 0.042969 0.000000
0.997131 0.042969 0.000000
1.000000 0.042969 0.000000
0.000000 0.065613 0.000000
0.002869 0.065613 0.000000
0.011230 0.065613 0.000000
0.024719 0.065613 0.000000
0.042969 0.065613 0.000000
0.065613 0.065613 0.000000
0.092285 0.065613 0.000000
0.122620 0.065613 0.000000
0.156250 0.065613 0.000000
0.192810 0.065613 0.000000
0.231934 0.065613 0.000000
0.273254 0.065613 0.000000
0.316406 0.065613 0.000000
0.361023 0.065613 0.000000
0.406738 0.065613 0.000000
0.453186 0.065613 0.000000
0.500000 0.065613 0.000000
0.546814 0.065613 0.000000
0.593262 0.065613 0.000000
0.638977 0.065613 0.000000
0.683594 0.065613 0.000000
0.726746 0.065613 0.000000
0.768066 0.065613 0.000000
0.807190 0.065613 0.000000
0.843750 0.065613 0.000000
0.877380 0.065613 0.000000
0.907715 0.065613 0.000000
0.934387 0.065613 0.000000
0.957031 0.065613 0.000000
0.975281 0.065613 0.000000
0.988770 0.065613 0.000000
0.997131 0.065613 0.000000
1.000000 0.065613 0.000000
0.000000 0.092285 0.000000
0.002869 0.092285 0.000000
0.011230 0.092285 0.000000
0.024719 0.092285 0.000000
0.042969 0.092285 0.000000
0.065613 0.092285 0.000000
0.092285 0.092285 0.000000
0.122620 0.092285 0.000000
0.156250 0.092285 0.000000
0.192810 0.092285 0.000000
0.231934 0.092285 0.000000
0.273254 0.092285 0.000000
0.316406 0.092285 0.000000
0.361023 0.092285 0.000000
0.406738 0.092285 0.000000
0.453186 0.092285 0.000000
0.500000 0.092285 0.000000
0.546814 0.092285 0.000000
0.593262 0.092285 0.000000
0.638977 0.092285 0.000000
0.683594 0.092285 0.000000
0.726746 0.092285 0.000000
0.768066 0.092285 0.000000
0.807190 0.092285 0.000000
0.843750 0.092285 0.000000
0.877380 0.092285 0.000000
0.907715 0.092285 0.000000
0.934387 0.092285 0.000000
0.957031 0.092285 0.000000
0.975281 0.092285 0.000000
0.988770 0.092285 0.000000
0.997131 0.092285 0.000000
1.000000 0.092285 0.000000
0.000000 0.122620 0.000000
0.002869 0.122620 0.000000
0.011230 0.122620 0.000000
0.024719 0.122620 0.000000
0.042969 0.122620 0.000000
0.065613 0.122620 0.000000
0.092285 0.122620 0.000000
0.122620 0.122620 0.000000
0.156250 0.122620 0.000000
0.192810 0.122620 0.000000
0.231934 0.122620 0.000000
0.273254 0.122620 0.000000
0.316406 0.122620 0.000000
0.361023 0.122620 0.000000
0.406738 0.122620 0.000000
0.453186 0.122620 0.000000
0.500000 0.122620 0.000000
0.546814 0.122620 0.000000
0.593262 0.122620 0.000000
0.638977 0.122620 0.000000
0.683594 0.122620 0.000000
0.726746 0.122620 0.000000
0.768066 0.122620 0.000000
0.807190 0.122620 0.000000
0.843750 0.122620 0.000000
0.877380 0.122620 0.000000
0.907715 0.122620 0.000000
0.934387 0.122620 0.000000
0.957031 0.122620 0.000000
0.975281 0.122620 0.000000
0.988770 0.122620 0.000000
0.997131 0.122620 0.000000
1.000000 0.122620 0.000000
0.000000 0.156250 0.000000
0.002869 0.156250 0.000000
0.011230 0.156250 0.000000
0.024719 0.156250 0.000000
0.042969 0.156250 0.000000
0.065613 0.156250 0.000000
0.092285 0.156250 0.000000
0.122620 0.156250 0.000000
0.156250 0.156250 0.000000
0.192810 0.156250 0.000000
0.231934 0.156250 0.000000
0.273254 0.156250 0.000000
0.316406 0.156250 0.000000
0.361023 0.156250 0.000000
0.406738 0.156250 0.000000
0.453186 0.156250 0.000000
0.500000 0.156250 0.000000
0.546814 0.156250 0.000000
0.593262 0.156250 0.000000
0.638977 0.156250 0.000000
0.683594 0.156250 0.000000
0.726746 0.156250 0.000000
0.768066 0.156250 0.000000
0.807190 0.156250 0.000000
0.843750 0.156250 0.000000
0.877380 0.156250 0.000000
0.907715 0.156250 0.000000
0.934387 0.156250 0.000000
0.957031 0.156250 0.000000
0.975281 0.156250 0.000000
0.988770 0.156250 0.000000
0.997131 0.156250 0.000000
1.000000 0.156250 0.000000
0.000000 0.192810 0.000000
0.002869 0.192810 0.000000
0.011230 0.192810 0.000000
0.024719 0.192810 0.000000
0.042969 0.192810 0.000000
0.065613 0.192810 0.000000
0.092285 0.192810 0.000000
0.122620 0.192810 0.000000
0.156250 0.192810 0.000000
0.192810 0.192810 0.000000
0.231934 0.192810 0.000000
0.273254 0.192810 0.000000
0.316406 0.192810 0.000000
0.361023 0.192810 0.000000
0.406738 0.192810 0.000000
0.453186 0.192810 0.000000
0.500000 0.192810 0.000000
0.546814 0.192810 0.000000
0.593262 0.192810 0.000000
0.638977 0.192810 0.000000
0.683594 0.192810 0.000000
0.726746 0.192810 0.000000
0.768066 0.192810 0.000000
0.807190 0.192810 0.000000
0.843750 0.192810 0.000000
0.877380 0.192810 0.000000
0.907715 0.192810 0.000000
0.934387 0.192810 0.000000
0.957031 0.192810 0.000000
0.975281 0.192810 0.000000
0.988770 0.192810 0.000000
0.997131 0.192810 0.000000
1.000000 0.192810 0.000000
0.000000 0.231934 0.000000
0.002869 0.231934 0.000000
0.011230 0.231934 0.000000
0.024719 0.231934 0.000000
0.042969 0.231934 0.000000
0.065613 0.231934 0.000000
0.092285 0.231934 0.000000
0.122620 0.231934 0.000000
0.156250 0.231934 0.000000
0.192810 0.231934 0.000000
0.231934 0.231934 0.000000
0.273254 0.231934 0.000000
0.316406 0.231934 0.000000
0.361023 0.231934 0.000000
0.406738 0.231934 0.000000
0.453186 0.231934 0.000000
0.500000 0.231934 0.000000
0.546814 0.231934 0.000000
0.593262 0.231934 0.000000
0.638977 0.231934 0.000000
0.683594 0.231934 0.000000
0.726746 0.231934 0.000000
0.768066 0.231934 0.000000
0.807190 0.231934 0.000000
0.843750 0.231934 0.000000
0.877380 0.231934 0.000000
0.907715 0.231934 0.000000
0.934387 0.231934 0.000000
0.957031 0.231934 0.000000
0.975281 0.231934 0.000000
0.988770 0.231934 0.000000
0.997131 0.231934 0.000000
1.000000 0.231934 0.000000
0.000000 0.273254 0.000000
0.002869 0.273254 0.000000
0.011230 0.273254 0.000000
0.024719 0.273254 0.000000
0.042969 0.273254 0.000000
0.065613 0.273254 0.000000
0.092285 0.273254 0.000000
0.122620 0.273254 0.000000
0.156250 0.273254 0.000000
0.192810 0.273254 0.000000
0.231934 0.273254 0.000000
0.273254 0.273254 0.000000
0.316406 0.273254 0.000000
0.361023 0.273254 0.000000
0.406738 0.273254 0.000000
0.453186 0.273254 0.000000
0.500000 0.273254 0.000000
0.546814 0.273254 0.000000
0.593262 0.273254 0.000000
0.638977 0.273254 0.000000
0.683594 0.273254 0.000000
0.726746 0.273254 0.000000
0.768066 0.273254 0.000000
0.807190 0.273254 0.000000
0.843750 0.273254 0.000000
0.877380 0.273254 0.000000
0.907715 0.273254 0.000000
0.934387 0.273254 0.000000
0.957031 0.273254 0.000000
0.975281 0.273254 0.000000
0.988770 0.273254 0.000000
0.997131 0.273254 0.000000
1.000000 0.273254 0.000000
0.000000 0.316406 0.000000
0.002869 0.316406 0.000000
0.011230 0.316406 0.000000
0.024719 0.316406 0.000000
0.042969 0.316406 0.000000
0.065613 0.316406 0.000000
0.092285 0.316406 0.000000
0.122620 0.316406 0.000000
0.156250 0.316406 0.000000
0.192810 0.316406 0.000000
0.231934 0.316406 0.000000
0.273254 0.316406 0.000000
0.316406 0.316406 0.000000
0.361023 0.316406 0.000000
0.406738 0.316406 0.000000
0.453186 0.316406 0.000000
0.500000 0.316406 0.000000
0.546814 0.316406 0.000000
0.593262 0.316406 0.000000
0.638977 0.316406 0.000000
0.683594 0.316406 0.000000
0.726746 0.316406 0.000000
0.768066 0.316406 0.000000
0.807190 0.316406 0.000000
0.843750 0.316406 0.000000
0.877380 0.316406 0.000000
0.907715 0.316406 0.000000
0.934387 0.316406 0.000000
0.957031 0.316406 0.000000
0.975281 0.316406 0.000000
0.988770 0.316406 0.000000
0.997131 0.316406 0.000000
1.000000 0.316406 0.000000
0.000000 0.361023 0.000000
0.002869 0.361023 0.000000
0.011230 0.361023 0.000000
0.024719 0.361023 0.000000
0.042969 0.361023 0.000000
0.065613 0.361023 0.000000
0.092285 0.361023 0.000000
0.122620 0.361023 0.000000
0.156250 0.361023 0.000000
0.192810 0.361023 0.000000
0.231934 0.361023 0.000000
0.273254 0.361023 0.000000
0.316406 0.361023 0.000000
0.361023 0.361023 0.000000
0.406738 0.361023 0.000000
0.453186 0.361023 0.000000
0.500000 0.361023 0.000000
0.546814 0.361023 0.000000
0.593262 0.361023 0.000000
0.638977 0.361023 0.000000
0.683594 0.361023 0.000000
0.726746 0.361023 0.000000
0.768066 0.361023 0.000000
0.807190 0.361023 0.000000
0.843750 0.361023 0.000000
0.877380 0.361023 0.000000
0.907715 0.361023 0.000000
0.934387 0.361023 0.000000
0.957031 0.361023 0.000000
0.975281 0.361023 0.000000
0.988770 0.361023 0.000000
0.997131 0.361023 0.000000
1.000000 0.361023 0.000000
0.000000 0.406738 0.000000
0.002869 0.406738 0.000000
0.011230 0.406738 0.000000
0.024719 0.406738 0.000000
0.042969 0.406738 0.000000
0.065613 0.406738 0.000000
0.092285 0.406738 0.000000
0.122620 0.406738 0.000000
0.156250 0.406738 0.000000
0.192810 0.406738 0.000000
0.231934 0.406738 0.000000
0.273254 0.406738 0.000000
0.316406 0.406738 0.000000
0.361023 0.406738 0.000000
0.406738 0.406738 0.000000
0.453186 0.406738 0.000000
0.500000 0.406738 0.000000
0.546814 0.406738 0.000000
0.593262 0.406738 0.000000
0.638977 0.406738 0.000000
0.683594 0.406738 0.000000
0.726746 0.406738 0.000000
0.768066 0.406738 0.000000
0.807190 0.406738 0.000000
0.843750 0.406738 0.000000
0.877380 0.406738 0.000000
0.907715 0.406738 0.000000
0.934387 0.406738 0.000000
0.957031 0.406738 0.000000
0.975281 0.406738 0.000000
0.988770 0.406738 0.000000
0.997131 0.406738 0.000000
1.000000 0.406738 0.000000
0.000000 0.453186 0.000000
0.002869 0.453186 0.000000
0.011230 0.453186 0.000000
0.024719 0.453186 0.000000
0.042969 0.453186 0.000000
0.065613 0.453186 0.000000
0.092285 0.453186 0.000000
0.122620 0.453186 0.000000
0.156250 0.453186 0.000000
0.192810 0.453186 0.000000
0.231934 0.453186 0.000000
0.273254 0.453186 0.000000
0.316406 0.453186 0.000000
0.361023 0.453186 0.000000
0.406738 0.453186 0.000000
0.453186 0.453186 0.000000
0.500000 0.453186 0.000000
0.546814 0.453186 0.000000
0.593262 0.453186 0.000000
0.638977 0.453186 0.000000
0.683594 0.453186 0.000000
0.726746 0.453186 0.000000
0.768066 0.453186 0.000000
0.807190 0.453186 0.000000
0.843750 0.453186 0.000000
0.877380 0.453186 0.000000
0.907715 0.453186 0.000000
0.934387 0.453186 0.000000
0.957031 0.453186 0.000000
0.975281 0.453186 0.000000
0.988770 0.453186 0.000000
0.997131 0.453186 0.000000
1.000000 0.453186 0.000000
0.000000 0.500000 0.000000
0.002869 0.500000 0.000000
0.011230 0.500000 0.000000
0.024719 0.500000 0.000000
0.042969 0.500000 0.000000
0.065613 0.500000 0.000000
0.092285 0.500000 0.000000
0.122620 0.500000 0.000000
0.156250 0.500000 0.000000
0.192810 0.500000 0.000000
0.231934 0.500000 0.000000
0.273254 0.500000 0.000000
0.316406 0.500000 0.000000
0.361023 0.500000 0.000000
0.406738 0.500000 0.000000
0.453186 0.500000 0.000000
0.500000 0.500000 0.000000
0.546814 0.500000 0.000000
0.593262 0.500000 0.000000
0.638977 0.500000 0.000000
0.683594 0.500000 0.000000
0.726746 0.500000 0.000000
0.768066 0.500000 0.000000
0.807190 0.500000 0.000000
0.843750 0.500000 0.000000
0.877380 0.500000 0.000000
0.907715 0.500000 0.000000
0.934387 0.500000 0.000000
0.957031 0.500000 0.000000
0.975281 0.500000 0.000000
0.988770 0.500000 0.000000
0.997131 0.500000 0.000000
1.000000 0.500000 0.000000
0.000000 0.546814 0.000000
0.002869 0.546814 0.000000
0.011230 0.546814 0.000000
0.024719 0.546814 0.000000
0.042969 0.546814 0.000000
0.065613 0.546814 0.000000
0.092285 0.546814 0.000000
0.122620 0.546814 0.000000
0.156250 0.546814 0.000000
0.192810 0.546814 0.000000
0.231934 0.546814 0.000000
0.273254 0.546814 0.000000
0.316406 0.546814 0.000000
0.361023 0.546814 0.000000
0.406738 0.546814 0.000000
0.453186 0.546814 0.000000
0.500000 0.546814 0.000000
0.546814 0.546814 0.000000
0.593262 0.546814 0.000000
0.638977 0.546814 0.000000
0.683594 0.546814 0.000000
0.726746 0.546814 0.000000
0.768066 0.546814 0.000000
0.807190 0.546814 0.000000
0.843750 0.546814 0.000000
0.877380 0.546814 0.000000
0.907715 0.546814 0.000000
0.934387 0.546814 0.000000
0.957031 0.546814 0.000000
0.975281 0.546814 0.000000
0.988770 0.546814 0.000000
0.997131 0.546814 0.000000
1.000000 0.546814 0.000000
0.000000 0.593262 0.000000
0.002869 0.593262 0.000000
0.011230 0.593262 0.000000
0.024719 0.593262 0.000000
0.042969 0.593262 0.000000
0.065613 0.593262 0.000000
0.092285 0.593262 0.000000
0.122620 0.593262 0.000000
0.156250 0.593262 0.000000
0.192810 0.593262 0.000000
0.231934 0.593262 0.000000
0.273254 0.593262 0.000000
0.316406 0.593262 0.000000
0.361023 0.593262 0.000000
0.406738 0.593262 0.000000
0.453186 0.593262 0.000000
0.500000 0.593262 0.000000
0.546814 0.593262 0.000000
0.593262 0.593262 0.000000
0.638977 0.593262 0.000000
0.683594 0.593262 0.000000
0.726746 0.593262 0.000000
0.768066 0.593262 0.000000
0.807190 0.593262 0.000000
0.843750 0.593262 0.000000
0.877380 0.593262 0.000000
0.907715 0.593262 0.000000
0.934387 0.593262 0.000000
0.957031 0.593262 0.000000
0.975281 0.593262 0.000000
0.988770 0.593262 0.000000
0.997131 0.593262 0.000000
1.000000 0.593262 0.000000
0.000000 0.638977 0.000000
0.002869 0.638977 0.000000
0.011230 0.638977 0.000000
0.024719 0.638977 0.000000
0.042969 0.638977 0.000000
0.065613 0.638977 0.000000
0.092285 0.638977 0.000000
0.122620 0.638977 0.000000
0.156250 0.638977 0.000000
0.192810 0.638977 0.000000
0.231934 0.638977 0.000000
0.273254 0.638977 0.000000
0.316406 0.638977 0.000000
0.361023 0.638977 0.000000
0.406738 0.638977 0.000000
0.453186 0.638977 0.000000
0.500000 0.638977 0.000000
0.546814 0.638977 0.000000
0.593262 0.638977 0.000000
0.638977 0.638977 0.000000
0.683594 0.638977 0.000000
0.726746 0.638977 0.000000
0.768066 0.638977 0.000000
0.807190 0.638977 0.000000
0.843750 0.638977 0.000000
0.877380 0.638977 0.000000
0.907715 0.638977 0.000000
0.934387 0.638977 0.000000
0.957031 0.638977 0.000000
0.975281 0.638977 0.000000
0.988770 0.638977 0.000000
0.997131 0.638977 0.000000
1.000000 0.638977 0.000000
0.000000 0.683594 0.000000
0.002869 0.683594 0.000000
0.011230 0.683594 0.000000
0.024719 0.683594 0.000000
0.042969 0.683594 0.000000
0.065613 0.683594 0.000000
0.092285 0.683594 0.000000
0.122620 0.683594 0.000000
0.156250 0.683594 0.000000
0.192810 0.683594 0.000000
0.231934 0.683594 0.000000
0.273254 0.683594 0.000000
0.316406 0.683594 0.000000
0.361023 0.683594 0.000000
0.406738 0.683594 0.000000
0.453186 0.683594 0.000000
0.500000 0.683594 0.000000
0.546814 0.683594 0.000000
0.593262 0.683594 0.000000
0.638977 0.683594 0.000000
0.683594 0.683594 0.000000
0.726746 0.683594 0.000000
0.768066 0.683594 0.000000
0.807190 0.683594 0.000000
0.843750 0.683594 0.000000
0.877380 0.683594 0.000000
0.907715 0.683594 0.000000
0.934387 0.683594 0.000000
0.957031 0.683594 0.000000
0.975281 0.683594 0.000000
0.988770 0.683594 0.000000
0.997131 0.683594 0.000000
1.000000 0.683594 0.000000
0.000000 0.726746 0.000000
0.002869 0.726746 0.000000
0.011230 0.726746 0.000000
0.024719 0.726746 0.000000
0.042969 0.726746 0.000000
0.065613 0.726746 0.000000
0.092285 0.726746 0.000000
0.122620 0.726746 0.000000
0.156250 0.726746 0.000000
0.192810 0.726746 0.000000
0.231934 0.726746 0.000000
0.273254 0.726746 0.000000
0.316406 0.726746 0.000000
0.361023 0.726746 0.000000
0.406738 0.726746 0.000000
0.453186 0.726746 0.000000
0.500000 0.726746 0.000000
0.546814 0.726746 0.000000
0.593262 0.726746 0.000000
0.638977 0.726746 0.000000
0.683594 0.726746 0.000000
0.726746 0.726746 0.000000
0.768066 0.726746 0.000000
0.807190 0.726746 0.000000
0.843750 0.726746 0.000000
0.877380 0.726746 0.000000
0.907715 0.726746 0.000000
0.934387 0.726746 0.000000
0.957031 0.726746 0.000000
0.975281 0.726746 0.000000
0.988770 0.726746 0.000000
0.997131 0.726746 0.000000
1.000000 0.726746 0.000000
0.000000 0.768066 0.000000
0.002869 0.768066 0.000000
0.011230 0.768066 0.000000
0.024719 0.768066 0.000000
0.042969 0.768066 0.000000
0.065613 0.768066 0.000000
0.092285 0.768066 0.000000
0.122620 0.768066 0.000000
0.156250 0.768066 0.000000
0.192810 0.768066 0.000000
0.231934 0.768066 0.000000
0.273254 0.768066 0.000000
0.316406 0.768066 0.000000
0.361023 0.768066 0.000000
0.406738 0.768066 0.000000
0.453186 0.768066 0.000000
0.500000 0.768066 0.000000
0.546814 0.768066 0.000000
0.593262 0.768066 0.000000
0.638977 0.768066 0.000000
0.683594 0.768066 0.000000
0.726746 0.768066 0.000000
0.768066 0.768066 0.000000
0.807190 0.768066 0.000000
0.843750 0.768066 0.000000
0.877380 0.768066 0.000000
0.907715 0.768066 0.000000
0.934387 0.768066 0.000000
0.957031 0.768066 0.000000
0.975281 0.768066 0.000000
0.988770 0.768066 0.000000
0.997131 0.768066 0.000000
1.000000 0.768066 0.000000
0.000000 0.807190 0.000000
0.002869 0.807190 0.000000
0.011230 0.807190 0.000000
0.024719 0.807190 0.000000
0.042969 0.807190 0.000000
0.065613 0.807190 0.000000
0.092285 0.807190 0.000000
0.122620 0.807190 0.000000
0.156250 0.807190 0.000000
0.192810 0.807190 0.000000
0.231934 0.807190 0.000000
0.273254 0.807190 0.000000
0.316406 0.807190 0.000000
0.361023 0.807190 0.000000
0.406738 0.807190 0.000000
0.453186 0.807190 0.000000
0.500000 0.807190 0.000000
0.546814 0.807190 0.000000
0.593262 0.807190 0.000000
0.638977 0.807190 0.000000
0.683594 0.807190 0.000000
0.726746 0.807190 0.000000
0.768066 0.807190 0.000000
0.807190 0.807190 0.000000
0.843750 0.807190 0.000000
0.877380 0.807190 0.000000
0.907715 0.807190 0.000000
0.934387 0.807190 0.000000
0.957031 0.807190 0.000000
0.975281 0.807190 0.000000
0.988770 0.807190 0.000000
0.997131 0.807190 0.000000
1.000000 0.807190 0.000000
0.000000 0.843750 0.000000
0.002869 0.843750 0.000000
0.011230 0.843750 0.000000
0.024719 0.843750 0.000000
0.042969 0.843750 0.000000
0.065613 0.843750 0.000000
0.092285 0.843750 0.000000
0.122620 0.843750 0.000000
0.156250 0.843750 0.000000
0.192810 0.843750 0.000000
0.231934 0.843750 0.000000
0.273254 0.843750 0.000000
0.316406 0.843750 0.000000
0.361023 0.843750 0.000000
0.406738 0.843750 0.000000
0.453186 0.843750 0.000000
0.500000 0.843750 0.000000
0.546814 0.843750 0.000000
0.593262 0.843750 0.000000
0.638977 0.843750 0.000000
0.683594 0.843750 0.000000
0.726746 0.843750 0.000000
0.768066 0.843750 0.000000
0.807190 0.843750 0.000000
0.843750 0.843750 0.000000
0.877380 0.843750 0.000000
0.907715 0.843750 0.000000
0.934387 0.843750 0.000000
0.957031 0.843750 0.000000
0.975281 0.843750 0.000000
0.988770 0.843750 0.000000
0.997131 0.843750 0.000000
1.000000 0.843750 0.000000
0.000000 0.877380 0.000000
0.002869 0.877380 0.000000
0.011230 0.877380 0.000000
0.024719 0.877380 0.000000
0.042969 0.877380 0.000000
0.065613 0.877380 0.000000
0.092285 0.877380 0.000000
0.122620 0.877380 0.000000
0.156250 0.877380 0.000000
0.192810 0.877380 0.000000
0.231934 0.877380 0.000000
0.273254 0.877380 0.000000
0.316406 0.877380 0.000000
0.361023 0.877380 0.000000
0.406738 0.877380 0.000000
0.453186 0.877380 0.000000
0.500000 0.877380 0.000000
0.546814 0.877380 0.000000
0.593262 0.877380 0.000000
0.638977 0.877380 0.000000
0.683594 0.877380 0.000000
0.726746 0.877380 0.000000
0.768066 0.877380 0.000000
0.807190 0.877380 0.000000
0.843750 0.877380 0.000000
0.877380 0.877380 0.000000
0.907715 0.877380 0.000000
0.934387 0.877380 0.000000
0.957031 0.877380 0.000000
0.975281 0.877380 0.000000
0.988770 0.877380 0.000000
0.997131 0.877380 0.000000
1.000000 0.877380 0.000000
0.000000 0.907715 0.000000
0.002869 0.907715 0.000000
0.011230 0.907715 0.000000
0.024719 0.907715 0.000000
0.042969 0.907715 0.000000
0.065613 0.907715 0.000000
0.092285 0.907715 0.000000
0.122620 0.907715 0.000000
0.156250 0.907715 0.000000
0.192810 0.907715 0.000000
0.231934 0.907715 0.000000
0.273254 0.907715 0.000000
0.316406 0.907715 0.000000
0.361023 0.907715 0.000000
0.406738 0.907715 0.000000
0.453186 0.907715 0.000000
0.500000 0.907715 0.000000
0.546814 0.907715 0.000000
0.593262 0.907715 0.000000
0.638977 0.907715 0.000000
0.683594 0.907715 0.000000
0.726746 0.907715 0.000000
0.768066 0.907715 0.000000
0.807190 0.907715 0.000000
0.843750 0.907715 0.000000
0.877380 0.907715 0.000000
0.907715 0.907715 0.000000
0.934387 0.907715 0.000000
