app/src/main/assets/luts/disposable.cube
TITLE "Disposable"
LUT_3D_SIZE 5
DOMAIN_MIN 0.0 0.0 0.0
DOMAIN_MAX 1.0 1.0 1.0
0.060000 0.040000 0.020000
0.349343 0.040000 0.020000
0.592500 0.040000 0.020000
0.820817 0.040000 0.020000
1.000000 0.040000 0.020000
0.060000 0.308149 0.020000
0.349343 0.308149 0.020000
0.592500 0.308149 0.020000
0.820817 0.308149 0.020000
1.000000 0.308149 0.020000
0.060000 0.547369 0.020000
0.349343 0.547369 0.020000
0.592500 0.547369 0.020000
0.820817 0.547369 0.020000
1.000000 0.547369 0.020000
0.060000 0.776763 0.020000
0.349343 0.776763 0.020000
0.592500 0.776763 0.020000
0.820817 0.776763 0.020000
1.000000 0.776763 0.020000
0.060000 1.000000 0.020000
0.349343 1.000000 0.020000
0.592500 1.000000 0.020000
0.820817 1.000000 0.020000
1.000000 1.000000 0.020000
0.060000 0.040000 0.238847
0.349343 0.040000 0.238847
0.592500 0.040000 0.238847
0.820817 0.040000 0.238847
1.000000 0.040000 0.238847
0.060000 0.308149 0.238847
0.349343 0.308149 0.238847
0.592500 0.308149 0.238847
0.820817 0.308149 0.238847
1.000000 0.308149 0.238847
0.060000 0.547369 0.238847
0.349343 0.547369 0.238847
0.592500 0.547369 0.238847
0.820817 0.547369 0.238847
1.000000 0.547369 0.238847
0.060000 0.776763 0.238847
0.349343 0.776763 0.238847
0.592500 0.776763 0.238847
0.820817 0.776763 0.238847
1.000000 0.776763 0.238847
0.060000 1.000000 0.238847
0.349343 1.000000 0.238847
0.592500 1.000000 0.238847
0.820817 1.000000 0.238847
1.000000 1.000000 0.238847
0.060000 0.040000 0.463805
0.349343 0.040000 0.463805
0.592500 0.040000 0.463805
0.820817 0.040000 0.463805
1.000000 0.040000 0.463805
0.060000 0.308149 0.463805
0.349343 0.308149 0.463805
0.592500 0.308149 0.463805
0.820817 0.308149 0.463805
1.000000 0.308149 0.463805
0.060000 0.547369 0.463805
0.349343 0.547369 0.463805
0.592500 0.547369 0.463805
0.820817 0.547369 0.463805
1.000000 0.547369 0.463805
0.060000 0.776763 0.463805
0.349343 0.776763 0.463805
0.592500 0.776763 0.463805
0.820817 0.776763 0.463805
1.000000 0.776763 0.463805
0.060000 1.000000 0.463805
0.349343 1.000000 0.463805
0.592500 1.000000 0.463805
0.820817 1.000000 0.463805
1.000000 1.000000 0.463805
0.060000 0.040000 0.691127
0.349343 0.040000 0.691127
0.592500 0.040000 0.691127
0.820817 0.040000 0.691127
1.000000 0.040000 0.691127
0.060000 0.308149 0.691127
0.349343 0.308149 0.691127
0.592500 0.308149 0.691127
0.820817 0.308149 0.691127
1.000000 0.308149 0.691127
0.060000 0.547369 0.691127
0.349343 0.547369 0.691127
0.592500 0.547369 0.691127
0.820817 0.547369 0.691127
1.000000 0.547369 0.691127
0.060000 0.776763 0.691127
0.349343 0.776763 0.691127
0.592500 0.776763 0.691127
0.820817 0.776763 0.691127
1.000000 0.776763 0.691127
0.060000 1.000000 0.691127
0.349343 1.000000 0.691127
0.592500 1.000000 0.691127
0.820817 1.000000 0.691127
1.000000 1.000000 0.691127
0.060000 0.040000 0.920000
0.349343 0.040000 0.920000
0.592500 0.040000 0.920000
0.820817 0.040000 0.920000
1.000000 0.040000 0.920000
0.060000 0.308149 0.920000
0.349343 0.308149 0.920000
0.592500 0.308149 0.920000
0.820817 0.308149 0.920000
1.000000 0.308149 0.920000
0.060000 0.547369 0.920000
0.349343 0.547369 0.920000
0.592500 0.547369 0.920000
0.820817 0.547369 0.920000
1.000000 0.547369 0.920000
0.060000 0.776763 0.920000
0.349343 0.776763 0.920000
0.592500 0.776763 0.920000
0.820817 0.776763 0.920000
1.000000 0.776763 0.920000
0.060000 1.000000 0.920000
0.349343 1.000000 0.920000
0.592500 1.000000 0.920000
0.820817 1.000000 0.920000
1.000000 1.000000 0.920000
