app/src/main/assets/luts/disposable.cube
TITLE "Disposable"
LUT_3D_SIZE 33
DOMAIN_MIN 0.0 0.0 0.0
DOMAIN_MAX 1.0 1.0 1.0
0.060000 0.040000 0.020000
0.106419 0.040000 0.020000
0.145428 0.040000 0.020000
0.182056 0.040000 0.020000
0.217220 0.040000 0.020000
0.251332 0.040000 0.020000
0.284630 0.040000 0.020000
0.317265 0.040000 0.020000
0.349343 0.040000 0.020000
0.380943 0.040000 0.020000
0.412123 0.040000 0.020000
0.442930 0.040000 0.020000
0.473403 0.040000 0.020000
0.503572 0.040000 0.020000
0.533464 0.040000 0.020000
0.563100 0.040000 0.020000
0.592500 0.040000 0.020000
0.621680 0.040000 0.020000
0.650655 0.040000 0.020000
0.679437 0.040000 0.020000
0.708038 0.040000 0.020000
0.736468 0.040000 0.020000
0.764735 0.040000 0.020000
0.792849 0.040000 0.020000
0.820817 0.040000 0.020000
0.848645 0.040000 0.020000
0.876339 0.040000 0.020000
0.903906 0.040000 0.020000
0.931351 0.040000 0.020000
0.958678 0.040000 0.020000
0.985893 0.040000 0.020000
1.000000 0.040000 0.020000
1.000000 0.040000 0.020000
0.060000 0.079585 0.020000
0.106419 0.079585 0.020000
0.145428 0.079585 0.020000
0.182056 0.079585 0.020000
0.217220 0.079585 0.020000
0.251332 0.079585 0.020000
0.284630 0.079585 0.020000
0.317265 0.079585 0.020000
0.349343 0.079585 0.020000
0.380943 0.079585 0.020000
0.412123 0.079585 0.020000
0.442930 0.079585 0.020000
0.473403 0.079585 0.020000
0.503572 0.079585 0.020000
0.533464 0.079585 0.020000
0.563100 0.079585 0.020000
0.592500 0.079585 0.020000
0.621680 0.079585 0.020000
0.650655 0.079585 0.020000
0.679437 0.079585 0.020000
0.708038 0.079585 0.020000
0.736468 0.079585 0.020000
0.764735 0.079585 0.020000
0.792849 0.079585 0.020000
0.820817 0.079585 0.020000
0.848645 0.079585 0.020000
0.876339 0.079585 0.020000
0.903906 0.079585 0.020000
0.931351 0.079585 0.020000
0.958678 0.079585 0.020000
0.985893 0.079585 0.020000
1.000000 0.079585 0.020000
1.000000 0.079585 0.020000
0.060000 0.114900 0.020000
0.106419 0.114900 0.020000
0.145428 0.114900 0.020000
0.182056 0.114900 0.020000
0.217220 0.114900 0.020000
0.251332 0.114900 0.020000
0.284630 0.114900 0.020000
0.317265 0.114900 0.020000
0.349343 0.114900 0.020000
0.380943 0.114900 0.020000
0.412123 0.114900 0.020000
0.442930 0.114900 0.020000
0.473403 0.114900 0.020000
0.503572 0.114900 0.020000
0.533464 0.114900 0.020000
0.563100 0.114900 0.020000
0.592500 0.114900 0.020000
0.621680 0.114900 0.020000
0.650655 0.114900 0.020000
0.679437 0.114900 0.020000
0.708038 0.114900 0.020000
0.736468 0.114900 0.020000
0.764735 0.114900 0.020000
0.792849 0.114900 0.020000
0.820817 0.114900 0.020000
0.848645 0.114900 0.020000
0.876339 0.114900 0.020000
0.903906 0.114900 0.020000
0.931351 0.114900 0.020000
0.958678 0.114900 0.020000
0.985893 0.114900 0.020000
1.000000 0.114900 0.020000
1.000000 0.114900 0.020000
0.060000 0.148764 0.020000
0.106419 0.148764 0.020000
0.145428 0.148764 0.020000
0.182056 0.148764 0.020000
0.217220 0.148764 0.020000
0.251332 0.148764 0.020000
0.284630 0.148764 0.020000
0.317265 0.148764 0.020000
0.349343 0.148764 0.020000
0.380943 0.148764 0.020000
0.412123 0.148764 0.020000
0.442930 0.148764 0.020000
0.473403 0.148764 0.020000
0.503572 0.148764 0.020000
0.533464 0.148764 0.020000
0.563100 0.148764 0.020000
0.592500 0.148764 0.020000
0.621680 0.148764 0.020000
0.650655 0.148764 0.020000
0.679437 0.148764 0.020000
0.708038 0.148764 0.020000
0.736468 0.148764 0.020000
0.764735 0.148764 0.020000
0.792849 0.148764 0.020000
0.820817 0.148764 0.020000
0.848645 0.148764 0.020000
0.876339 0.148764 0.020000
0.903906 0.148764 0.020000
0.931351 0.148764 0.020000
0.958678 0.148764 0.020000
0.985893 0.148764 0.020000
1.000000 0.148764 0.020000
1.000000 0.148764 0.020000
0.060000 0.181719 0.020000
0.106419 0.181719 0.020000
0.145428 0.181719 0.020000
0.182056 0.181719 0.020000
0.217220 0.181719 0.020000
0.251332 0.181719 0.020000
0.284630 0.181719 0.020000
0.317265 0.181719 0.020000
0.349343 0.181719 0.020000
0.380943 0.181719 0.020000
0.412123 0.181719 0.020000
0.442930 0.181719 0.020000
0.473403 0.181719 0.020000
0.503572 0.181719 0.020000
0.533464 0.181719 0.020000
0.563100 0.181719 0.020000
0.592500 0.181719 0.020000
0.621680 0.181719 0.020000
0.650655 0.181719 0.020000
0.679437 0.181719 0.020000
0.708038 0.181719 0.020000
0.736468 0.181719 0.020000
0.764735 0.181719 0.020000
0.792849 0.181719 0.020000
0.820817 0.181719 0.020000
0.848645 0.181719 0.020000
0.876339 0.181719 0.020000
0.903906 0.181719 0.020000
0.931351 0.181719 0.020000
0.958678 0.181719 0.020000
0.985893 0.181719 0.020000
1.000000 0.181719 0.020000
1.000000 0.181719 0.020000
0.060000 0.214015 0.020000
0.106419 0.214015 0.020000
0.145428 0.214015 0.020000
0.182056 0.214015 0.020000
0.217220 0.214015 0.020000
0.251332 0.214015 0.020000
0.284630 0.214015 0.020000
0.317265 0.214015 0.020000
0.349343 0.214015 0.020000
0.380943 0.214015 0.020000
0.412123 0.214015 0.020000
0.442930 0.214015 0.020000
0.473403 0.214015 0.020000
0.503572 0.214015 0.020000
0.533464 0.214015 0.020000
0.563100 0.214015 0.020000
0.592500 0.214015 0.020000
0.621680 0.214015 0.020000
0.650655 0.214015 0.020000
0.679437 0.214015 0.020000
0.708038 0.214015 0.020000
0.736468 0.214015 0.020000
0.764735 0.214015 0.020000
0.792849 0.214015 0.020000
0.820817 0.214015 0.020000
0.848645 0.214015 0.020000
0.876339 0.214015 0.020000
0.903906 0.214015 0.020000
0.931351 0.214015 0.020000
0.958678 0.214015 0.020000
0.985893 0.214015 0.020000
1.000000 0.214015 0.020000
1.000000 0.214015 0.020000
0.060000 0.245794 0.020000
0.106419 0.245794 0.020000
0.145428 0.245794 0.020000
0.182056 0.245794 0.020000
0.217220 0.245794 0.020000
0.251332 0.245794 0.020000
0.284630 0.245794 0.020000
0.317265 0.245794 0.020000
0.349343 0.245794 0.020000
0.380943 0.245794 0.020000
0.412123 0.245794 0.020000
0.442930 0.245794 0.020000
0.473403 0.245794 0.020000
0.503572 0.245794 0.020000
0.533464 0.245794 0.020000
0.563100 0.245794 0.020000
0.592500 0.245794 0.020000
0.621680 0.245794 0.020000
0.650655 0.245794 0.020000
0.679437 0.245794 0.020000
0.708038 0.245794 0.020000
0.736468 0.245794 0.020000
0.764735 0.245794 0.020000
0.792849 0.245794 0.020000
0.820817 0.245794 0.020000
0.848645 0.245794 0.020000
0.876339 0.245794 0.020000
0.903906 0.245794 0.020000
0.931351 0.245794 0.020000
0.958678 0.245794 0.020000
0.985893 0.245794 0.020000
1.000000 0.245794 0.020000
1.000000 0.245794 0.020000
0.060000 0.277150 0.020000
0.106419 0.277150 0.020000
0.145428 0.277150 0.020000
0.182056 0.277150 0.020000
0.217220 0.277150 0.020000
0.251332 0.277150 0.020000
0.284630 0.277150 0.020000
0.317265 0.277150 0.020000
0.349343 0.277150 0.020000
0.380943 0.277150 0.020000
0.412123 0.277150 0.020000
0.442930 0.277150 0.020000
0.473403 0.277150 0.020000
0.503572 0.277150 0.020000
0.533464 0.277150 0.020000
0.563100 0.277150 0.020000
0.592500 0.277150 0.020000
0.621680 0.277150 0.020000
0.650655 0.277150 0.020000
0.679437 0.277150 0.020000
0.708038 0.277150 0.020000
0.736468 0.277150 0.020000
0.764735 0.277150 0.020000
0.792849 0.277150 0.020000
0.820817 0.277150 0.020000
0.848645 0.277150 0.020000
0.876339 0.277150 0.020000
0.903906 0.277150 0.020000
0.931351 0.277150 0.020000
0.958678 0.277150 0.020000
0.985893 0.277150 0.020000
1.000000 0.277150 0.020000
1.000000 0.277150 0.020000
0.060000 0.308149 0.020000
0.106419 0.308149 0.020000
0.145428 0.308149 0.020000
0.182056 0.308149 0.020000
0.217220 0.308149 0.020000
0.251332 0.308149 0.020000
0.284630 0.308149 0.020000
0.317265 0.308149 0.020000
0.349343 0.308149 0.020000
0.380943 0.308149 0.020000
0.412123 0.308149 0.020000
0.442930 0.308149 0.020000
0.473403 0.308149 0.020000
0.503572 0.308149 0.020000
0.533464 0.308149 0.020000
0.563100 0.308149 0.020000
0.592500 0.308149 0.020000
0.621680 0.308149 0.020000
0.650655 0.308149 0.020000
0.679437 0.308149 0.020000
0.708038 0.308149 0.020000
0.736468 0.308149 0.020000
0.764735 0.308149 0.020000
0.792849 0.308149 0.020000
0.820817 0.308149 0.020000
0.848645 0.308149 0.020000
0.876339 0.308149 0.020000
0.903906 0.308149 0.020000
0.931351 0.308149 0.020000
0.958678 0.308149 0.020000
0.985893 0.308149 0.020000
1.000000 0.308149 0.020000
1.000000 0.308149 0.020000
0.060000 0.338838 0.020000
0.106419 0.338838 0.020000
0.145428 0.338838 0.020000
0.182056 0.338838 0.020000
0.217220 0.338838 0.020000
0.251332 0.338838 0.020000
0.284630 0.338838 0.020000
0.317265 0.338838 0.020000
0.349343 0.338838 0.020000
0.380943 0.338838 0.020000
0.412123 0.338838 0.020000
0.442930 0.338838 0.020000
0.473403 0.338838 0.020000
0.503572 0.338838 0.020000
0.533464 0.338838 0.020000
0.563100 0.338838 0.020000
0.592500 0.338838 0.020000
0.621680 0.338838 0.020000
0.650655 0.338838 0.020000
0.679437 0.338838 0.020000
0.708038 0.338838 0.020000
0.736468 0.338838 0.020000
0.764735 0.338838 0.020000
0.792849 0.338838 0.020000
0.820817 0.338838 0.020000
0.848645 0.338838 0.020000
0.876339 0.338838 0.020000
0.903906 0.338838 0.020000
0.931351 0.338838 0.020000
0.958678 0.338838 0.020000
0.985893 0.338838 0.020000
1.000000 0.338838 0.020000
1.000000 0.338838 0.020000
0.060000 0.369256 0.020000
0.106419 0.369256 0.020000
0.145428 0.369256 0.020000
0.182056 0.369256 0.020000
0.217220 0.369256 0.020000
0.251332 0.369256 0.020000
0.284630 0.369256 0.020000
0.317265 0.369256 0.020000
0.349343 0.369256 0.020000
0.380943 0.369256 0.020000
0.412123 0.369256 0.020000
0.442930 0.369256 0.020000
0.473403 0.369256 0.020000
0.503572 0.369256 0.020000
0.533464 0.369256 0.020000
0.563100 0.369256 0.020000
0.592500 0.369256 0.020000
0.621680 0.369256 0.020000
0.650655 0.369256 0.020000
0.679437 0.369256 0.020000
0.708038 0.369256 0.020000
0.736468 0.369256 0.020000
0.764735 0.369256 0.020000
0.792849 0.369256 0.020000
0.820817 0.369256 0.020000
0.848645 0.369256 0.020000
0.876339 0.369256 0.020000
0.903906 0.369256 0.020000
0.931351 0.369256 0.020000
0.958678 0.369256 0.020000
0.985893 0.369256 0.020000
1.000000 0.369256 0.020000
1.000000 0.369256 0.020000
0.060000 0.399430 0.020000
0.106419 0.399430 0.020000
0.145428 0.399430 0.020000
0.182056 0.399430 0.020000
0.217220 0.399430 0.020000
0.251332 0.399430 0.020000
0.284630 0.399430 0.020000
0.317265 0.399430 0.020000
0.349343 0.399430 0.020000
0.380943 0.399430 0.020000
0.412123 0.399430 0.020000
0.442930 0.399430 0.020000
0.473403 0.399430 0.020000
0.503572 0.399430 0.020000
0.533464 0.399430 0.020000
0.563100 0.399430 0.020000
0.592500 0.399430 0.020000
0.621680 0.399430 0.020000
0.650655 0.399430 0.020000
0.679437 0.399430 0.020000
0.708038 0.399430 0.020000
0.736468 0.399430 0.020000
0.764735 0.399430 0.020000
0.792849 0.399430 0.020000
0.820817 0.399430 0.020000
0.848645 0.399430 0.020000
0.876339 0.399430 0.020000
0.903906 0.399430 0.020000
0.931351 0.399430 0.020000
0.958678 0.399430 0.020000
0.985893 0.399430 0.020000
1.000000 0.399430 0.020000
1.000000 0.399430 0.020000
0.060000 0.429386 0.020000
0.106419 0.429386 0.020000
0.145428 0.429386 0.020000
0.182056 0.429386 0.020000
0.217220 0.429386 0.020000
0.251332 0.429386 0.020000
0.284630 0.429386 0.020000
0.317265 0.429386 0.020000
0.349343 0.429386 0.020000
0.380943 0.429386 0.020000
0.412123 0.429386 0.020000
0.442930 0.429386 0.020000
0.473403 0.429386 0.020000
0.503572 0.429386 0.020000
0.533464 0.429386 0.020000
0.563100 0.429386 0.020000
0.592500 0.429386 0.020000
0.621680 0.429386 0.020000
0.650655 0.429386 0.020000
0.679437 0.429386 0.020000
0.708038 0.429386 0.020000
0.736468 0.429386 0.020000
0.764735 0.429386 0.020000
0.792849 0.429386 0.020000
0.820817 0.429386 0.020000
0.848645 0.429386 0.020000
0.876339 0.429386 0.020000
0.903906 0.429386 0.020000
0.931351 0.429386 0.020000
0.958678 0.429386 0.020000
0.985893 0.429386 0.020000
1.000000 0.429386 0.020000
1.000000 0.429386 0.020000
0.060000 0.459142 0.020000
0.106419 0.459142 0.020000
0.145428 0.459142 0.020000
0.182056 0.459142 0.020000
0.217220 0.459142 0.020000
0.251332 0.459142 0.020000
0.284630 0.459142 0.020000
0.317265 0.459142 0.020000
0.349343 0.459142 0.020000
0.380943 0.459142 0.020000
0.412123 0.459142 0.020000
0.442930 0.459142 0.020000
0.473403 0.459142 0.020000
0.503572 0.459142 0.020000
0.533464 0.459142 0.020000
0.563100 0.459142 0.020000
0.592500 0.459142 0.020000
0.621680 0.459142 0.020000
0.650655 0.459142 0.020000
0.679437 0.459142 0.020000
0.708038 0.459142 0.020000
0.736468 0.459142 0.020000
0.764735 0.459142 0.020000
0.792849 0.459142 0.020000
0.820817 0.459142 0.020000
0.848645 0.459142 0.020000
0.876339 0.459142 0.020000
0.903906 0.459142 0.020000
0.931351 0.459142 0.020000
0.958678 0.459142 0.020000
0.985893 0.459142 0.020000
1.000000 0.459142 0.020000
1.000000 0.459142 0.020000
0.060000 0.488715 0.020000
0.106419 0.488715 0.020000
0.145428 0.488715 0.020000
0.182056 0.488715 0.020000
0.217220 0.488715 0.020000
0.251332 0.488715 0.020000
0.284630 0.488715 0.020000
0.317265 0.488715 0.020000
0.349343 0.488715 0.020000
0.380943 0.488715 0.020000
0.412123 0.488715 0.020000
0.442930 0.488715 0.020000
0.473403 0.488715 0.020000
0.503572 0.488715 0.020000
0.533464 0.488715 0.020000
0.563100 0.488715 0.020000
0.592500 0.488715 0.020000
0.621680 0.488715 0.020000
0.650655 0.488715 0.020000
0.679437 0.488715 0.020000
0.708038 0.488715 0.020000
0.736468 0.488715 0.020000
0.764735 0.488715 0.020000
0.792849 0.488715 0.020000
0.820817 0.488715 0.020000
0.848645 0.488715 0.020000
0.876339 0.488715 0.020000
0.903906 0.488715 0.020000
0.931351 0.488715 0.020000
0.958678 0.488715 0.020000
0.985893 0.488715 0.020000
1.000000 0.488715 0.020000
1.000000 0.488715 0.020000
0.060000 0.518120 0.020000
0.106419 0.518120 0.020000
0.145428 0.518120 0.020000
0.182056 0.518120 0.020000
0.217220 0.518120 0.020000
0.251332 0.518120 0.020000
0.284630 0.518120 0.020000
0.317265 0.518120 0.020000
0.349343 0.518120 0.020000
0.380943 0.518120 0.020000
0.412123 0.518120 0.020000
0.442930 0.518120 0.020000
0.473403 0.518120 0.020000
0.503572 0.518120 0.020000
0.533464 0.518120 0.020000
0.563100 0.518120 0.020000
0.592500 0.518120 0.020000
0.621680 0.518120 0.020000
0.650655 0.518120 0.020000
0.679437 0.518120 0.020000
0.708038 0.518120 0.020000
0.736468 0.518120 0.020000
0.764735 0.518120 0.020000
0.792849 0.518120 0.020000
0.820817 0.518120 0.020000
0.848645 0.518120 0.020000
0.876339 0.518120 0.020000
0.903906 0.518120 0.020000
0.931351 0.518120 0.020000
0.958678 0.518120 0.020000
0.985893 0.518120 0.020000
1.000000 0.518120 0.020000
1.000000 0.518120 0.020000
0.060000 0.547369 0.020000
0.106419 0.547369 0.020000
0.145428 0.547369 0.020000
0.182056 0.547369 0.020000
0.217220 0.547369 0.020000
0.251332 0.547369 0.020000
0.284630 0.547369 0.020000
0.317265 0.547369 0.020000
0.349343 0.547369 0.020000
0.380943 0.547369 0.020000
0.412123 0.547369 0.020000
0.442930 0.547369 0.020000
0.473403 0.547369 0.020000
0.503572 0.547369 0.020000
0.533464 0.547369 0.020000
0.563100 0.547369 0.020000
0.592500 0.547369 0.020000
0.621680 0.547369 0.020000
0.650655 0.547369 0.020000
0.679437 0.547369 0.020000
0.708038 0.547369 0.020000
0.736468 0.547369 0.020000
0.764735 0.547369 0.020000
0.792849 0.547369 0.020000
0.820817 0.547369 0.020000
0.848645 0.547369 0.020000
0.876339 0.547369 0.020000
0.903906 0.547369 0.020000
0.931351 0.547369 0.020000
0.958678 0.547369 0.020000
0.985893 0.547369 0.020000
1.000000 0.547369 0.020000
1.000000 0.547369 0.020000
0.060000 0.576471 0.020000
0.106419 0.576471 0.020000
0.145428 0.576471 0.020000
0.182056 0.576471 0.020000
0.217220 0.576471 0.020000
0.251332 0.576471 0.020000
0.284630 0.576471 0.020000
0.317265 0.576471 0.020000
0.349343 0.576471 0.020000
0.380943 0.576471 0.020000
0.412123 0.576471 0.020000
0.442930 0.576471 0.020000
0.473403 0.576471 0.020000
0.503572 0.576471 0.020000
0.533464 0.576471 0.020000
0.563100 0.576471 0.020000
0.592500 0.576471 0.020000
0.621680 0.576471 0.020000
0.650655 0.576471 0.020000
0.679437 0.576471 0.020000
0.708038 0.576471 0.020000
0.736468 0.576471 0.020000
0.764735 0.576471 0.020000
0.792849 0.576471 0.020000
0.820817 0.576471 0.020000
0.848645 0.576471 0.020000
0.876339 0.576471 0.020000
0.903906 0.576471 0.020000
0.931351 0.576471 0.020000
0.958678 0.576471 0.020000
0.985893 0.576471 0.020000
1.000000 0.576471 0.020000
1.000000 0.576471 0.020000
0.060000 0.605437 0.020000
0.106419 0.605437 0.020000
0.145428 0.605437 0.020000
0.182056 0.605437 0.020000
0.217220 0.605437 0.020000
0.251332 0.605437 0.020000
0.284630 0.605437 0.020000
0.317265 0.605437 0.020000
0.349343 0.605437 0.020000
0.380943 0.605437 0.020000
0.412123 0.605437 0.020000
0.442930 0.605437 0.020000
0.473403 0.605437 0.020000
0.503572 0.605437 0.020000
0.533464 0.605437 0.020000
0.563100 0.605437 0.020000
0.592500 0.605437 0.020000
0.621680 0.605437 0.020000
0.650655 0.605437 0.020000
0.679437 0.605437 0.020000
0.708038 0.605437 0.020000
0.736468 0.605437 0.020000
0.764735 0.605437 0.020000
0.792849 0.605437 0.020000
0.820817 0.605437 0.020000
0.848645 0.605437 0.020000
0.876339 0.605437 0.020000
0.903906 0.605437 0.020000
0.931351 0.605437 0.020000
0.958678 0.605437 0.020000
0.985893 0.605437 0.020000
1.000000 0.605437 0.020000
1.000000 0.605437 0.020000
0.060000 0.634274 0.020000
0.106419 0.634274 0.020000
0.145428 0.634274 0.020000
0.182056 0.634274 0.020000
0.217220 0.634274 0.020000
0.251332 0.634274 0.020000
0.284630 0.634274 0.020000
0.317265 0.634274 0.020000
0.349343 0.634274 0.020000
0.380943 0.634274 0.020000
0.412123 0.634274 0.020000
0.442930 0.634274 0.020000
0.473403 0.634274 0.020000
0.503572 0.634274 0.020000
0.533464 0.634274 0.020000
0.563100 0.634274 0.020000
0.592500 0.634274 0.020000
0.621680 0.634274 0.020000
0.650655 0.634274 0.020000
0.679437 0.634274 0.020000
0.708038 0.634274 0.020000
0.736468 0.634274 0.020000
0.764735 0.634274 0.020000
0.792849 0.634274 0.020000
0.820817 0.634274 0.020000
0.848645 0.634274 0.020000
0.876339 0.634274 0.020000
0.903906 0.634274 0.020000
0.931351 0.634274 0.020000
0.958678 0.634274 0.020000
0.985893 0.634274 0.020000
1.000000 0.634274 0.020000
1.000000 0.634274 0.020000
0.060000 0.662990 0.020000
0.106419 0.662990 0.020000
0.145428 0.662990 0.020000
0.182056 0.662990 0.020000
0.217220 0.662990 0.020000
0.251332 0.662990 0.020000
0.284630 0.662990 0.020000
0.317265 0.662990 0.020000
0.349343 0.662990 0.020000
0.380943 0.662990 0.020000
0.412123 0.662990 0.020000
0.442930 0.662990 0.020000
0.473403 0.662990 0.020000
0.503572 0.662990 0.020000
0.533464 0.662990 0.020000
0.563100 0.662990 0.020000
0.592500 0.662990 0.020000
0.621680 0.662990 0.020000
0.650655 0.662990 0.020000
0.679437 0.662990 0.020000
0.708038 0.662990 0.020000
0.736468 0.662990 0.020000
0.764735 0.662990 0.020000
0.792849 0.662990 0.020000
0.820817 0.662990 0.020000
0.848645 0.662990 0.020000
0.876339 0.662990 0.020000
0.903906 0.662990 0.020000
0.931351 0.662990 0.020000
0.958678 0.662990 0.020000
0.985893 0.662990 0.020000
1.000000 0.662990 0.020000
1.000000 0.662990 0.020000
0.060000 0.691591 0.020000
0.106419 0.691591 0.020000
0.145428 0.691591 0.020000
0.182056 0.691591 0.020000
0.217220 0.691591 0.020000
0.251332 0.691591 0.020000
0.284630 0.691591 0.020000
0.317265 0.691591 0.020000
0.349343 0.691591 0.020000
0.380943 0.691591 0.020000
0.412123 0.691591 0.020000
0.442930 0.691591 0.020000
0.473403 0.691591 0.020000
0.503572 0.691591 0.020000
0.533464 0.691591 0.020000
0.563100 0.691591 0.020000
0.592500 0.691591 0.020000
0.621680 0.691591 0.020000
0.650655 0.691591 0.020000
0.679437 0.691591 0.020000
0.708038 0.691591 0.020000
0.736468 0.691591 0.020000
0.764735 0.691591 0.020000
0.792849 0.691591 0.020000
0.820817 0.691591 0.020000
0.848645 0.691591 0.020000
0.876339 0.691591 0.020000
0.903906 0.691591 0.020000
0.931351 0.691591 0.020000
0.958678 0.691591 0.020000
0.985893 0.691591 0.020000
1.000000 0.691591 0.020000
1.000000 0.691591 0.020000
0.060000 0.720083 0.020000
0.106419 0.720083 0.020000
0.145428 0.720083 0.020000
0.182056 0.720083 0.020000
0.217220 0.720083 0.020000
0.251332 0.720083 0.020000
0.284630 0.720083 0.020000
0.317265 0.720083 0.020000
0.349343 0.720083 0.020000
0.380943 0.720083 0.020000
0.412123 0.720083 0.020000
0.442930 0.720083 0.020000
0.473403 0.720083 0.020000
0.503572 0.720083 0.020000
0.533464 0.720083 0.020000
0.563100 0.720083 0.020000
0.592500 0.720083 0.020000
0.621680 0.720083 0.020000
0.650655 0.720083 0.020000
0.679437 0.720083 0.020000
0.708038 0.720083 0.020000
0.736468 0.720083 0.020000
0.764735 0.720083 0.020000
0.792849 0.720083 0.020000
0.820817 0.720083 0.020000
0.848645 0.720083 0.020000
0.876339 0.720083 0.020000
0.903906 0.720083 0.020000
0.931351 0.720083 0.020000
0.958678 0.720083 0.020000
0.985893 0.720083 0.020000
1.000000 0.720083 0.020000
1.000000 0.720083 0.020000
0.060000 0.748472 0.020000
0.106419 0.748472 0.020000
0.145428 0.748472 0.020000
0.182056 0.748472 0.020000
0.217220 0.748472 0.020000
0.251332 0.748472 0.020000
0.284630 0.748472 0.020000
0.317265 0.748472 0.020000
0.349343 0.748472 0.020000
0.380943 0.748472 0.020000
0.412123 0.748472 0.020000
0.442930 0.748472 0.020000
0.473403 0.748472 0.020000
0.503572 0.748472 0.020000
0.533464 0.748472 0.020000
0.563100 0.748472 0.020000
0.592500 0.748472 0.020000
0.621680 0.748472 0.020000
0.650655 0.748472 0.020000
0.679437 0.748472 0.020000
0.708038 0.748472 0.020000
0.736468 0.748472 0.020000
0.764735 0.748472 0.020000
0.792849 0.748472 0.020000
0.820817 0.748472 0.020000
0.848645 0.748472 0.020000
0.876339 0.748472 0.020000
0.903906 0.748472 0.020000
0.931351 0.748472 0.020000
0.958678 0.748472 0.020000
0.985893 0.748472 0.020000
1.000000 0.748472 0.020000
1.000000 0.748472 0.020000
0.060000 0.776763 0.020000
0.106419 0.776763 0.020000
0.145428 0.776763 0.020000
0.182056 0.776763 0.020000
0.217220 0.776763 0.020000
0.251332 0.776763 0.020000
0.284630 0.776763 0.020000
0.317265 0.776763 0.020000
0.349343 0.776763 0.020000
0.380943 0.776763 0.020000
0.412123 0.776763 0.020000
0.442930 0.776763 0.020000
0.473403 0.776763 0.020000
0.503572 0.776763 0.020000
0.533464 0.776763 0.020000
0.563100 0.776763 0.020000
0.592500 0.776763 0.020000
0.621680 0.776763 0.020000
0.650655 0.776763 0.020000
0.679437 0.776763 0.020000
0.708038 0.776763 0.020000
0.736468 0.776763 0.020000
0.764735 0.776763 0.020000
0.792849 0.776763 0.020000
0.820817 0.776763 0.020000
0.848645 0.776763 0.020000
0.876339 0.776763 0.020000
0.903906 0.776763 0.020000
0.931351 0.776763 0.020000
0.958678 0.776763 0.020000
0.985893 0.776763 0.020000
1.000000 0.776763 0.020000
1.000000 0.776763 0.020000
0.060000 0.804959 0.020000
0.106419 0.804959 0.020000
0.145428 0.804959 0.020000
0.182056 0.804959 0.020000
0.217220 0.804959 0.020000
0.251332 0.804959 0.020000
0.284630 0.804959 0.020000
0.317265 0.804959 0.020000
0.349343 0.804959 0.020000
0.380943 0.804959 0.020000
0.412123 0.804959 0.020000
0.442930 0.804959 0.020000
0.473403 0.804959 0.020000
0.503572 0.804959 0.020000
0.533464 0.804959 0.020000
0.563100 0.804959 0.020000
0.592500 0.804959 0.020000
0.621680 0.804959 0.020000
0.650655 0.804959 0.020000
0.679437 0.804959 0.020000
0.708038 0.804959 0.020000
0.736468 0.804959 0.020000
0.764735 0.804959 0.020000
0.792849 0.804959 0.020000
0.820817 0.804959 0.020000
0.848645 0.804959 0.020000
0.876339 0.804959 0.020000
0.903906 0.804959 0.020000
0.931351 0.804959 0.020000
0.958678 0.804959 0.020000
0.985893 0.804959 0.020000
1.000000 0.804959 0.020000
1.000000 0.804959 0.020000
0.060000 0.833065 0.020000
0.106419 0.833065 0.020000
0.145428 0.833065 0.020000
0.182056 0.833065 0.020000
0.217220 0.833065 0.020000
0.251332 0.833065 0.020000
0.284630 0.833065 0.020000
0.317265 0.833065 0.020000
0.349343 0.833065 0.020000
0.380943 0.833065 0.020000
0.412123 0.833065 0.020000
0.442930 0.833065 0.020000
0.473403 0.833065 0.020000
0.503572 0.833065 0.020000
0.533464 0.833065 0.020000
0.563100 0.833065 0.020000
0.592500 0.833065 0.020000
0.621680 0.833065 0.020000
0.650655 0.833065 0.020000
0.679437 0.833065 0.020000
0.708038 0.833065 0.020000
0.736468 0.833065 0.020000
0.764735 0.833065 0.020000
0.792849 0.833065 0.020000
0.820817 0.833065 0.020000
0.848645 0.833065 0.020000
0.876339 0.833065 0.020000
