app/src/main/assets/luts/disposable.cube
TITLE "Disposable"
LUT_3D_SIZE 9
DOMAIN_MIN 0.0 0.0 0.0
DOMAIN_MAX 1.0 1.0 1.0
0.060000 0.040000 0.020000
0.217220 0.040000 0.020000
0.349343 0.040000 0.020000
0.473403 0.040000 0.020000
0.592500 0.040000 0.020000
0.708038 0.040000 0.020000
0.820817 0.040000 0.020000
0.931351 0.040000 0.020000
1.000000 0.040000 0.020000
0.060000 0.181719 0.020000
0.217220 0.181719 0.020000
0.349343 0.181719 0.020000
0.473403 0.181719 0.020000
0.592500 0.181719 0.020000
0.708038 0.181719 0.020000
0.820817 0.181719 0.020000
0.931351 0.181719 0.020000
1.000000 0.181719 0.020000
0.060000 0.308149 0.020000
0.217220 0.308149 0.020000
0.349343 0.308149 0.020000
0.473403 0.308149 0.020000
0.592500 0.308149 0.020000
0.708038 0.308149 0.020000
0.820817 0.308149 0.020000
0.931351 0.308149 0.020000
1.000000 0.308149 0.020000
0.060000 0.429386 0.020000
0.217220 0.429386 0.020000
0.349343 0.429386 0.020000
0.473403 0.429386 0.020000
0.592500 0.429386 0.020000
0.708038 0.429386 0.020000
0.820817 0.429386 0.020000
0.931351 0.429386 0.020000
1.000000 0.429386 0.020000
0.060000 0.547369 0.020000
0.217220 0.547369 0.020000
0.349343 0.547369 0.020000
0.473403 0.547369 0.020000
0.592500 0.547369 0.020000
0.708038 0.547369 0.020000
0.820817 0.547369 0.020000
0.931351 0.547369 0.020000
1.000000 0.547369 0.020000
0.060000 0.662990 0.020000
0.217220 0.662990 0.020000
0.349343 0.662990 0.020000
0.473403 0.662990 0.020000
0.592500 0.662990 0.020000
0.708038 0.662990 0.020000
0.820817 0.662990 0.020000
0.931351 0.662990 0.020000
1.000000 0.662990 0.020000
0.060000 0.776763 0.020000
0.217220 0.776763 0.020000
0.349343 0.776763 0.020000
0.473403 0.776763 0.020000
0.592500 0.776763 0.020000
0.708038 0.776763 0.020000
0.820817 0.776763 0.020000
0.931351 0.776763 0.020000
1.000000 0.776763 0.020000
0.060000 0.889021 0.020000
0.217220 0.889021 0.020000
0.349343 0.889021 0.020000
0.473403 0.889021 0.020000
0.592500 0.889021 0.020000
0.708038 0.889021 0.020000
0.820817 0.889021 0.020000
0.931351 0.889021 0.020000
1.000000 0.889021 0.020000
0.060000 1.000000 0.020000
0.217220 1.000000 0.020000
0.349343 1.000000 0.020000
0.473403 1.000000 0.020000
0.592500 1.000000 0.020000
0.708038 1.000000 0.020000
0.820817 1.000000 0.020000
0.931351 1.000000 0.020000
1.000000 1.000000 0.020000
0.060000 0.040000 0.127917
0.217220 0.040000 0.127917
0.349343 0.040000 0.127917
0.473403 0.040000 0.127917
0.592500 0.040000 0.127917
0.708038 0.040000 0.127917
0.820817 0.040000 0.127917
0.931351 0.040000 0.127917
1.000000 0.040000 0.127917
0.060000 0.181719 0.127917
0.217220 0.181719 0.127917
0.349343 0.181719 0.127917
0.473403 0.181719 0.127917
0.592500 0.181719 0.127917
0.708038 0.181719 0.127917
0.820817 0.181719 0.127917
0.931351 0.181719 0.127917
1.000000 0.181719 0.127917
0.060000 0.308149 0.127917
0.217220 0.308149 0.127917
0.349343 0.308149 0.127917
0.473403 0.308149 0.127917
0.592500 0.308149 0.127917
0.708038 0.308149 0.127917
0.820817 0.308149 0.127917
0.931351 0.308149 0.127917
1.000000 0.308149 0.127917
0.060000 0.429386 0.127917
0.217220 0.429386 0.127917
0.349343 0.429386 0.127917
0.473403 0.429386 0.127917
0.592500 0.429386 0.127917
0.708038 0.429386 0.127917
0.820817 0.429386 0.127917
0.931351 0.429386 0.127917
1.000000 0.429386 0.127917
0.060000 0.547369 0.127917
0.217220 0.547369 0.127917
0.349343 0.547369 0.127917
0.473403 0.547369 0.127917
0.592500 0.547369 0.127917
0.708038 0.547369 0.127917
0.820817 0.547369 0.127917
0.931351 0.547369 0.127917
1.000000 0.547369 0.127917
0.060000 0.662990 0.127917
0.217220 0.662990 0.127917
0.349343 0.662990 0.127917
0.473403 0.662990 0.127917
0.592500 0.662990 0.127917
0.708038 0.662990 0.127917
0.820817 0.662990 0.127917
0.931351 0.662990 0.127917
1.000000 0.662990 0.127917
0.060000 0.776763 0.127917
0.217220 0.776763 0.127917
0.349343 0.776763 0.127917
0.473403 0.776763 0.127917
0.592500 0.776763 0.127917
0.708038 0.776763 0.127917
0.820817 0.776763 0.127917
0.931351 0.776763 0.127917
1.000000 0.776763 0.127917
0.060000 0.889021 0.127917
0.217220 0.889021 0.127917
0.349343 0.889021 0.127917
0.473403 0.889021 0.127917
0.592500 0.889021 0.127917
0.708038 0.889021 0.127917
0.820817 0.889021 0.127917
0.931351 0.889021 0.127917
1.000000 0.889021 0.127917
0.060000 1.000000 0.127917
0.217220 1.000000 0.127917
0.349343 1.000000 0.127917
0.473403 1.000000 0.127917
0.592500 1.000000 0.127917
0.708038 1.000000 0.127917
0.820817 1.000000 0.127917
0.931351 1.000000 0.127917
1.000000 1.000000 0.127917
0.060000 0.040000 0.238847
0.217220 0.040000 0.238847
0.349343 0.040000 0.238847
0.473403 0.040000 0.238847
0.592500 0.040000 0.238847
0.708038 0.040000 0.238847
0.820817 0.040000 0.238847
0.931351 0.040000 0.238847
1.000000 0.040000 0.238847
0.060000 0.181719 0.238847
0.217220 0.181719 0.238847
0.349343 0.181719 0.238847
0.473403 0.181719 0.238847
0.592500 0.181719 0.238847
0.708038 0.181719 0.238847
0.820817 0.181719 0.238847
0.931351 0.181719 0.238847
1.000000 0.181719 0.238847
0.060000 0.308149 0.238847
0.217220 0.308149 0.238847
0.349343 0.308149 0.238847
0.473403 0.308149 0.238847
0.592500 0.308149 0.238847
0.708038 0.308149 0.238847
0.820817 0.308149 0.238847
0.931351 0.308149 0.238847
1.000000 0.308149 0.238847
0.060000 0.429386 0.238847
0.217220 0.429386 0.238847
0.349343 0.429386 0.238847
0.473403 0.429386 0.238847
0.592500 0.429386 0.238847
0.708038 0.429386 0.238847
0.820817 0.429386 0.238847
0.931351 0.429386 0.238847
1.000000 0.429386 0.238847
0.060000 0.547369 0.238847
0.217220 0.547369 0.238847
0.349343 0.547369 0.238847
0.473403 0.547369 0.238847
0.592500 0.547369 0.238847
0.708038 0.547369 0.238847
0.820817 0.547369 0.238847
0.931351 0.547369 0.238847
1.000000 0.547369 0.238847
0.060000 0.662990 0.238847
0.217220 0.662990 0.238847
0.349343 0.662990 0.238847
0.473403 0.662990 0.238847
0.592500 0.662990 0.238847
0.708038 0.662990 0.238847
0.820817 0.662990 0.238847
0.931351 0.662990 0.238847
1.000000 0.662990 0.238847
0.060000 0.776763 0.238847
0.217220 0.776763 0.238847
0.349343 0.776763 0.238847
0.473403 0.776763 0.238847
0.592500 0.776763 0.238847
0.708038 0.776763 0.238847
0.820817 0.776763 0.238847
0.931351 0.776763 0.238847
1.000000 0.776763 0.238847
0.060000 0.889021 0.238847
0.217220 0.889021 0.238847
0.349343 0.889021 0.238847
0.473403 0.889021 0.238847
0.592500 0.889021 0.238847
0.708038 0.889021 0.238847
0.820817 0.889021 0.238847
0.931351 0.889021 0.238847
1.000000 0.889021 0.238847
0.060000 1.000000 0.238847
0.217220 1.000000 0.238847
0.349343 1.000000 0.238847
0.473403 1.000000 0.238847
0.592500 1.000000 0.238847
0.708038 1.000000 0.238847
0.820817 1.000000 0.238847
0.931351 1.000000 0.238847
1.000000 1.000000 0.238847
0.060000 0.040000 0.350944
0.217220 0.040000 0.350944
0.349343 0.040000 0.350944
0.473403 0.040000 0.350944
0.592500 0.040000 0.350944
0.708038 0.040000 0.350944
0.820817 0.040000 0.350944
0.931351 0.040000 0.350944
1.000000 0.040000 0.350944
0.060000 0.181719 0.350944
0.217220 0.181719 0.350944
0.349343 0.181719 0.350944
0.473403 0.181719 0.350944
0.592500 0.181719 0.350944
0.708038 0.181719 0.350944
0.820817 0.181719 0.350944
0.931351 0.181719 0.350944
1.000000 0.181719 0.350944
0.060000 0.308149 0.350944
0.217220 0.308149 0.350944
0.349343 0.308149 0.350944
0.473403 0.308149 0.350944
0.592500 0.308149 0.350944
0.708038 0.308149 0.350944
0.820817 0.308149 0.350944
0.931351 0.308149 0.350944
1.000000 0.308149 0.350944
0.060000 0.429386 0.350944
0.217220 0.429386 0.350944
0.349343 0.429386 0.350944
0.473403 0.429386 0.350944
0.592500 0.429386 0.350944
0.708038 0.429386 0.350944
0.820817 0.429386 0.350944
0.931351 0.429386 0.350944
1.000000 0.429386 0.350944
0.060000 0.547369 0.350944
0.217220 0.547369 0.350944
0.349343 0.547369 0.350944
0.473403 0.547369 0.350944
0.592500 0.547369 0.350944
0.708038 0.547369 0.350944
0.820817 0.547369 0.350944
0.931351 0.547369 0.350944
1.000000 0.547369 0.350944
0.060000 0.662990 0.350944
0.217220 0.662990 0.350944
0.349343 0.662990 0.350944
0.473403 0.662990 0.350944
0.592500 0.662990 0.350944
0.708038 0.662990 0.350944
0.820817 0.662990 0.350944
0.931351 0.662990 0.350944
1.000000 0.662990 0.350944
0.060000 0.776763 0.350944
0.217220 0.776763 0.350944
0.349343 0.776763 0.350944
0.473403 0.776763 0.350944
0.592500 0.776763 0.350944
0.708038 0.776763 0.350944
0.820817 0.776763 0.350944
0.931351 0.776763 0.350944
1.000000 0.776763 0.350944
0.060000 0.889021 0.350944
0.217220 0.889021 0.350944
0.349343 0.889021 0.350944
0.473403 0.889021 0.350944
0.592500 0.889021 0.350944
0.708038 0.889021 0.350944
0.820817 0.889021 0.350944
0.931351 0.889021 0.350944
1.000000 0.889021 0.350944
0.060000 1.000000 0.350944
0.217220 1.000000 0.350944
0.349343 1.000000 0.350944
0.473403 1.000000 0.350944
0.592500 1.000000 0.350944
0.708038 1.000000 0.350944
0.820817 1.000000 0.350944
0.931351 1.000000 0.350944
1.000000 1.000000 0.350944
0.060000 0.040000 0.463805
0.217220 0.040000 0.463805
0.349343 0.040000 0.463805
0.473403 0.040000 0.463805
0.592500 0.040000 0.463805
0.708038 0.040000 0.463805
0.820817 0.040000 0.463805
0.931351 0.040000 0.463805
1.000000 0.040000 0.463805
0.060000 0.181719 0.463805
0.217220 0.181719 0.463805
0.349343 0.181719 0.463805
0.473403 0.181719 0.463805
0.592500 0.181719 0.463805
0.708038 0.181719 0.463805
0.820817 0.181719 0.463805
0.931351 0.181719 0.463805
1.000000 0.181719 0.463805
0.060000 0.308149 0.463805
0.217220 0.308149 0.463805
0.349343 0.308149 0.463805
0.473403 0.308149 0.463805
0.592500 0.308149 0.463805
0.708038 0.308149 0.463805
0.820817 0.308149 0.463805
0.931351 0.308149 0.463805
1.000000 0.308149 0.463805
0.060000 0.429386 0.463805
0.217220 0.429386 0.463805
0.349343 0.429386 0.463805
0.473403 0.429386 0.463805
0.592500 0.429386 0.463805
0.708038 0.429386 0.463805
0.820817 0.429386 0.463805
0.931351 0.429386 0.463805
1.000000 0.429386 0.463805
0.060000 0.547369 0.463805
0.217220 0.547369 0.463805
0.349343 0.547369 0.463805
0.473403 0.547369 0.463805
0.592500 0.547369 0.463805
0.708038 0.547369 0.463805
0.820817 0.547369 0.463805
0.931351 0.547369 0.463805
1.000000 0.547369 0.463805
0.060000 0.662990 0.463805
0.217220 0.662990 0.463805
0.349343 0.662990 0.463805
0.473403 0.662990 0.463805
0.592500 0.662990 0.463805
0.708038 0.662990 0.463805
0.820817 0.662990 0.463805
0.931351 0.662990 0.463805
1.000000 0.662990 0.463805
0.060000 0.776763 0.463805
0.217220 0.776763 0.463805
0.349343 0.776763 0.463805
0.473403 0.776763 0.463805
0.592500 0.776763 0.463805
0.708038 0.776763 0.463805
0.820817 0.776763 0.463805
0.931351 0.776763 0.463805
1.000000 0.776763 0.463805
0.060000 0.889021 0.463805
0.217220 0.889021 0.463805
0.349343 0.889021 0.463805
0.473403 0.889021 0.463805
0.592500 0.889021 0.463805
0.708038 0.889021 0.463805
0.820817 0.889021 0.463805
0.931351 0.889021 0.463805
1.000000 0.889021 0.463805
0.060000 1.000000 0.463805
0.217220 1.000000 0.463805
0.349343 1.000000 0.463805
0.473403 1.000000 0.463805
0.592500 1.000000 0.463805
0.708038 1.000000 0.463805
0.820817 1.000000 0.463805
0.931351 1.000000 0.463805
1.000000 1.000000 0.463805
0.060000 0.040000 0.577237
0.217220 0.040000 0.577237
0.349343 0.040000 0.577237
0.473403 0.040000 0.577237
0.592500 0.040000 0.577237
0.708038 0.040000 0.577237
0.820817 0.040000 0.577237
0.931351 0.040000 0.577237
1.000000 0.040000 0.577237
0.060000 0.181719 0.577237
0.217220 0.181719 0.577237
0.349343 0.181719 0.577237
0.473403 0.181719 0.577237
0.592500 0.181719 0.577237
0.708038 0.181719 0.577237
0.820817 0.181719 0.577237
0.931351 0.181719 0.577237
1.000000 0.181719 0.577237
0.060000 0.308149 0.577237
0.217220 0.308149 0.577237
0.349343 0.308149 0.577237
0.473403 0.308149 0.577237
0.592500 0.308149 0.577237
0.708038 0.308149 0.577237
0.820817 0.308149 0.577237
0.931351 0.308149 0.577237
1.000000 0.308149 0.577237
0.060000 0.429386 0.577237
0.217220 0.429386 0.577237
0.349343 0.429386 0.577237
0.473403 0.429386 0.577237
0.592500 0.429386 0.577237
0.708038 0.429386 0.577237
0.820817 0.429386 0.577237
0.931351 0.429386 0.577237
1.000000 0.429386 0.577237
0.060000 0.547369 0.577237
0.217220 0.547369 0.577237
0.349343 0.547369 0.577237
0.473403 0.547369 0.577237
0.592500 0.547369 0.577237
0.708038 0.547369 0.577237
0.820817 0.547369 0.577237
0.931351 0.547369 0.577237
1.000000 0.547369 0.577237
0.060000 0.662990 0.577237
0.217220 0.662990 0.577237
0.349343 0.662990 0.577237
0.473403 0.662990 0.577237
0.592500 0.662990 0.577237
0.708038 0.662990 0.577237
0.820817 0.662990 0.577237
0.931351 0.662990 0.577237
1.000000 0.662990 0.577237
0.060000 0.776763 0.577237
0.217220 0.776763 0.577237
0.349343 0.776763 0.577237
0.473403 0.776763 0.577237
0.592500 0.776763 0.577237
0.708038 0.776763 0.577237
0.820817 0.776763 0.577237
0.931351 0.776763 0.577237
1.000000 0.776763 0.577237
0.060000 0.889021 0.577237
0.217220 0.889021 0.577237
0.349343 0.889021 0.577237
0.473403 0.889021 0.577237
0.592500 0.889021 0.577237
0.708038 0.889021 0.577237
0.820817 0.889021 0.577237
0.931351 0.889021 0.577237
1.000000 0.889021 0.577237
0.060000 1.000000 0.577237
0.217220 1.000000 0.577237
0.349343 1.000000 0.577237
0.473403 1.000000 0.577237
0.592500 1.000000 0.577237
0.708038 1.000000 0.577237
0.820817 1.000000 0.577237
0.931351 1.000000 0.577237
1.000000 1.000000 0.577237
0.060000 0.040000 0.691127
0.217220 0.040000 0.691127
0.349343 0.040000 0.691127
0.473403 0.040000 0.691127
0.592500 0.040000 0.691127
0.708038 0.040000 0.691127
0.820817 0.040000 0.691127
0.931351 0.040000 0.691127
1.000000 0.040000 0.691127
0.060000 0.181719 0.691127
0.217220 0.181719 0.691127
0.349343 0.181719 0.691127
0.473403 0.181719 0.691127
0.592500 0.181719 0.691127
0.708038 0.181719 0.691127
0.820817 0.181719 0.691127
0.931351 0.181719 0.691127
1.000000 0.181719 0.691127
0.060000 0.308149 0.691127
0.217220 0.308149 0.691127
0.349343 0.308149 0.691127
0.473403 0.308149 0.691127
0.592500 0.308149 0.691127
0.708038 0.308149 0.691127
0.820817 0.308149 0.691127
0.931351 0.308149 0.691127
1.000000 0.308149 0.691127
0.060000 0.429386 0.691127
0.217220 0.429386 0.691127
0.349343 0.429386 0.691127
0.473403 0.429386 0.691127
0.592500 0.429386 0.691127
0.708038 0.429386 0.691127
0.820817 0.429386 0.691127
0.931351 0.429386 0.691127
1.000000 0.429386 0.691127
0.060000 0.547369 0.691127
0.217220 0.547369 0.691127
0.349343 0.547369 0.691127
0.473403 0.547369 0.691127
0.592500 0.547369 0.691127
0.708038 0.547369 0.691127
0.820817 0.547369 0.691127
0.931351 0.547369 0.691127
1.000000 0.547369 0.691127
0.060000 0.662990 0.691127
0.217220 0.662990 0.691127
0.349343 0.662990 0.691127
0.473403 0.662990 0.691127
0.592500 0.662990 0.691127
0.708038 0.662990 0.691127
0.820817 0.662990 0.691127
0.931351 0.662990 0.691127
1.000000 0.662990 0.691127
0.060000 0.776763 0.691127
0.217220 0.776763 0.691127
0.349343 0.776763 0.691127
0.473403 0.776763 0.691127
0.592500 0.776763 0.691127
0.708038 0.776763 0.691127
0.820817 0.776763 0.691127
0.931351 0.776763 0.691127
1.000000 0.776763 0.691127
0.060000 0.889021 0.691127
0.217220 0.889021 0.691127
0.349343 0.889021 0.691127
0.473403 0.889021 0.691127
0.592500 0.889021 0.691127
0.708038 0.889021 0.691127
0.820817 0.889021 0.691127
0.931351 0.889021 0.691127
1.000000 0.889021 0.691127
0.060000 1.000000 0.691127
0.217220 1.000000 0.691127
0.349343 1.000000 0.691127
0.473403 1.000000 0.691127
0.592500 1.000000 0.691127
0.708038 1.000000 0.691127
0.820817 1.000000 0.691127
0.931351 1.000000 0.691127
1.000000 1.000000 0.691127
0.060000 0.040000 0.805400
0.217220 0.040000 0.805400
0.349343 0.040000 0.805400
0.473403 0.040000 0.805400
0.592500 0.040000 0.805400
0.708038 0.040000 0.805400
0.820817 0.040000 0.805400
0.931351 0.040000 0.805400
1.000000 0.040000 0.805400
0.060000 0.181719 0.805400
0.217220 0.181719 0.805400
0.349343 0.181719 0.805400
0.473403 0.181719 0.805400
0.592500 0.181719 0.805400
0.708038 0.181719 0.805400
0.820817 0.181719 0.805400
0.931351 0.181719 0.805400
1.000000 0.181719 0.805400
0.060000 0.308149 0.805400
0.217220 0.308149 0.805400
0.349343 0.308149 0.805400
0.473403 0.308149 0.805400
0.592500 0.308149 0.805400
0.708038 0.308149 0.805400
0.820817 0.308149 0.805400
0.931351 0.308149 0.805400
1.000000 0.308149 0.805400
0.060000 0.429386 0.805400
0.217220 0.429386 0.805400
0.349343 0.429386 0.805400
0.473403 0.429386 0.805400
0.592500 0.429386 0.805400
0.708038 0.429386 0.805400
0.820817 0.429386 0.805400
0.931351 0.429386 0.805400
1.000000 0.429386 0.805400
0.060000 0.547369 0.805400
0.217220 0.547369 0.805400
0.349343 0.547369 0.805400
0.473403 0.547369 0.805400
0.592500 0.547369 0.805400
0.708038 0.547369 0.805400
0.820817 0.547369 0.805400
0.931351 0.547369 0.805400
1.000000 0.547369 0.805400
0.060000 0.662990 0.805400
0.217220 0.662990 0.805400
0.349343 0.662990 0.805400
0.473403 0.662990 0.805400
0.592500 0.662990 0.805400
0.708038 0.662990 0.805400
0.820817 0.662990 0.805400
0.931351 0.662990 0.805400
1.000000 0.662990 0.805400
0.060000 0.776763 0.805400
0.217220 0.776763 0.805400
0.349343 0.776763 0.805400
0.473403 0.776763 0.805400
0.592500 0.776763 0.805400
0.708038 0.776763 0.805400
0.820817 0.776763 0.805400
0.931351 0.776763 0.805400
1.000000 0.776763 0.805400
0.060000 0.889021 0.805400
0.217220 0.889021 0.805400
0.349343 0.889021 0.805400
0.473403 0.889021 0.805400
0.592500 0.889021 0.805400
0.708038 0.889021 0.805400
0.820817 0.889021 0.805400
0.931351 0.889021 0.805400
1.000000 0.889021 0.805400
0.060000 1.000000 0.805400
0.217220 1.000000 0.805400
0.349343 1.000000 0.805400
0.473403 1.000000 0.805400
0.592500 1.000000 0.805400
0.708038 1.000000 0.805400
0.820817 1.000000 0.805400
0.931351 1.000000 0.805400
1.000000 1.000000 0.805400
0.060000 0.040000 0.920000
0.217220 0.040000 0.920000
0.349343 0.040000 0.920000
0.473403 0.040000 0.920000
0.592500 0.040000 0.920000
0.708038 0.040000 0.920000
0.820817 0.040000 0.920000
0.931351 0.040000 0.920000
1.000000 0.040000 0.920000
0.060000 0.181719 0.920000
0.217220 0.181719 0.920000
0.349343 0.181719 0.920000
0.473403 0.181719 0.920000
0.592500 0.181719 0.920000
0.708038 0.181719 0.920000
0.820817 0.181719 0.920000
0.931351 0.181719 0.920000
1.000000 0.181719 0.920000
0.060000 0.308149 0.920000
0.217220 0.308149 0.920000
0.349343 0.308149 0.920000
0.473403 0.308149 0.920000
0.592500 0.308149 0.920000
0.708038 0.308149 0.920000
0.820817 0.308149 0.920000
0.931351 0.308149 0.920000
1.000000 0.308149 0.920000
0.060000 0.429386 0.920000
0.217220 0.429386 0.920000
0.349343 0.429386 0.920000
0.473403 0.429386 0.920000
0.592500 0.429386 0.920000
0.708038 0.429386 0.920000
0.820817 0.429386 0.920000
0.931351 0.429386 0.920000
1.000000 0.429386 0.920000
0.060000 0.547369 0.920000
0.217220 0.547369 0.920000
0.349343 0.547369 0.920000
0.473403 0.547369 0.920000
0.592500 0.547369 0.920000
0.708038 0.547369 0.920000
0.820817 0.547369 0.920000
0.931351 0.547369 0.920000
1.000000 0.547369 0.920000
0.060000 0.662990 0.920000
0.217220 0.662990 0.920000
0.349343 0.662990 0.920000
0.473403 0.662990 0.920000
0.592500 0.662990 0.920000
0.708038 0.662990 0.920000
0.820817 0.662990 0.920000
0.931351 0.662990 0.920000
1.000000 0.662990 0.920000
0.060000 0.776763 0.920000
0.217220 0.776763 0.920000
0.349343 0.776763 0.920000
0.473403 0.776763 0.920000
0.592500 0.776763 0.920000
0.708038 0.776763 0.920000
0.820817 0.776763 0.920000
0.931351 0.776763 0.920000
1.000000 0.776763 0.920000
0.060000 0.889021 0.920000
0.217220 0.889021 0.920000
0.349343 0.889021 0.920000
0.473403 0.889021 0.920000
0.592500 0.889021 0.920000
0.708038 0.889021 0.920000
0.820817 0.889021 0.920000
0.931351 0.889021 0.920000
1.000000 0.889021 0.920000
0.060000 1.000000 0.920000
0.217220 1.000000 0.920000
0.349343 1.000000 0.920000
0.473403 1.000000 0.920000
0.592500 1.000000 0.920000
0.708038 1.000000 0.920000
0.820817 1.000000 0.920000
0.931351 1.000000 0.920000
1.000000 1.000000 0.920000
