app/src/main/assets/luts/dreamy.cube
TITLE "Dreamy"
LUT_3D_SIZE 5
DOMAIN_MIN 0.0 0.0 0.0
DOMAIN_MAX 1.0 1.0 1.0
0.062400 0.044800 0.080000
0.301149 0.071338 0.106538
0.525869 0.098304 0.133504
0.744779 0.124574 0.159774
0.960000 0.150400 0.185600
0.084600 0.265000 0.102200
0.301149 0.269338 0.106538
0.525869 0.296304 0.133504
0.744779 0.322574 0.159774
0.960000 0.348400 0.185600
0.111600 0.490000 0.129200
0.323811 0.490000 0.129200
0.525869 0.494304 0.133504
0.744779 0.520574 0.159774
0.960000 0.546400 0.185600
0.138600 0.715000 0.156200
0.350811 0.715000 0.156200
0.548565 0.715000 0.156200
0.744779 0.718574 0.159774
0.960000 0.744400 0.185600
0.165600 0.940000 0.183200
0.377811 0.940000 0.183200
0.575565 0.940000 0.183200
0.768206 0.940000 0.183200
0.960000 0.942400 0.185600
0.092394 0.074794 0.329949
0.304605 0.074794 0.329949
0.525869 0.098304 0.353459
0.744779 0.124574 0.379729
0.960000 0.150400 0.405555
0.092394 0.272794 0.329949
0.304605 0.272794 0.329949
0.525869 0.296304 0.353459
0.744779 0.322574 0.379729
0.960000 0.348400 0.405555
0.111600 0.490000 0.349155
0.323811 0.490000 0.349155
0.525869 0.494304 0.353459
0.744779 0.520574 0.379729
0.960000 0.546400 0.405555
0.138600 0.715000 0.376155
0.350811 0.715000 0.376155
0.548565 0.715000 0.376155
0.744779 0.718574 0.379729
0.960000 0.744400 0.405555
0.165600 0.940000 0.403155
0.377811 0.940000 0.403155
0.575565 0.940000 0.403155
0.768206 0.940000 0.403155
0.960000 0.942400 0.405555
0.119944 0.102344 0.559534
0.332155 0.102344 0.559534
0.529909 0.102344 0.559534
0.744779 0.124574 0.581764
0.960000 0.150400 0.607590
0.119944 0.300344 0.559534
0.332155 0.300344 0.559534
0.529909 0.300344 0.559534
0.744779 0.322574 0.581764
0.960000 0.348400 0.607590
0.119944 0.498344 0.559534
0.332155 0.498344 0.559534
0.529909 0.498344 0.559534
0.744779 0.520574 0.581764
0.960000 0.546400 0.607590
0.138600 0.715000 0.578190
0.350811 0.715000 0.578190
0.548565 0.715000 0.578190
0.744779 0.718574 0.581764
0.960000 0.744400 0.607590
0.165600 0.940000 0.605190
0.377811 0.940000 0.605190
0.575565 0.940000 0.605190
0.768206 0.940000 0.605190
0.960000 0.942400 0.607590
0.146642 0.129042 0.782013
0.358853 0.129042 0.782013
0.556607 0.129042 0.782013
0.749248 0.129042 0.782013
0.960000 0.150400 0.803372
0.146642 0.327042 0.782013
0.358853 0.327042 0.782013
0.556607 0.327042 0.782013
0.749248 0.327042 0.782013
0.960000 0.348400 0.803372
0.146642 0.525042 0.782013
0.358853 0.525042 0.782013
0.556607 0.525042 0.782013
0.749248 0.525042 0.782013
0.960000 0.546400 0.803372
0.146642 0.723042 0.782013
0.358853 0.723042 0.782013
0.556607 0.723042 0.782013
0.749248 0.723042 0.782013
0.960000 0.744400 0.803372
0.165600 0.940000 0.800972
0.377811 0.940000 0.800972
0.575565 0.940000 0.800972
0.768206 0.940000 0.800972
0.960000 0.942400 0.803372
0.172800 0.155200 1.000000
0.385011 0.155200 1.000000
0.582765 0.155200 1.000000
0.775406 0.155200 1.000000
0.964800 0.155200 1.000000
0.172800 0.353200 1.000000
0.385011 0.353200 1.000000
0.582765 0.353200 1.000000
0.775406 0.353200 1.000000
0.964800 0.353200 1.000000
0.172800 0.551200 1.000000
0.385011 0.551200 1.000000
0.582765 0.551200 1.000000
0.775406 0.551200 1.000000
0.964800 0.551200 1.000000
0.172800 0.749200 1.000000
0.385011 0.749200 1.000000
0.582765 0.749200 1.000000
0.775406 0.749200 1.000000
0.964800 0.749200 1.000000
0.172800 0.947200 1.000000
0.385011 0.947200 1.000000
0.582765 0.947200 1.000000
0.775406 0.947200 1.000000
0.964800 0.947200 1.000000
