app/src/main/assets/luts/dreamy.cube
TITLE "Dreamy"
LUT_3D_SIZE 33
DOMAIN_MIN 0.0 0.0 0.0
DOMAIN_MAX 1.0 1.0 1.0
0.062400 0.044800 0.080000
0.093446 0.046414 0.081614
0.124614 0.050154 0.085354
0.154976 0.053797 0.088997
0.184827 0.057379 0.092579
0.214302 0.060916 0.096116
0.243482 0.064418 0.099618
0.272419 0.067890 0.103090
0.301149 0.071338 0.106538
0.329700 0.074764 0.109964
0.358092 0.078171 0.113371
0.386342 0.081561 0.116761
0.414464 0.084936 0.120136
0.442469 0.088296 0.123496
0.470366 0.091644 0.126844
0.498164 0.094980 0.130180
0.525869 0.098304 0.133504
0.553488 0.101619 0.136819
0.581025 0.104923 0.140123
0.608487 0.108218 0.143418
0.635875 0.111505 0.146705
0.663196 0.114784 0.149984
0.690451 0.118054 0.153254
0.717645 0.121317 0.156517
0.744779 0.124574 0.159774
0.771857 0.127823 0.163023
0.798881 0.131066 0.166266
0.825853 0.134302 0.169502
0.852775 0.137533 0.172733
0.879649 0.140758 0.175958
0.906477 0.143977 0.179177
0.933260 0.147191 0.182391
0.960000 0.150400 0.185600
0.062400 0.069550 0.080000
0.093446 0.071164 0.081614
0.124614 0.074904 0.085354
0.154976 0.078547 0.088997
0.184827 0.082129 0.092579
0.214302 0.085666 0.096116
0.243482 0.089168 0.099618
0.272419 0.092640 0.103090
0.301149 0.096088 0.106538
0.329700 0.099514 0.109964
0.358092 0.102921 0.113371
0.386342 0.106311 0.116761
0.414464 0.109686 0.120136
0.442469 0.113046 0.123496
0.470366 0.116394 0.126844
0.498164 0.119730 0.130180
0.525869 0.123054 0.133504
0.553488 0.126369 0.136819
0.581025 0.129673 0.140123
0.608487 0.132968 0.143418
0.635875 0.136255 0.146705
0.663196 0.139534 0.149984
0.690451 0.142804 0.153254
0.717645 0.146067 0.156517
0.744779 0.149324 0.159774
0.771857 0.152573 0.163023
0.798881 0.155816 0.166266
0.825853 0.159052 0.169502
0.852775 0.162283 0.172733
0.879649 0.165508 0.175958
0.906477 0.168727 0.179177
0.933260 0.171941 0.182391
0.960000 0.175150 0.185600
0.064350 0.096250 0.081950
0.093783 0.096250 0.081950
0.124614 0.099654 0.085354
0.154976 0.103297 0.088997
0.184827 0.106879 0.092579
0.214302 0.110416 0.096116
0.243482 0.113918 0.099618
0.272419 0.117390 0.103090
0.301149 0.120838 0.106538
0.329700 0.124264 0.109964
0.358092 0.127671 0.113371
0.386342 0.131061 0.116761
0.414464 0.134436 0.120136
0.442469 0.137796 0.123496
0.470366 0.141144 0.126844
0.498164 0.144480 0.130180
0.525869 0.147804 0.133504
0.553488 0.151119 0.136819
0.581025 0.154423 0.140123
0.608487 0.157718 0.143418
0.635875 0.161005 0.146705
0.663196 0.164284 0.149984
0.690451 0.167554 0.153254
0.717645 0.170817 0.156517
0.744779 0.174074 0.159774
0.771857 0.177323 0.163023
0.798881 0.180566 0.166266
0.825853 0.183802 0.169502
0.852775 0.187033 0.172733
0.879649 0.190258 0.175958
0.906477 0.193477 0.179177
0.933260 0.196691 0.182391
0.960000 0.199900 0.185600
0.067725 0.124375 0.085325
0.097158 0.124375 0.085325
0.124614 0.124404 0.085354
0.154976 0.128047 0.088997
0.184827 0.131629 0.092579
0.214302 0.135166 0.096116
0.243482 0.138668 0.099618
0.272419 0.142140 0.103090
0.301149 0.145588 0.106538
0.329700 0.149014 0.109964
0.358092 0.152421 0.113371
0.386342 0.155811 0.116761
0.414464 0.159186 0.120136
0.442469 0.162546 0.123496
0.470366 0.165894 0.126844
0.498164 0.169230 0.130180
0.525869 0.172554 0.133504
0.553488 0.175869 0.136819
0.581025 0.179173 0.140123
0.608487 0.182468 0.143418
0.635875 0.185755 0.146705
0.663196 0.189034 0.149984
0.690451 0.192304 0.153254
0.717645 0.195567 0.156517
0.744779 0.198824 0.159774
0.771857 0.202073 0.163023
0.798881 0.205316 0.166266
0.825853 0.208552 0.169502
0.852775 0.211783 0.172733
0.879649 0.215008 0.175958
0.906477 0.218227 0.179177
0.933260 0.221441 0.182391
0.960000 0.224650 0.185600
0.071100 0.152500 0.088700
0.100533 0.152500 0.088700
0.127961 0.152500 0.088700
0.154976 0.152797 0.088997
0.184827 0.156379 0.092579
0.214302 0.159916 0.096116
0.243482 0.163418 0.099618
0.272419 0.166890 0.103090
0.301149 0.170338 0.106538
0.329700 0.173764 0.109964
0.358092 0.177171 0.113371
0.386342 0.180561 0.116761
0.414464 0.183936 0.120136
0.442469 0.187296 0.123496
0.470366 0.190644 0.126844
0.498164 0.193980 0.130180
0.525869 0.197304 0.133504
0.553488 0.200619 0.136819
0.581025 0.203923 0.140123
0.608487 0.207218 0.143418
0.635875 0.210505 0.146705
0.663196 0.213784 0.149984
0.690451 0.217054 0.153254
0.717645 0.220317 0.156517
0.744779 0.223574 0.159774
0.771857 0.226823 0.163023
0.798881 0.230066 0.166266
0.825853 0.233302 0.169502
0.852775 0.236533 0.172733
0.879649 0.239758 0.175958
0.906477 0.242977 0.179177
0.933260 0.246191 0.182391
0.960000 0.249400 0.185600
0.074475 0.180625 0.092075
0.103908 0.180625 0.092075
0.131336 0.180625 0.092075
0.158054 0.180625 0.092075
0.184827 0.181129 0.092579
0.214302 0.184666 0.096116
0.243482 0.188168 0.099618
0.272419 0.191640 0.103090
0.301149 0.195088 0.106538
0.329700 0.198514 0.109964
0.358092 0.201921 0.113371
0.386342 0.205311 0.116761
0.414464 0.208686 0.120136
0.442469 0.212046 0.123496
0.470366 0.215394 0.126844
0.498164 0.218730 0.130180
0.525869 0.222054 0.133504
0.553488 0.225369 0.136819
0.581025 0.228673 0.140123
0.608487 0.231968 0.143418
0.635875 0.235255 0.146705
0.663196 0.238534 0.149984
0.690451 0.241804 0.153254
0.717645 0.245067 0.156517
0.744779 0.248324 0.159774
0.771857 0.251573 0.163023
0.798881 0.254816 0.166266
0.825853 0.258052 0.169502
0.852775 0.261283 0.172733
0.879649 0.264508 0.175958
0.906477 0.267727 0.179177
0.933260 0.270941 0.182391
0.960000 0.274150 0.185600
0.077850 0.208750 0.095450
0.107283 0.208750 0.095450
0.134711 0.208750 0.095450
0.161429 0.208750 0.095450
0.187697 0.208750 0.095450
0.214302 0.209416 0.096116
0.243482 0.212918 0.099618
0.272419 0.216390 0.103090
0.301149 0.219838 0.106538
0.329700 0.223264 0.109964
0.358092 0.226671 0.113371
0.386342 0.230061 0.116761
0.414464 0.233436 0.120136
0.442469 0.236796 0.123496
0.470366 0.240144 0.126844
0.498164 0.243480 0.130180
0.525869 0.246804 0.133504
0.553488 0.250119 0.136819
0.581025 0.253423 0.140123
0.608487 0.256718 0.143418
0.635875 0.260005 0.146705
0.663196 0.263284 0.149984
0.690451 0.266554 0.153254
0.717645 0.269817 0.156517
0.744779 0.273074 0.159774
0.771857 0.276323 0.163023
0.798881 0.279566 0.166266
0.825853 0.282802 0.169502
0.852775 0.286033 0.172733
0.879649 0.289258 0.175958
0.906477 0.292477 0.179177
0.933260 0.295691 0.182391
0.960000 0.298900 0.185600
0.081225 0.236875 0.098825
0.110658 0.236875 0.098825
0.138086 0.236875 0.098825
0.164804 0.236875 0.098825
0.191072 0.236875 0.098825
0.217011 0.236875 0.098825
0.243482 0.237668 0.099618
0.272419 0.241140 0.103090
0.301149 0.244588 0.106538
0.329700 0.248014 0.109964
0.358092 0.251421 0.113371
0.386342 0.254811 0.116761
0.414464 0.258186 0.120136
0.442469 0.261546 0.123496
0.470366 0.264894 0.126844
0.498164 0.268230 0.130180
0.525869 0.271554 0.133504
0.553488 0.274869 0.136819
0.581025 0.278173 0.140123
0.608487 0.281468 0.143418
0.635875 0.284755 0.146705
0.663196 0.288034 0.149984
0.690451 0.291304 0.153254
0.717645 0.294567 0.156517
0.744779 0.297824 0.159774
0.771857 0.301073 0.163023
0.798881 0.304316 0.166266
0.825853 0.307552 0.169502
0.852775 0.310783 0.172733
0.879649 0.314008 0.175958
0.906477 0.317227 0.179177
0.933260 0.320441 0.182391
0.960000 0.323650 0.185600
0.084600 0.265000 0.102200
0.114033 0.265000 0.102200
0.141461 0.265000 0.102200
0.168179 0.265000 0.102200
0.194447 0.265000 0.102200
0.220386 0.265000 0.102200
0.246064 0.265000 0.102200
0.272419 0.265890 0.103090
0.301149 0.269338 0.106538
0.329700 0.272764 0.109964
0.358092 0.276171 0.113371
0.386342 0.279561 0.116761
0.414464 0.282936 0.120136
0.442469 0.286296 0.123496
0.470366 0.289644 0.126844
0.498164 0.292980 0.130180
0.525869 0.296304 0.133504
0.553488 0.299619 0.136819
0.581025 0.302923 0.140123
0.608487 0.306218 0.143418
0.635875 0.309505 0.146705
0.663196 0.312784 0.149984
0.690451 0.316054 0.153254
0.717645 0.319317 0.156517
0.744779 0.322574 0.159774
0.771857 0.325823 0.163023
0.798881 0.329066 0.166266
0.825853 0.332302 0.169502
0.852775 0.335533 0.172733
0.879649 0.338758 0.175958
0.906477 0.341977 0.179177
0.933260 0.345191 0.182391
0.960000 0.348400 0.185600
0.087975 0.293125 0.105575
0.117408 0.293125 0.105575
0.144836 0.293125 0.105575
0.171554 0.293125 0.105575
0.197822 0.293125 0.105575
0.223761 0.293125 0.105575
0.249439 0.293125 0.105575
0.274904 0.293125 0.105575
0.301149 0.294088 0.106538
0.329700 0.297514 0.109964
0.358092 0.300921 0.113371
0.386342 0.304311 0.116761
0.414464 0.307686 0.120136
0.442469 0.311046 0.123496
0.470366 0.314394 0.126844
0.498164 0.317730 0.130180
0.525869 0.321054 0.133504
0.553488 0.324369 0.136819
0.581025 0.327673 0.140123
0.608487 0.330968 0.143418
0.635875 0.334255 0.146705
0.663196 0.337534 0.149984
0.690451 0.340804 0.153254
0.717645 0.344067 0.156517
0.744779 0.347324 0.159774
0.771857 0.350573 0.163023
0.798881 0.353816 0.166266
0.825853 0.357052 0.169502
0.852775 0.360283 0.172733
0.879649 0.363508 0.175958
0.906477 0.366727 0.179177
0.933260 0.369941 0.182391
0.960000 0.373150 0.185600
0.091350 0.321250 0.108950
0.120783 0.321250 0.108950
0.148211 0.321250 0.108950
0.174929 0.321250 0.108950
0.201197 0.321250 0.108950
0.227136 0.321250 0.108950
0.252814 0.321250 0.108950
0.278279 0.321250 0.108950
0.303561 0.321250 0.108950
0.329700 0.322264 0.109964
0.358092 0.325671 0.113371
0.386342 0.329061 0.116761
0.414464 0.332436 0.120136
0.442469 0.335796 0.123496
0.470366 0.339144 0.126844
0.498164 0.342480 0.130180
0.525869 0.345804 0.133504
0.553488 0.349119 0.136819
0.581025 0.352423 0.140123
0.608487 0.355718 0.143418
0.635875 0.359005 0.146705
0.663196 0.362284 0.149984
0.690451 0.365554 0.153254
0.717645 0.368817 0.156517
0.744779 0.372074 0.159774
0.771857 0.375323 0.163023
0.798881 0.378566 0.166266
0.825853 0.381802 0.169502
0.852775 0.385033 0.172733
0.879649 0.388258 0.175958
0.906477 0.391477 0.179177
0.933260 0.394691 0.182391
0.960000 0.397900 0.185600
0.094725 0.349375 0.112325
0.124158 0.349375 0.112325
0.151586 0.349375 0.112325
0.178304 0.349375 0.112325
0.204572 0.349375 0.112325
0.230511 0.349375 0.112325
0.256189 0.349375 0.112325
0.281654 0.349375 0.112325
0.306936 0.349375 0.112325
0.332061 0.349375 0.112325
0.358092 0.350421 0.113371
0.386342 0.353811 0.116761
0.414464 0.357186 0.120136
0.442469 0.360546 0.123496
0.470366 0.363894 0.126844
0.498164 0.367230 0.130180
0.525869 0.370554 0.133504
0.553488 0.373869 0.136819
0.581025 0.377173 0.140123
0.608487 0.380468 0.143418
0.635875 0.383755 0.146705
0.663196 0.387034 0.149984
0.690451 0.390304 0.153254
0.717645 0.393567 0.156517
0.744779 0.396824 0.159774
0.771857 0.400073 0.163023
0.798881 0.403316 0.166266
0.825853 0.406552 0.169502
0.852775 0.409783 0.172733
0.879649 0.413008 0.175958
0.906477 0.416227 0.179177
0.933260 0.419441 0.182391
0.960000 0.422650 0.185600
0.098100 0.377500 0.115700
0.127533 0.377500 0.115700
0.154961 0.377500 0.115700
0.181679 0.377500 0.115700
0.207947 0.377500 0.115700
0.233886 0.377500 0.115700
0.259564 0.377500 0.115700
0.285029 0.377500 0.115700
0.310311 0.377500 0.115700
0.335436 0.377500 0.115700
0.360421 0.377500 0.115700
0.386342 0.378561 0.116761
0.414464 0.381936 0.120136
0.442469 0.385296 0.123496
0.470366 0.388644 0.126844
0.498164 0.391980 0.130180
0.525869 0.395304 0.133504
0.553488 0.398619 0.136819
0.581025 0.401923 0.140123
0.608487 0.405218 0.143418
0.635875 0.408505 0.146705
0.663196 0.411784 0.149984
0.690451 0.415054 0.153254
0.717645 0.418317 0.156517
0.744779 0.421574 0.159774
0.771857 0.424823 0.163023
0.798881 0.428066 0.166266
0.825853 0.431302 0.169502
0.852775 0.434533 0.172733
0.879649 0.437758 0.175958
0.906477 0.440977 0.179177
0.933260 0.444191 0.182391
0.960000 0.447400 0.185600
0.101475 0.405625 0.119075
0.130908 0.405625 0.119075
0.158336 0.405625 0.119075
0.185054 0.405625 0.119075
0.211322 0.405625 0.119075
0.237261 0.405625 0.119075
0.262939 0.405625 0.119075
0.288404 0.405625 0.119075
0.313686 0.405625 0.119075
0.338811 0.405625 0.119075
0.363796 0.405625 0.119075
0.388656 0.405625 0.119075
0.414464 0.406686 0.120136
0.442469 0.410046 0.123496
0.470366 0.413394 0.126844
0.498164 0.416730 0.130180
0.525869 0.420054 0.133504
0.553488 0.423369 0.136819
0.581025 0.426673 0.140123
0.608487 0.429968 0.143418
0.635875 0.433255 0.146705
0.663196 0.436534 0.149984
0.690451 0.439804 0.153254
0.717645 0.443067 0.156517
0.744779 0.446324 0.159774
0.771857 0.449573 0.163023
0.798881 0.452816 0.166266
0.825853 0.456052 0.169502
0.852775 0.459283 0.172733
0.879649 0.462508 0.175958
0.906477 0.465727 0.179177
0.933260 0.468941 0.182391
0.960000 0.472150 0.185600
0.104850 0.433750 0.122450
0.134283 0.433750 0.122450
0.161711 0.433750 0.122450
0.188429 0.433750 0.122450
0.214697 0.433750 0.122450
0.240636 0.433750 0.122450
0.266314 0.433750 0.122450
0.291779 0.433750 0.122450
0.317061 0.433750 0.122450
0.342186 0.433750 0.122450
0.367171 0.433750 0.122450
0.392031 0.433750 0.122450
0.416778 0.433750 0.122450
0.442469 0.434796 0.123496
0.470366 0.438144 0.126844
0.498164 0.441480 0.130180
0.525869 0.444804 0.133504
0.553488 0.448119 0.136819
0.581025 0.451423 0.140123
0.608487 0.454718 0.143418
0.635875 0.458005 0.146705
0.663196 0.461284 0.149984
0.690451 0.464554 0.153254
0.717645 0.467817 0.156517
0.744779 0.471074 0.159774
0.771857 0.474323 0.163023
0.798881 0.477566 0.166266
0.825853 0.480802 0.169502
0.852775 0.484033 0.172733
0.879649 0.487258 0.175958
0.906477 0.490477 0.179177
0.933260 0.493691 0.182391
0.960000 0.496900 0.185600
0.108225 0.461875 0.125825
0.137658 0.461875 0.125825
0.165086 0.461875 0.125825
0.191804 0.461875 0.125825
0.218072 0.461875 0.125825
0.244011 0.461875 0.125825
0.269689 0.461875 0.125825
0.295154 0.461875 0.125825
0.320436 0.461875 0.125825
0.345561 0.461875 0.125825
0.370546 0.461875 0.125825
0.395406 0.461875 0.125825
0.420153 0.461875 0.125825
0.444798 0.461875 0.125825
0.470366 0.462894 0.126844
0.498164 0.466230 0.130180
0.525869 0.469554 0.133504
0.553488 0.472869 0.136819
0.581025 0.476173 0.140123
0.608487 0.479468 0.143418
0.635875 0.482755 0.146705
0.663196 0.486034 0.149984
0.690451 0.489304 0.153254
0.717645 0.492567 0.156517
0.744779 0.495824 0.159774
0.771857 0.499073 0.163023
0.798881 0.502316 0.166266
0.825853 0.505552 0.169502
0.852775 0.508783 0.172733
0.879649 0.512008 0.175958
0.906477 0.515227 0.179177
0.933260 0.518441 0.182391
0.960000 0.521650 0.185600
0.111600 0.490000 0.129200
0.141033 0.490000 0.129200
0.168461 0.490000 0.129200
0.195179 0.490000 0.129200
0.221447 0.490000 0.129200
0.247386 0.490000 0.129200
0.273064 0.490000 0.129200
0.298529 0.490000 0.129200
0.323811 0.490000 0.129200
0.348936 0.490000 0.129200
0.373921 0.490000 0.129200
0.398781 0.490000 0.129200
0.423528 0.490000 0.129200
0.448173 0.490000 0.129200
0.472722 0.490000 0.129200
0.498164 0.490980 0.130180
0.525869 0.494304 0.133504
0.553488 0.497619 0.136819
0.581025 0.500923 0.140123
0.608487 0.504218 0.143418
0.635875 0.507505 0.146705
0.663196 0.510784 0.149984
0.690451 0.514054 0.153254
0.717645 0.517317 0.156517
0.744779 0.520574 0.159774
0.771857 0.523823 0.163023
0.798881 0.527066 0.166266
0.825853 0.530302 0.169502
0.852775 0.533533 0.172733
0.879649 0.536758 0.175958
0.906477 0.539977 0.179177
0.933260 0.543191 0.182391
0.960000 0.546400 0.185600
0.114975 0.518125 0.132575
0.144408 0.518125 0.132575
0.171836 0.518125 0.132575
0.198554 0.518125 0.132575
0.224822 0.518125 0.132575
0.250761 0.518125 0.132575
0.276439 0.518125 0.132575
0.301904 0.518125 0.132575
0.327186 0.518125 0.132575
0.352311 0.518125 0.132575
0.377296 0.518125 0.132575
0.402156 0.518125 0.132575
0.426903 0.518125 0.132575
0.451548 0.518125 0.132575
0.476097 0.518125 0.132575
0.500559 0.518125 0.132575
0.525869 0.519054 0.133504
0.553488 0.522369 0.136819
0.581025 0.525673 0.140123
0.608487 0.528968 0.143418
0.635875 0.532255 0.146705
0.663196 0.535534 0.149984
0.690451 0.538804 0.153254
0.717645 0.542067 0.156517
0.744779 0.545324 0.159774
0.771857 0.548573 0.163023
0.798881 0.551816 0.166266
0.825853 0.555052 0.169502
0.852775 0.558283 0.172733
0.879649 0.561508 0.175958
0.906477 0.564727 0.179177
0.933260 0.567941 0.182391
0.960000 0.571150 0.185600
0.118350 0.546250 0.135950
0.147783 0.546250 0.135950
0.175211 0.546250 0.135950
0.201929 0.546250 0.135950
0.228197 0.546250 0.135950
0.254136 0.546250 0.135950
0.279814 0.546250 0.135950
0.305279 0.546250 0.135950
0.330561 0.546250 0.135950
0.355686 0.546250 0.135950
0.380671 0.546250 0.135950
0.405531 0.546250 0.135950
0.430278 0.546250 0.135950
0.454923 0.546250 0.135950
0.479472 0.546250 0.135950
0.503934 0.546250 0.135950
0.528315 0.546250 0.135950
0.553488 0.547119 0.136819
0.581025 0.550423 0.140123
0.608487 0.553718 0.143418
0.635875 0.557005 0.146705
0.663196 0.560284 0.149984
0.690451 0.563554 0.153254
0.717645 0.566817 0.156517
0.744779 0.570074 0.159774
0.771857 0.573323 0.163023
0.798881 0.576566 0.166266
0.825853 0.579802 0.169502
0.852775 0.583033 0.172733
0.879649 0.586258 0.175958
0.906477 0.589477 0.179177
0.933260 0.592691 0.182391
0.960000 0.595900 0.185600
0.121725 0.574375 0.139325
0.151158 0.574375 0.139325
0.178586 0.574375 0.139325
0.205304 0.574375 0.139325
0.231572 0.574375 0.139325
0.257511 0.574375 0.139325
0.283189 0.574375 0.139325
0.308654 0.574375 0.139325
0.333936 0.574375 0.139325
0.359061 0.574375 0.139325
0.384046 0.574375 0.139325
0.408906 0.574375 0.139325
0.433653 0.574375 0.139325
0.458298 0.574375 0.139325
0.482847 0.574375 0.139325
0.507309 0.574375 0.139325
0.531690 0.574375 0.139325
0.555994 0.574375 0.139325
0.581025 0.575173 0.140123
0.608487 0.578468 0.143418
0.635875 0.581755 0.146705
0.663196 0.585034 0.149984
0.690451 0.588304 0.153254
0.717645 0.591567 0.156517
0.744779 0.594824 0.159774
0.771857 0.598073 0.163023
0.798881 0.601316 0.166266
0.825853 0.604552 0.169502
0.852775 0.607783 0.172733
0.879649 0.611008 0.175958
0.906477 0.614227 0.179177
0.933260 0.617441 0.182391
0.960000 0.620650 0.185600
0.125100 0.602500 0.142700
0.154533 0.602500 0.142700
0.181961 0.602500 0.142700
0.208679 0.602500 0.142700
0.234947 0.602500 0.142700
0.260886 0.602500 0.142700
0.286564 0.602500 0.142700
0.312029 0.602500 0.142700
0.337311 0.602500 0.142700
0.362436 0.602500 0.142700
0.387421 0.602500 0.142700
0.412281 0.602500 0.142700
0.437028 0.602500 0.142700
0.461673 0.602500 0.142700
0.486222 0.602500 0.142700
0.510684 0.602500 0.142700
0.535065 0.602500 0.142700
0.559369 0.602500 0.142700
0.583602 0.602500 0.142700
0.608487 0.603218 0.143418
0.635875 0.606505 0.146705
0.663196 0.609784 0.149984
0.690451 0.613054 0.153254
0.717645 0.616317 0.156517
0.744779 0.619574 0.159774
0.771857 0.622823 0.163023
0.798881 0.626066 0.166266
0.825853 0.629302 0.169502
0.852775 0.632533 0.172733
0.879649 0.635758 0.175958
0.906477 0.638977 0.179177
0.933260 0.642191 0.182391
0.960000 0.645400 0.185600
0.128475 0.630625 0.146075
0.157908 0.630625 0.146075
0.185336 0.630625 0.146075
0.212054 0.630625 0.146075
0.238322 0.630625 0.146075
0.264261 0.630625 0.146075
0.289939 0.630625 0.146075
0.315404 0.630625 0.146075
0.340686 0.630625 0.146075
0.365811 0.630625 0.146075
0.390796 0.630625 0.146075
0.415656 0.630625 0.146075
0.440403 0.630625 0.146075
0.465048 0.630625 0.146075
0.489597 0.630625 0.146075
0.514059 0.630625 0.146075
0.538440 0.630625 0.146075
0.562744 0.630625 0.146075
0.586977 0.630625 0.146075
0.611143 0.630625 0.146075
0.635875 0.631255 0.146705
0.663196 0.634534 0.149984
0.690451 0.637804 0.153254
0.717645 0.641067 0.156517
0.744779 0.644324 0.159774
0.771857 0.647573 0.163023
0.798881 0.650816 0.166266
0.825853 0.654052 0.169502
0.852775 0.657283 0.172733
0.879649 0.660508 0.175958
0.906477 0.663727 0.179177
0.933260 0.666941 0.182391
0.960000 0.670150 0.185600
0.131850 0.658750 0.149450
0.161283 0.658750 0.149450
0.188711 0.658750 0.149450
0.215429 0.658750 0.149450
0.241697 0.658750 0.149450
0.267636 0.658750 0.149450
0.293314 0.658750 0.149450
0.318779 0.658750 0.149450
0.344061 0.658750 0.149450
0.369186 0.658750 0.149450
0.394171 0.658750 0.149450
0.419031 0.658750 0.149450
0.443778 0.658750 0.149450
0.468423 0.658750 0.149450
0.492972 0.658750 0.149450
0.517434 0.658750 0.149450
0.541815 0.658750 0.149450
0.566119 0.658750 0.149450
0.590352 0.658750 0.149450
0.614518 0.658750 0.149450
0.638620 0.658750 0.149450
0.663196 0.659284 0.149984
0.690451 0.662554 0.153254
0.717645 0.665817 0.156517
0.744779 0.669074 0.159774
0.771857 0.672323 0.163023
0.798881 0.675566 0.166266
0.825853 0.678802 0.169502
0.852775 0.682033 0.172733
0.879649 0.685258 0.175958
0.906477 0.688477 0.179177
0.933260 0.691691 0.182391
0.960000 0.694900 0.185600
0.135225 0.686875 0.152825
0.164658 0.686875 0.152825
0.192086 0.686875 0.152825
0.218804 0.686875 0.152825
0.245072 0.686875 0.152825
0.271011 0.686875 0.152825
0.296689 0.686875 0.152825
0.322154 0.686875 0.152825
0.347436 0.686875 0.152825
0.372561 0.686875 0.152825
0.397546 0.686875 0.152825
0.422406 0.686875 0.152825
0.447153 0.686875 0.152825
0.471798 0.686875 0.152825
0.496347 0.686875 0.152825
0.520809 0.686875 0.152825
0.545190 0.686875 0.152825
0.569494 0.686875 0.152825
0.593727 0.686875 0.152825
0.617893 0.686875 0.152825
0.641995 0.686875 0.152825
0.666037 0.686875 0.152825
0.690451 0.687304 0.153254
0.717645 0.690567 0.156517
0.744779 0.693824 0.159774
0.771857 0.697073 0.163023
0.798881 0.700316 0.166266
0.825853 0.703552 0.169502
0.852775 0.706783 0.172733
0.879649 0.710008 0.175958
0.906477 0.713227 0.179177
0.933260 0.716441 0.182391
0.960000 0.719650 0.185600
0.138600 0.715000 0.156200
0.168033 0.715000 0.156200
0.195461 0.715000 0.156200
0.222179 0.715000 0.156200
0.248447 0.715000 0.156200
0.274386 0.715000 0.156200
0.300064 0.715000 0.156200
0.325529 0.715000 0.156200
0.350811 0.715000 0.156200
0.375936 0.715000 0.156200
0.400921 0.715000 0.156200
0.425781 0.715000 0.156200
0.450528 0.715000 0.156200
0.475173 0.715000 0.156200
0.499722 0.715000 0.156200
0.524184 0.715000 0.156200
0.548565 0.715000 0.156200
0.572869 0.715000 0.156200
0.597102 0.715000 0.156200
0.621268 0.715000 0.156200
0.645370 0.715000 0.156200
0.669412 0.715000 0.156200
0.693397 0.715000 0.156200
0.717645 0.715317 0.156517
0.744779 0.718574 0.159774
0.771857 0.721823 0.163023
0.798881 0.725066 0.166266
0.825853 0.728302 0.169502
0.852775 0.731533 0.172733
0.879649 0.734758 0.175958
0.906477 0.737977 0.179177
0.933260 0.741191 0.182391
0.960000 0.744400 0.185600
0.141975 0.743125 0.159575
0.171408 0.743125 0.159575
0.198836 0.743125 0.159575
0.225554 0.743125 0.159575
0.251822 0.743125 0.159575
0.277761 0.743125 0.159575
0.303439 0.743125 0.159575
0.328904 0.743125 0.159575
0.354186 0.743125 0.159575
0.379311 0.743125 0.159575
0.404296 0.743125 0.159575
0.429156 0.743125 0.159575
0.453903 0.743125 0.159575
0.478548 0.743125 0.159575
0.503097 0.743125 0.159575
0.527559 0.743125 0.159575
0.551940 0.743125 0.159575
0.576244 0.743125 0.159575
0.600477 0.743125 0.159575
0.624643 0.743125 0.159575
0.648745 0.743125 0.159575
0.672787 0.743125 0.159575
0.696772 0.743125 0.159575
0.720703 0.743125 0.159575
0.744779 0.743324 0.159774
0.771857 0.746573 0.163023
0.798881 0.749816 0.166266
0.825853 0.753052 0.169502
0.852775 0.756283 0.172733
0.879649 0.759508 0.175958
0.906477 0.762727 0.179177
0.933260 0.765941 0.182391
0.960000 0.769150 0.185600
0.145350 0.771250 0.162950
0.174783 0.771250 0.162950
0.202211 0.771250 0.162950
0.228929 0.771250 0.162950
0.255197 0.771250 0.162950
0.281136 0.771250 0.162950
0.306814 0.771250 0.162950
0.332279 0.771250 0.162950
0.357561 0.771250 0.162950
0.382686 0.771250 0.162950
0.407671 0.771250 0.162950
0.432531 0.771250 0.162950
0.457278 0.771250 0.162950
0.481923 0.771250 0.162950
0.506472 0.771250 0.162950
0.530934 0.771250 0.162950
0.555315 0.771250 0.162950
0.579619 0.771250 0.162950
0.603852 0.771250 0.162950
0.628018 0.771250 0.162950
0.652120 0.771250 0.162950
0.676162 0.771250 0.162950
0.700147 0.771250 0.162950
0.724078 0.771250 0.162950
0.747956 0.771250 0.162950
0.771857 0.771323 0.163023
0.798881 0.774566 0.166266
0.825853 0.777802 0.169502
