app/src/main/assets/luts/dreamy.cube
TITLE "Dreamy"
LUT_3D_SIZE 9
DOMAIN_MIN 0.0 0.0 0.0
DOMAIN_MAX 1.0 1.0 1.0
0.062400 0.044800 0.080000
0.184827 0.057379 0.092579
0.301149 0.071338 0.106538
0.414464 0.084936 0.120136
0.525869 0.098304 0.133504
0.635875 0.111505 0.146705
0.744779 0.124574 0.159774
0.852775 0.137533 0.172733
0.960000 0.150400 0.185600
0.071100 0.152500 0.088700
0.184827 0.156379 0.092579
0.301149 0.170338 0.106538
0.414464 0.183936 0.120136
0.525869 0.197304 0.133504
0.635875 0.210505 0.146705
0.744779 0.223574 0.159774
0.852775 0.236533 0.172733
0.960000 0.249400 0.185600
0.084600 0.265000 0.102200
0.194447 0.265000 0.102200
0.301149 0.269338 0.106538
0.414464 0.282936 0.120136
0.525869 0.296304 0.133504
0.635875 0.309505 0.146705
0.744779 0.322574 0.159774
0.852775 0.335533 0.172733
0.960000 0.348400 0.185600
0.098100 0.377500 0.115700
0.207947 0.377500 0.115700
0.310311 0.377500 0.115700
0.414464 0.381936 0.120136
0.525869 0.395304 0.133504
0.635875 0.408505 0.146705
0.744779 0.421574 0.159774
0.852775 0.434533 0.172733
0.960000 0.447400 0.185600
0.111600 0.490000 0.129200
0.221447 0.490000 0.129200
0.323811 0.490000 0.129200
0.423528 0.490000 0.129200
0.525869 0.494304 0.133504
0.635875 0.507505 0.146705
0.744779 0.520574 0.159774
0.852775 0.533533 0.172733
0.960000 0.546400 0.185600
0.125100 0.602500 0.142700
0.234947 0.602500 0.142700
0.337311 0.602500 0.142700
0.437028 0.602500 0.142700
0.535065 0.602500 0.142700
0.635875 0.606505 0.146705
0.744779 0.619574 0.159774
0.852775 0.632533 0.172733
0.960000 0.645400 0.185600
0.138600 0.715000 0.156200
0.248447 0.715000 0.156200
0.350811 0.715000 0.156200
0.450528 0.715000 0.156200
0.548565 0.715000 0.156200
0.645370 0.715000 0.156200
0.744779 0.718574 0.159774
0.852775 0.731533 0.172733
0.960000 0.744400 0.185600
0.152100 0.827500 0.169700
0.261947 0.827500 0.169700
0.364311 0.827500 0.169700
0.464028 0.827500 0.169700
0.562065 0.827500 0.169700
0.658870 0.827500 0.169700
0.754706 0.827500 0.169700
0.852775 0.830533 0.172733
0.960000 0.843400 0.185600
0.165600 0.940000 0.183200
0.275447 0.940000 0.183200
0.377811 0.940000 0.183200
0.477528 0.940000 0.183200
0.575565 0.940000 0.183200
0.672370 0.940000 0.183200
0.768206 0.940000 0.183200
0.863242 0.940000 0.183200
0.960000 0.942400 0.185600
0.078034 0.060434 0.210282
0.187881 0.060434 0.210282
0.301149 0.071338 0.221186
0.414464 0.084936 0.234784
0.525869 0.098304 0.248152
0.635875 0.111505 0.261353
0.744779 0.124574 0.274421
0.852775 0.137533 0.287381
0.960000 0.150400 0.300248
0.078034 0.159434 0.210282
0.187881 0.159434 0.210282
0.301149 0.170338 0.221186
0.414464 0.183936 0.234784
0.525869 0.197304 0.248152
0.635875 0.210505 0.261353
0.744779 0.223574 0.274421
0.852775 0.236533 0.287381
0.960000 0.249400 0.300248
0.084600 0.265000 0.216848
0.194447 0.265000 0.216848
0.301149 0.269338 0.221186
0.414464 0.282936 0.234784
0.525869 0.296304 0.248152
0.635875 0.309505 0.261353
0.744779 0.322574 0.274421
0.852775 0.335533 0.287381
0.960000 0.348400 0.300248
0.098100 0.377500 0.230348
0.207947 0.377500 0.230348
0.310311 0.377500 0.230348
0.414464 0.381936 0.234784
0.525869 0.395304 0.248152
0.635875 0.408505 0.261353
0.744779 0.421574 0.274421
0.852775 0.434533 0.287381
0.960000 0.447400 0.300248
0.111600 0.490000 0.243848
0.221447 0.490000 0.243848
0.323811 0.490000 0.243848
0.423528 0.490000 0.243848
0.525869 0.494304 0.248152
0.635875 0.507505 0.261353
0.744779 0.520574 0.274421
0.852775 0.533533 0.287381
0.960000 0.546400 0.300248
0.125100 0.602500 0.257348
0.234947 0.602500 0.257348
0.337311 0.602500 0.257348
0.437028 0.602500 0.257348
0.535065 0.602500 0.257348
0.635875 0.606505 0.261353
0.744779 0.619574 0.274421
0.852775 0.632533 0.287381
0.960000 0.645400 0.300248
0.138600 0.715000 0.270848
0.248447 0.715000 0.270848
0.350811 0.715000 0.270848
0.450528 0.715000 0.270848
0.548565 0.715000 0.270848
0.645370 0.715000 0.270848
0.744779 0.718574 0.274421
0.852775 0.731533 0.287381
0.960000 0.744400 0.300248
0.152100 0.827500 0.284348
0.261947 0.827500 0.284348
0.364311 0.827500 0.284348
0.464028 0.827500 0.284348
0.562065 0.827500 0.284348
0.658870 0.827500 0.284348
0.754706 0.827500 0.284348
0.852775 0.830533 0.287381
0.960000 0.843400 0.300248
0.165600 0.940000 0.297848
0.275447 0.940000 0.297848
0.377811 0.940000 0.297848
0.477528 0.940000 0.297848
0.575565 0.940000 0.297848
0.672370 0.940000 0.297848
0.768206 0.940000 0.297848
0.863242 0.940000 0.297848
0.960000 0.942400 0.300248
0.092394 0.074794 0.329949
0.202241 0.074794 0.329949
0.304605 0.074794 0.329949
0.414464 0.084936 0.340091
0.525869 0.098304 0.353459
0.635875 0.111505 0.366660
0.744779 0.124574 0.379729
0.852775 0.137533 0.392688
0.960000 0.150400 0.405555
0.092394 0.173794 0.329949
0.202241 0.173794 0.329949
0.304605 0.173794 0.329949
0.414464 0.183936 0.340091
0.525869 0.197304 0.353459
0.635875 0.210505 0.366660
0.744779 0.223574 0.379729
0.852775 0.236533 0.392688
0.960000 0.249400 0.405555
0.092394 0.272794 0.329949
0.202241 0.272794 0.329949
0.304605 0.272794 0.329949
0.414464 0.282936 0.340091
0.525869 0.296304 0.353459
0.635875 0.309505 0.366660
0.744779 0.322574 0.379729
0.852775 0.335533 0.392688
0.960000 0.348400 0.405555
0.098100 0.377500 0.335655
0.207947 0.377500 0.335655
0.310311 0.377500 0.335655
0.414464 0.381936 0.340091
0.525869 0.395304 0.353459
0.635875 0.408505 0.366660
0.744779 0.421574 0.379729
0.852775 0.434533 0.392688
0.960000 0.447400 0.405555
0.111600 0.490000 0.349155
0.221447 0.490000 0.349155
0.323811 0.490000 0.349155
0.423528 0.490000 0.349155
0.525869 0.494304 0.353459
0.635875 0.507505 0.366660
0.744779 0.520574 0.379729
0.852775 0.533533 0.392688
0.960000 0.546400 0.405555
0.125100 0.602500 0.362655
0.234947 0.602500 0.362655
0.337311 0.602500 0.362655
0.437028 0.602500 0.362655
0.535065 0.602500 0.362655
0.635875 0.606505 0.366660
0.744779 0.619574 0.379729
0.852775 0.632533 0.392688
0.960000 0.645400 0.405555
0.138600 0.715000 0.376155
0.248447 0.715000 0.376155
0.350811 0.715000 0.376155
0.450528 0.715000 0.376155
0.548565 0.715000 0.376155
0.645370 0.715000 0.376155
0.744779 0.718574 0.379729
0.852775 0.731533 0.392688
0.960000 0.744400 0.405555
0.152100 0.827500 0.389655
0.261947 0.827500 0.389655
0.364311 0.827500 0.389655
0.464028 0.827500 0.389655
0.562065 0.827500 0.389655
0.658870 0.827500 0.389655
0.754706 0.827500 0.389655
0.852775 0.830533 0.392688
0.960000 0.843400 0.405555
0.165600 0.940000 0.403155
0.275447 0.940000 0.403155
0.377811 0.940000 0.403155
0.477528 0.940000 0.403155
0.575565 0.940000 0.403155
0.672370 0.940000 0.403155
0.768206 0.940000 0.403155
0.863242 0.940000 0.403155
0.960000 0.942400 0.405555
0.106309 0.088709 0.445912
0.216157 0.088709 0.445912
0.318521 0.088709 0.445912
0.418238 0.088709 0.445912
0.525869 0.098304 0.455507
0.635875 0.111505 0.468708
0.744779 0.124574 0.481777
0.852775 0.137533 0.494736
0.960000 0.150400 0.507603
0.106309 0.187709 0.445912
0.216157 0.187709 0.445912
0.318521 0.187709 0.445912
0.418238 0.187709 0.445912
0.525869 0.197304 0.455507
0.635875 0.210505 0.468708
0.744779 0.223574 0.481777
0.852775 0.236533 0.494736
0.960000 0.249400 0.507603
0.106309 0.286709 0.445912
0.216157 0.286709 0.445912
0.318521 0.286709 0.445912
0.418238 0.286709 0.445912
0.525869 0.296304 0.455507
0.635875 0.309505 0.468708
0.744779 0.322574 0.481777
0.852775 0.335533 0.494736
0.960000 0.348400 0.507603
0.106309 0.385709 0.445912
0.216157 0.385709 0.445912
0.318521 0.385709 0.445912
0.418238 0.385709 0.445912
0.525869 0.395304 0.455507
0.635875 0.408505 0.468708
0.744779 0.421574 0.481777
0.852775 0.434533 0.494736
0.960000 0.447400 0.507603
0.111600 0.490000 0.451203
0.221447 0.490000 0.451203
0.323811 0.490000 0.451203
0.423528 0.490000 0.451203
0.525869 0.494304 0.455507
0.635875 0.507505 0.468708
0.744779 0.520574 0.481777
0.852775 0.533533 0.494736
0.960000 0.546400 0.507603
0.125100 0.602500 0.464703
0.234947 0.602500 0.464703
0.337311 0.602500 0.464703
0.437028 0.602500 0.464703
0.535065 0.602500 0.464703
0.635875 0.606505 0.468708
0.744779 0.619574 0.481777
0.852775 0.632533 0.494736
0.960000 0.645400 0.507603
0.138600 0.715000 0.478203
0.248447 0.715000 0.478203
0.350811 0.715000 0.478203
0.450528 0.715000 0.478203
0.548565 0.715000 0.478203
0.645370 0.715000 0.478203
0.744779 0.718574 0.481777
0.852775 0.731533 0.494736
0.960000 0.744400 0.507603
0.152100 0.827500 0.491703
0.261947 0.827500 0.491703
0.364311 0.827500 0.491703
0.464028 0.827500 0.491703
0.562065 0.827500 0.491703
0.658870 0.827500 0.491703
0.754706 0.827500 0.491703
0.852775 0.830533 0.494736
0.960000 0.843400 0.507603
0.165600 0.940000 0.505203
0.275447 0.940000 0.505203
0.377811 0.940000 0.505203
0.477528 0.940000 0.505203
0.575565 0.940000 0.505203
0.672370 0.940000 0.505203
0.768206 0.940000 0.505203
0.863242 0.940000 0.505203
0.960000 0.942400 0.507603
0.119944 0.102344 0.559534
0.229791 0.102344 0.559534
0.332155 0.102344 0.559534
0.431872 0.102344 0.559534
0.529909 0.102344 0.559534
0.635875 0.111505 0.568695
0.744779 0.124574 0.581764
0.852775 0.137533 0.594723
0.960000 0.150400 0.607590
0.119944 0.201344 0.559534
0.229791 0.201344 0.559534
0.332155 0.201344 0.559534
0.431872 0.201344 0.559534
0.529909 0.201344 0.559534
0.635875 0.210505 0.568695
0.744779 0.223574 0.581764
0.852775 0.236533 0.594723
0.960000 0.249400 0.607590
0.119944 0.300344 0.559534
0.229791 0.300344 0.559534
0.332155 0.300344 0.559534
0.431872 0.300344 0.559534
0.529909 0.300344 0.559534
0.635875 0.309505 0.568695
0.744779 0.322574 0.581764
0.852775 0.335533 0.594723
0.960000 0.348400 0.607590
0.119944 0.399344 0.559534
0.229791 0.399344 0.559534
0.332155 0.399344 0.559534
0.431872 0.399344 0.559534
0.529909 0.399344 0.559534
0.635875 0.408505 0.568695
0.744779 0.421574 0.581764
0.852775 0.434533 0.594723
0.960000 0.447400 0.607590
0.119944 0.498344 0.559534
0.229791 0.498344 0.559534
0.332155 0.498344 0.559534
0.431872 0.498344 0.559534
0.529909 0.498344 0.559534
0.635875 0.507505 0.568695
0.744779 0.520574 0.581764
0.852775 0.533533 0.594723
0.960000 0.546400 0.607590
0.125100 0.602500 0.564690
0.234947 0.602500 0.564690
0.337311 0.602500 0.564690
0.437028 0.602500 0.564690
0.535065 0.602500 0.564690
0.635875 0.606505 0.568695
0.744779 0.619574 0.581764
0.852775 0.632533 0.594723
0.960000 0.645400 0.607590
0.138600 0.715000 0.578190
0.248447 0.715000 0.578190
0.350811 0.715000 0.578190
0.450528 0.715000 0.578190
0.548565 0.715000 0.578190
0.645370 0.715000 0.578190
0.744779 0.718574 0.581764
0.852775 0.731533 0.594723
0.960000 0.744400 0.607590
0.152100 0.827500 0.591690
0.261947 0.827500 0.591690
0.364311 0.827500 0.591690
0.464028 0.827500 0.591690
0.562065 0.827500 0.591690
0.658870 0.827500 0.591690
0.754706 0.827500 0.591690
0.852775 0.830533 0.594723
0.960000 0.843400 0.607590
0.165600 0.940000 0.605190
0.275447 0.940000 0.605190
0.377811 0.940000 0.605190
0.477528 0.940000 0.605190
0.575565 0.940000 0.605190
0.672370 0.940000 0.605190
0.768206 0.940000 0.605190
0.863242 0.940000 0.605190
0.960000 0.942400 0.607590
0.133374 0.115774 0.671446
0.243221 0.115774 0.671446
0.345585 0.115774 0.671446
0.445302 0.115774 0.671446
0.543338 0.115774 0.671446
0.640144 0.115774 0.671446
0.744779 0.124574 0.680246
0.852775 0.137533 0.693205
0.960000 0.150400 0.706072
0.133374 0.214774 0.671446
0.243221 0.214774 0.671446
0.345585 0.214774 0.671446
0.445302 0.214774 0.671446
0.543338 0.214774 0.671446
0.640144 0.214774 0.671446
0.744779 0.223574 0.680246
0.852775 0.236533 0.693205
0.960000 0.249400 0.706072
0.133374 0.313774 0.671446
0.243221 0.313774 0.671446
0.345585 0.313774 0.671446
0.445302 0.313774 0.671446
0.543338 0.313774 0.671446
0.640144 0.313774 0.671446
0.744779 0.322574 0.680246
0.852775 0.335533 0.693205
0.960000 0.348400 0.706072
0.133374 0.412774 0.671446
0.243221 0.412774 0.671446
0.345585 0.412774 0.671446
0.445302 0.412774 0.671446
0.543338 0.412774 0.671446
0.640144 0.412774 0.671446
0.744779 0.421574 0.680246
0.852775 0.434533 0.693205
0.960000 0.447400 0.706072
0.133374 0.511774 0.671446
0.243221 0.511774 0.671446
0.345585 0.511774 0.671446
0.445302 0.511774 0.671446
0.543338 0.511774 0.671446
0.640144 0.511774 0.671446
0.744779 0.520574 0.680246
0.852775 0.533533 0.693205
0.960000 0.546400 0.706072
0.133374 0.610774 0.671446
0.243221 0.610774 0.671446
0.345585 0.610774 0.671446
0.445302 0.610774 0.671446
0.543338 0.610774 0.671446
0.640144 0.610774 0.671446
0.744779 0.619574 0.680246
0.852775 0.632533 0.693205
0.960000 0.645400 0.706072
0.138600 0.715000 0.676672
0.248447 0.715000 0.676672
0.350811 0.715000 0.676672
0.450528 0.715000 0.676672
0.548565 0.715000 0.676672
0.645370 0.715000 0.676672
0.744779 0.718574 0.680246
0.852775 0.731533 0.693205
0.960000 0.744400 0.706072
0.152100 0.827500 0.690172
0.261947 0.827500 0.690172
0.364311 0.827500 0.690172
0.464028 0.827500 0.690172
0.562065 0.827500 0.690172
0.658870 0.827500 0.690172
0.754706 0.827500 0.690172
0.852775 0.830533 0.693205
0.960000 0.843400 0.706072
0.165600 0.940000 0.703672
0.275447 0.940000 0.703672
0.377811 0.940000 0.703672
0.477528 0.940000 0.703672
0.575565 0.940000 0.703672
0.672370 0.940000 0.703672
0.768206 0.940000 0.703672
0.863242 0.940000 0.703672
0.960000 0.942400 0.706072
0.146642 0.129042 0.782013
0.256489 0.129042 0.782013
0.358853 0.129042 0.782013
0.458570 0.129042 0.782013
0.556607 0.129042 0.782013
0.653412 0.129042 0.782013
0.749248 0.129042 0.782013
0.852775 0.137533 0.790505
0.960000 0.150400 0.803372
0.146642 0.228042 0.782013
0.256489 0.228042 0.782013
0.358853 0.228042 0.782013
0.458570 0.228042 0.782013
0.556607 0.228042 0.782013
0.653412 0.228042 0.782013
0.749248 0.228042 0.782013
0.852775 0.236533 0.790505
0.960000 0.249400 0.803372
0.146642 0.327042 0.782013
0.256489 0.327042 0.782013
0.358853 0.327042 0.782013
0.458570 0.327042 0.782013
0.556607 0.327042 0.782013
0.653412 0.327042 0.782013
0.749248 0.327042 0.782013
0.852775 0.335533 0.790505
0.960000 0.348400 0.803372
0.146642 0.426042 0.782013
0.256489 0.426042 0.782013
0.358853 0.426042 0.782013
0.458570 0.426042 0.782013
0.556607 0.426042 0.782013
0.653412 0.426042 0.782013
0.749248 0.426042 0.782013
0.852775 0.434533 0.790505
0.960000 0.447400 0.803372
0.146642 0.525042 0.782013
0.256489 0.525042 0.782013
0.358853 0.525042 0.782013
0.458570 0.525042 0.782013
0.556607 0.525042 0.782013
0.653412 0.525042 0.782013
0.749248 0.525042 0.782013
0.852775 0.533533 0.790505
0.960000 0.546400 0.803372
0.146642 0.624042 0.782013
0.256489 0.624042 0.782013
0.358853 0.624042 0.782013
0.458570 0.624042 0.782013
0.556607 0.624042 0.782013
0.653412 0.624042 0.782013
0.749248 0.624042 0.782013
0.852775 0.632533 0.790505
0.960000 0.645400 0.803372
0.146642 0.723042 0.782013
0.256489 0.723042 0.782013
0.358853 0.723042 0.782013
0.458570 0.723042 0.782013
0.556607 0.723042 0.782013
0.653412 0.723042 0.782013
0.749248 0.723042 0.782013
0.852775 0.731533 0.790505
0.960000 0.744400 0.803372
0.152100 0.827500 0.787472
0.261947 0.827500 0.787472
0.364311 0.827500 0.787472
0.464028 0.827500 0.787472
0.562065 0.827500 0.787472
0.658870 0.827500 0.787472
0.754706 0.827500 0.787472
0.852775 0.830533 0.790505
0.960000 0.843400 0.803372
0.165600 0.940000 0.800972
0.275447 0.940000 0.800972
0.377811 0.940000 0.800972
0.477528 0.940000 0.800972
0.575565 0.940000 0.800972
0.672370 0.940000 0.800972
0.768206 0.940000 0.800972
0.863242 0.940000 0.800972
0.960000 0.942400 0.803372
0.159777 0.142177 0.891475
0.269624 0.142177 0.891475
0.371988 0.142177 0.891475
0.471705 0.142177 0.891475
0.569742 0.142177 0.891475
0.666547 0.142177 0.891475
0.762383 0.142177 0.891475
0.857419 0.142177 0.891475
0.960000 0.150400 0.899698
0.159777 0.241177 0.891475
0.269624 0.241177 0.891475
0.371988 0.241177 0.891475
0.471705 0.241177 0.891475
0.569742 0.241177 0.891475
0.666547 0.241177 0.891475
0.762383 0.241177 0.891475
0.857419 0.241177 0.891475
0.960000 0.249400 0.899698
0.159777 0.340177 0.891475
0.269624 0.340177 0.891475
0.371988 0.340177 0.891475
0.471705 0.340177 0.891475
0.569742 0.340177 0.891475
0.666547 0.340177 0.891475
0.762383 0.340177 0.891475
0.857419 0.340177 0.891475
0.960000 0.348400 0.899698
0.159777 0.439177 0.891475
0.269624 0.439177 0.891475
0.371988 0.439177 0.891475
0.471705 0.439177 0.891475
0.569742 0.439177 0.891475
0.666547 0.439177 0.891475
0.762383 0.439177 0.891475
0.857419 0.439177 0.891475
0.960000 0.447400 0.899698
0.159777 0.538177 0.891475
0.269624 0.538177 0.891475
0.371988 0.538177 0.891475
0.471705 0.538177 0.891475
0.569742 0.538177 0.891475
0.666547 0.538177 0.891475
0.762383 0.538177 0.891475
0.857419 0.538177 0.891475
0.960000 0.546400 0.899698
0.159777 0.637177 0.891475
0.269624 0.637177 0.891475
0.371988 0.637177 0.891475
0.471705 0.637177 0.891475
0.569742 0.637177 0.891475
0.666547 0.637177 0.891475
0.762383 0.637177 0.891475
0.857419 0.637177 0.891475
0.960000 0.645400 0.899698
0.159777 0.736177 0.891475
0.269624 0.736177 0.891475
0.371988 0.736177 0.891475
0.471705 0.736177 0.891475
0.569742 0.736177 0.891475
0.666547 0.736177 0.891475
0.762383 0.736177 0.891475
0.857419 0.736177 0.891475
0.960000 0.744400 0.899698
0.159777 0.835177 0.891475
0.269624 0.835177 0.891475
0.371988 0.835177 0.891475
0.471705 0.835177 0.891475
0.569742 0.835177 0.891475
0.666547 0.835177 0.891475
0.762383 0.835177 0.891475
0.857419 0.835177 0.891475
0.960000 0.843400 0.899698
0.165600 0.940000 0.897298
0.275447 0.940000 0.897298
0.377811 0.940000 0.897298
0.477528 0.940000 0.897298
0.575565 0.940000 0.897298
0.672370 0.940000 0.897298
0.768206 0.940000 0.897298
0.863242 0.940000 0.897298
0.960000 0.942400 0.899698
0.172800 0.155200 1.000000
0.282647 0.155200 1.000000
0.385011 0.155200 1.000000
0.484728 0.155200 1.000000
0.582765 0.155200 1.000000
0.679570 0.155200 1.000000
0.775406 0.155200 1.000000
0.870442 0.155200 1.000000
0.964800 0.155200 1.000000
0.172800 0.254200 1.000000
0.282647 0.254200 1.000000
0.385011 0.254200 1.000000
0.484728 0.254200 1.000000
0.582765 0.254200 1.000000
0.679570 0.254200 1.000000
0.775406 0.254200 1.000000
0.870442 0.254200 1.000000
0.964800 0.254200 1.000000
0.172800 0.353200 1.000000
0.282647 0.353200 1.000000
0.385011 0.353200 1.000000
0.484728 0.353200 1.000000
0.582765 0.353200 1.000000
0.679570 0.353200 1.000000
0.775406 0.353200 1.000000
0.870442 0.353200 1.000000
0.964800 0.353200 1.000000
0.172800 0.452200 1.000000
0.282647 0.452200 1.000000
0.385011 0.452200 1.000000
0.484728 0.452200 1.000000
0.582765 0.452200 1.000000
0.679570 0.452200 1.000000
0.775406 0.452200 1.000000
0.870442 0.452200 1.000000
0.964800 0.452200 1.000000
0.172800 0.551200 1.000000
0.282647 0.551200 1.000000
0.385011 0.551200 1.000000
0.484728 0.551200 1.000000
0.582765 0.551200 1.000000
0.679570 0.551200 1.000000
0.775406 0.551200 1.000000
0.870442 0.551200 1.000000
0.964800 0.551200 1.000000
0.172800 0.650200 1.000000
0.282647 0.650200 1.000000
0.385011 0.650200 1.000000
0.484728 0.650200 1.000000
0.582765 0.650200 1.000000
0.679570 0.650200 1.000000
0.775406 0.650200 1.000000
0.870442 0.650200 1.000000
0.964800 0.650200 1.000000
0.172800 0.749200 1.000000
0.282647 0.749200 1.000000
0.385011 0.749200 1.000000
0.484728 0.749200 1.000000
0.582765 0.749200 1.000000
0.679570 0.749200 1.000000
0.775406 0.749200 1.000000
0.870442 0.749200 1.000000
0.964800 0.749200 1.000000
0.172800 0.848200 1.000000
0.282647 0.848200 1.000000
0.385011 0.848200 1.000000
0.484728 0.848200 1.000000
0.582765 0.848200 1.000000
0.679570 0.848200 1.000000
0.775406 0.848200 1.000000
0.870442 0.848200 1.000000
0.964800 0.848200 1.000000
0.172800 0.947200 1.000000
0.282647 0.947200 1.000000
0.385011 0.947200 1.000000
0.484728 0.947200 1.000000
0.582765 0.947200 1.000000
0.679570 0.947200 1.000000
0.775406 0.947200 1.000000
0.870442 0.947200 1.000000
0.964800 0.947200 1.000000
