app/src/main/assets/luts/dusk.cube
TITLE "Dusk"
LUT_3D_SIZE 33
DOMAIN_MIN 0.0 0.0 0.0
DOMAIN_MAX 1.0 1.0 1.0
0.040000 0.000000 0.080000
0.059887 0.000000 0.080000
0.082630 0.000000 0.080000
0.106590 0.000000 0.080000
0.131378 0.000000 0.080000
0.156800 0.000000 0.080000
0.182739 0.000000 0.080000
0.209116 0.000000 0.080000
0.235874 0.000000 0.080000
0.262969 0.000000 0.080000
0.290367 0.000000 0.080000
0.318041 0.000000 0.080000
0.345969 0.000000 0.080000
0.374130 0.000000 0.080000
0.402509 0.000000 0.080000
0.431091 0.000000 0.080000
0.459865 0.000000 0.080000
0.488819 0.000000 0.080000
0.517944 0.000000 0.080000
0.547232 0.000000 0.080000
0.576674 0.000000 0.080000
0.606264 0.000000 0.080000
0.635995 0.000000 0.080000
0.665861 0.000000 0.080000
0.695858 0.000000 0.080000
0.725980 0.000000 0.080000
0.756223 0.000000 0.080000
0.786582 0.000000 0.080000
0.817054 0.000000 0.080000
0.847635 0.000000 0.080000
0.878322 0.000000 0.080000
0.909111 0.000000 0.080000
0.940000 0.000000 0.080000
0.036000 0.009374 0.080000
0.057876 0.009374 0.080000
0.082630 0.009111 0.079737
0.106590 0.006715 0.077341
0.131378 0.004236 0.074862
0.156800 0.001694 0.072320
0.182739 0.000000 0.070280
0.209116 0.000000 0.069451
0.235874 0.000000 0.068814
0.262969 0.000000 0.068309
0.290367 0.000000 0.067899
0.318041 0.000000 0.067561
0.345969 0.000000 0.067277
0.374130 0.000000 0.067036
0.402509 0.000000 0.066828
0.431091 0.000000 0.066648
0.459865 0.000000 0.066489
0.488819 0.000000 0.066350
0.517944 0.000000 0.066225
0.547232 0.000000 0.066114
0.576674 0.000000 0.066014
0.606264 0.000000 0.065923
0.635995 0.000000 0.065841
0.665861 0.000000 0.065766
0.695858 0.000000 0.065697
0.725980 0.000000 0.065634
0.756223 0.000000 0.065575
0.786582 0.000000 0.065521
0.817054 0.000000 0.065471
0.847635 0.000000 0.065425
0.878322 0.000000 0.065382
0.909111 0.000000 0.065341
0.940000 0.000000 0.065303
0.036000 0.030554 0.080000
0.057876 0.030554 0.080000
0.082630 0.030291 0.079737
0.106590 0.027895 0.077341
0.131378 0.025417 0.074862
0.156800 0.022874 0.072320
0.182739 0.020280 0.069726
0.209116 0.017643 0.067088
0.235874 0.014967 0.064413
0.262969 0.012257 0.061703
0.290367 0.009518 0.058963
0.318041 0.006750 0.056196
0.345969 0.003958 0.053403
0.374130 0.001141 0.050587
0.402509 0.000000 0.049238
0.431091 0.000000 0.048929
0.459865 0.000000 0.048659
0.488819 0.000000 0.048423
0.517944 0.000000 0.048213
0.547232 0.000000 0.048027
0.576674 0.000000 0.047859
0.606264 0.000000 0.047709
0.635995 0.000000 0.047572
0.665861 0.000000 0.047448
0.695858 0.000000 0.047335
0.725980 0.000000 0.047231
0.756223 0.000000 0.047135
0.786582 0.000000 0.047047
0.817054 0.000000 0.046965
0.847635 0.000000 0.046889
0.878322 0.000000 0.046819
0.909111 0.000000 0.046753
0.940000 0.000000 0.046692
0.036000 0.053458 0.080000
0.057876 0.053458 0.080000
0.082630 0.053195 0.079737
0.106590 0.050799 0.077341
0.131378 0.048320 0.074862
0.156800 0.045778 0.072320
0.182739 0.043184 0.069726
0.209116 0.040546 0.067088
0.235874 0.037871 0.064413
0.262969 0.035161 0.061703
0.290367 0.032421 0.058963
0.318041 0.029654 0.056196
0.345969 0.026861 0.053403
0.374130 0.024045 0.050587
0.402509 0.021207 0.047749
0.431091 0.018349 0.044891
0.459865 0.015472 0.042014
0.488819 0.012576 0.039118
0.517944 0.009664 0.036206
0.547232 0.006735 0.033277
0.576674 0.003791 0.030333
0.606264 0.000832 0.027374
0.635995 0.000000 0.026453
0.665861 0.000000 0.026339
0.695858 0.000000 0.026236
0.725980 0.000000 0.026141
0.756223 0.000000 0.026054
0.786582 0.000000 0.025974
0.817054 0.000000 0.025900
0.847635 0.000000 0.025832
0.878322 0.000000 0.025768
0.909111 0.000000 0.025709
0.940000 0.000000 0.025654
0.036000 0.077558 0.080000
0.057876 0.077558 0.080000
0.082630 0.077295 0.079737
0.106590 0.074898 0.077341
0.131378 0.072420 0.074862
0.156800 0.069877 0.072320
0.182739 0.067284 0.069726
0.209116 0.064646 0.067088
0.235874 0.061970 0.064413
0.262969 0.059261 0.061703
0.290367 0.056521 0.058963
0.318041 0.053753 0.056196
0.345969 0.050961 0.053403
0.374130 0.048145 0.050587
0.402509 0.045307 0.047749
0.431091 0.042448 0.044891
0.459865 0.039571 0.042014
0.488819 0.036676 0.039118
0.517944 0.033763 0.036206
0.547232 0.030834 0.033277
0.576674 0.027890 0.030333
0.606264 0.024931 0.027374
0.635995 0.021958 0.024401
0.665861 0.018971 0.021414
0.695858 0.015972 0.018414
0.725980 0.012959 0.015402
0.756223 0.009935 0.012378
0.786582 0.006899 0.009342
0.817054 0.003852 0.006295
0.847635 0.000794 0.003236
0.878322 0.000000 0.002436
0.909111 0.000000 0.002428
0.940000 0.000000 0.002421
0.033947 0.100534 0.077947
0.055823 0.100534 0.077947
0.080839 0.100534 0.077947
0.106590 0.099928 0.077341
0.131378 0.097449 0.074862
0.156800 0.094907 0.072320
0.182739 0.092313 0.069726
0.209116 0.089676 0.067088
0.235874 0.087000 0.064413
0.262969 0.084290 0.061703
0.290367 0.081550 0.058963
0.318041 0.078783 0.056196
0.345969 0.075990 0.053403
0.374130 0.073174 0.050587
0.402509 0.070336 0.047749
0.431091 0.067478 0.044891
0.459865 0.064601 0.042014
0.488819 0.061705 0.039118
0.517944 0.058793 0.036206
0.547232 0.055864 0.033277
0.576674 0.052920 0.030333
0.606264 0.049961 0.027374
0.635995 0.046988 0.024401
0.665861 0.044001 0.021414
0.695858 0.041001 0.018414
0.725980 0.037989 0.015402
0.756223 0.034965 0.012378
0.786582 0.031929 0.009342
0.817054 0.028882 0.006295
0.847635 0.025824 0.003236
0.878322 0.022755 0.000168
0.909111 0.022515 0.000000
0.940000 0.022444 0.000000
0.031601 0.123985 0.075601
0.053478 0.123985 0.075601
0.078494 0.123985 0.075601
0.104851 0.123985 0.075601
0.131378 0.123246 0.074862
0.156800 0.120704 0.072320
0.182739 0.118110 0.069726
0.209116 0.115472 0.067088
0.235874 0.112797 0.064413
0.262969 0.110087 0.061703
0.290367 0.107347 0.058963
0.318041 0.104580 0.056196
0.345969 0.101787 0.053403
0.374130 0.098971 0.050587
0.402509 0.096133 0.047749
0.431091 0.093275 0.044891
0.459865 0.090397 0.042014
0.488819 0.087502 0.039118
0.517944 0.084589 0.036206
0.547232 0.081661 0.033277
0.576674 0.078716 0.030333
0.606264 0.075758 0.027374
0.635995 0.072784 0.024401
0.665861 0.069798 0.021414
0.695858 0.066798 0.018414
0.725980 0.063786 0.015402
0.756223 0.060762 0.012378
0.786582 0.057726 0.009342
0.817054 0.054678 0.006295
0.847635 0.051620 0.003236
0.878322 0.048552 0.000168
0.909111 0.048229 0.000000
0.940000 0.048077 0.000000
0.029197 0.148033 0.073197
0.051073 0.148033 0.073197
0.076089 0.148033 0.073197
0.102446 0.148033 0.073197
0.129713 0.148033 0.073197
0.156800 0.147157 0.072320
0.182739 0.144563 0.069726
0.209116 0.141925 0.067088
0.235874 0.139249 0.064413
0.262969 0.136540 0.061703
0.290367 0.133800 0.058963
0.318041 0.131032 0.056196
0.345969 0.128240 0.053403
0.374130 0.125424 0.050587
0.402509 0.122586 0.047749
0.431091 0.119727 0.044891
0.459865 0.116850 0.042014
0.488819 0.113955 0.039118
0.517944 0.111042 0.036206
0.547232 0.108113 0.033277
0.576674 0.105169 0.030333
0.606264 0.102210 0.027374
0.635995 0.099237 0.024401
0.665861 0.096250 0.021414
0.695858 0.093251 0.018414
0.725980 0.090239 0.015402
0.756223 0.087214 0.012378
0.786582 0.084178 0.009342
0.817054 0.081131 0.006295
0.847635 0.078073 0.003236
0.878322 0.075004 0.000168
0.909111 0.074598 0.000000
0.940000 0.074362 0.000000
0.026740 0.172604 0.070740
0.048616 0.172604 0.070740
0.073632 0.172604 0.070740
0.099989 0.172604 0.070740
0.127256 0.172604 0.070740
0.155220 0.172604 0.070740
0.182739 0.171590 0.069726
0.209116 0.168952 0.067088
0.235874 0.166277 0.064413
0.262969 0.163567 0.061703
0.290367 0.160827 0.058963
0.318041 0.158060 0.056196
0.345969 0.155267 0.053403
0.374130 0.152451 0.050587
0.402509 0.149613 0.047749
0.431091 0.146755 0.044891
0.459865 0.143878 0.042014
0.488819 0.140982 0.039118
0.517944 0.138070 0.036206
0.547232 0.135141 0.033277
0.576674 0.132197 0.030333
0.606264 0.129238 0.027374
0.635995 0.126265 0.024401
0.665861 0.123278 0.021414
0.695858 0.120278 0.018414
0.725980 0.117266 0.015402
0.756223 0.114242 0.012378
0.786582 0.111206 0.009342
0.817054 0.108159 0.006295
0.847635 0.105100 0.003236
0.878322 0.102032 0.000168
0.909111 0.101539 0.000000
0.940000 0.101218 0.000000
0.024236 0.197640 0.068236
0.046112 0.197640 0.068236
0.071128 0.197640 0.068236
0.097485 0.197640 0.068236
0.124752 0.197640 0.068236
0.152716 0.197640 0.068236
0.181249 0.197640 0.068236
0.209116 0.196493 0.067088
0.235874 0.193817 0.064413
0.262969 0.191107 0.061703
0.290367 0.188368 0.058963
0.318041 0.185600 0.056196
0.345969 0.182807 0.053403
0.374130 0.179991 0.050587
0.402509 0.177153 0.047749
0.431091 0.174295 0.044891
0.459865 0.171418 0.042014
0.488819 0.168522 0.039118
0.517944 0.165610 0.036206
0.547232 0.162681 0.033277
0.576674 0.159737 0.030333
0.606264 0.156778 0.027374
0.635995 0.153805 0.024401
0.665861 0.150818 0.021414
0.695858 0.147818 0.018414
0.725980 0.144806 0.015402
0.756223 0.141782 0.012378
0.786582 0.138746 0.009342
0.817054 0.135699 0.006295
0.847635 0.132641 0.003236
0.878322 0.129572 0.000168
0.909111 0.128991 0.000000
0.940000 0.128584 0.000000
0.021690 0.223098 0.065690
0.043566 0.223098 0.065690
0.068583 0.223098 0.065690
0.094939 0.223098 0.065690
0.122206 0.223098 0.065690
0.150171 0.223098 0.065690
0.178704 0.223098 0.065690
0.207718 0.223098 0.065690
0.235874 0.221821 0.064413
0.262969 0.219111 0.061703
0.290367 0.216372 0.058963
0.318041 0.213604 0.056196
0.345969 0.210811 0.053403
0.374130 0.207995 0.050587
0.402509 0.205157 0.047749
0.431091 0.202299 0.044891
0.459865 0.199422 0.042014
0.488819 0.196526 0.039118
0.517944 0.193614 0.036206
0.547232 0.190685 0.033277
0.576674 0.187741 0.030333
0.606264 0.184782 0.027374
0.635995 0.181809 0.024401
0.665861 0.178822 0.021414
0.695858 0.175822 0.018414
0.725980 0.172810 0.015402
0.756223 0.169786 0.012378
0.786582 0.166750 0.009342
0.817054 0.163703 0.006295
0.847635 0.160645 0.003236
0.878322 0.157576 0.000168
0.909111 0.156906 0.000000
0.940000 0.156410 0.000000
0.019106 0.248942 0.063106
0.040982 0.248942 0.063106
0.065998 0.248942 0.063106
0.092355 0.248942 0.063106
0.119622 0.248942 0.063106
0.147586 0.248942 0.063106
0.176119 0.248942 0.063106
0.205134 0.248942 0.063106
0.234567 0.248942 0.063106
0.262969 0.247539 0.061703
0.290367 0.244799 0.058963
0.318041 0.242032 0.056196
0.345969 0.239239 0.053403
0.374130 0.236423 0.050587
0.402509 0.233585 0.047749
0.431091 0.230727 0.044891
0.459865 0.227850 0.042014
0.488819 0.224954 0.039118
0.517944 0.222042 0.036206
0.547232 0.219113 0.033277
0.576674 0.216169 0.030333
0.606264 0.213210 0.027374
0.635995 0.210237 0.024401
0.665861 0.207250 0.021414
0.695858 0.204250 0.018414
0.725980 0.201238 0.015402
0.756223 0.198214 0.012378
0.786582 0.195178 0.009342
0.817054 0.192131 0.006295
0.847635 0.189073 0.003236
0.878322 0.186004 0.000168
0.909111 0.185243 0.000000
0.940000 0.184657 0.000000
0.016486 0.275141 0.060486
0.038362 0.275141 0.060486
0.063378 0.275141 0.060486
0.089735 0.275141 0.060486
0.117002 0.275141 0.060486
0.144966 0.275141 0.060486
0.173499 0.275141 0.060486
0.202514 0.275141 0.060486
0.231947 0.275141 0.060486
0.261752 0.275141 0.060486
0.290367 0.273618 0.058963
0.318041 0.270851 0.056196
0.345969 0.268058 0.053403
0.374130 0.265242 0.050587
0.402509 0.262404 0.047749
0.431091 0.259546 0.044891
0.459865 0.256668 0.042014
0.488819 0.253773 0.039118
0.517944 0.250860 0.036206
0.547232 0.247932 0.033277
0.576674 0.244987 0.030333
0.606264 0.242028 0.027374
0.635995 0.239055 0.024401
0.665861 0.236069 0.021414
0.695858 0.233069 0.018414
0.725980 0.230057 0.015402
0.756223 0.227033 0.012378
0.786582 0.223997 0.009342
0.817054 0.220949 0.006295
0.847635 0.217891 0.003236
0.878322 0.214823 0.000168
0.909111 0.213970 0.000000
0.940000 0.213293 0.000000
0.013833 0.301669 0.057833
0.035709 0.301669 0.057833
0.060726 0.301669 0.057833
0.087082 0.301669 0.057833
0.114349 0.301669 0.057833
0.142314 0.301669 0.057833
0.170846 0.301669 0.057833
0.199861 0.301669 0.057833
0.229294 0.301669 0.057833
0.259099 0.301669 0.057833
0.289237 0.301669 0.057833
0.318041 0.300032 0.056196
0.345969 0.297240 0.053403
0.374130 0.294423 0.050587
0.402509 0.291586 0.047749
0.431091 0.288727 0.044891
0.459865 0.285850 0.042014
0.488819 0.282954 0.039118
0.517944 0.280042 0.036206
0.547232 0.277113 0.033277
0.576674 0.274169 0.030333
0.606264 0.271210 0.027374
0.635995 0.268237 0.024401
0.665861 0.265250 0.021414
0.695858 0.262251 0.018414
0.725980 0.259238 0.015402
0.756223 0.256214 0.012378
0.786582 0.253178 0.009342
0.817054 0.250131 0.006295
0.847635 0.247073 0.003236
0.878322 0.244004 0.000168
0.909111 0.243058 0.000000
0.940000 0.242290 0.000000
0.011149 0.328506 0.055149
0.033025 0.328506 0.055149
0.058042 0.328506 0.055149
0.084399 0.328506 0.055149
0.111666 0.328506 0.055149
0.139630 0.328506 0.055149
0.168163 0.328506 0.055149
0.197177 0.328506 0.055149
0.226611 0.328506 0.055149
0.256415 0.328506 0.055149
0.286553 0.328506 0.055149
0.316995 0.328506 0.055149
0.345969 0.326760 0.053403
0.374130 0.323944 0.050587
0.402509 0.321106 0.047749
0.431091 0.318248 0.044891
0.459865 0.315370 0.042014
0.488819 0.312475 0.039118
0.517944 0.309562 0.036206
0.547232 0.306634 0.033277
0.576674 0.303690 0.030333
0.606264 0.300731 0.027374
0.635995 0.297757 0.024401
0.665861 0.294771 0.021414
0.695858 0.291771 0.018414
0.725980 0.288759 0.015402
0.756223 0.285735 0.012378
0.786582 0.282699 0.009342
0.817054 0.279651 0.006295
0.847635 0.276593 0.003236
0.878322 0.273525 0.000168
0.909111 0.272484 0.000000
0.940000 0.271623 0.000000
0.008437 0.355632 0.052437
0.030313 0.355632 0.052437
0.055329 0.355632 0.052437
0.081686 0.355632 0.052437
0.108953 0.355632 0.052437
0.136917 0.355632 0.052437
0.165450 0.355632 0.052437
0.194465 0.355632 0.052437
0.223898 0.355632 0.052437
0.253703 0.355632 0.052437
0.283841 0.355632 0.052437
0.314282 0.355632 0.052437
0.345002 0.355632 0.052437
0.374130 0.353783 0.050587
0.402509 0.350945 0.047749
0.431091 0.348087 0.044891
0.459865 0.345209 0.042014
0.488819 0.342314 0.039118
0.517944 0.339401 0.036206
0.547232 0.336473 0.033277
0.576674 0.333528 0.030333
0.606264 0.330569 0.027374
0.635995 0.327596 0.024401
0.665861 0.324610 0.021414
0.695858 0.321610 0.018414
0.725980 0.318598 0.015402
0.756223 0.315573 0.012378
0.786582 0.312537 0.009342
0.817054 0.309490 0.006295
0.847635 0.306432 0.003236
0.878322 0.303364 0.000168
0.909111 0.302228 0.000000
0.940000 0.301273 0.000000
0.005697 0.383031 0.049697
0.027573 0.383031 0.049697
0.052589 0.383031 0.049697
0.078946 0.383031 0.049697
0.106213 0.383031 0.049697
0.134177 0.383031 0.049697
0.162710 0.383031 0.049697
0.191725 0.383031 0.049697
0.221158 0.383031 0.049697
0.250963 0.383031 0.049697
0.281101 0.383031 0.049697
0.311542 0.383031 0.049697
0.342262 0.383031 0.049697
0.373240 0.383031 0.049697
0.402509 0.381084 0.047749
0.431091 0.378225 0.044891
0.459865 0.375348 0.042014
0.488819 0.372453 0.039118
0.517944 0.369540 0.036206
0.547232 0.366611 0.033277
0.576674 0.363667 0.030333
0.606264 0.360708 0.027374
0.635995 0.357735 0.024401
0.665861 0.354748 0.021414
0.695858 0.351749 0.018414
0.725980 0.348737 0.015402
0.756223 0.345712 0.012378
0.786582 0.342676 0.009342
0.817054 0.339629 0.006295
0.847635 0.336571 0.003236
0.878322 0.333502 0.000168
0.909111 0.332271 0.000000
0.940000 0.331220 0.000000
0.002931 0.410689 0.046931
0.024807 0.410689 0.046931
0.049824 0.410689 0.046931
0.076180 0.410689 0.046931
0.103447 0.410689 0.046931
0.131412 0.410689 0.046931
0.159944 0.410689 0.046931
0.188959 0.410689 0.046931
0.218392 0.410689 0.046931
0.248197 0.410689 0.046931
0.278335 0.410689 0.046931
0.308777 0.410689 0.046931
0.339497 0.410689 0.046931
0.370474 0.410689 0.046931
0.401691 0.410689 0.046931
0.431091 0.408648 0.044891
0.459865 0.405771 0.042014
0.488819 0.402876 0.039118
0.517944 0.399963 0.036206
0.547232 0.397034 0.033277
0.576674 0.394090 0.030333
0.606264 0.391131 0.027374
0.635995 0.388158 0.024401
0.665861 0.385171 0.021414
0.695858 0.382172 0.018414
0.725980 0.379160 0.015402
0.756223 0.376135 0.012378
0.786582 0.373099 0.009342
0.817054 0.370052 0.006295
0.847635 0.366994 0.003236
0.878322 0.363925 0.000168
0.909111 0.362596 0.000000
0.940000 0.361450 0.000000
0.000141 0.438591 0.044141
0.022017 0.438591 0.044141
0.047033 0.438591 0.044141
0.073390 0.438591 0.044141
0.100657 0.438591 0.044141
0.128621 0.438591 0.044141
0.157154 0.438591 0.044141
0.186169 0.438591 0.044141
0.215602 0.438591 0.044141
0.245407 0.438591 0.044141
0.275545 0.438591 0.044141
0.305986 0.438591 0.044141
0.336706 0.438591 0.044141
0.367684 0.438591 0.044141
0.398900 0.438591 0.044141
0.430341 0.438591 0.044141
0.459865 0.436464 0.042014
0.488819 0.433568 0.039118
0.517944 0.430656 0.036206
0.547232 0.427727 0.033277
0.576674 0.424783 0.030333
0.606264 0.421824 0.027374
0.635995 0.418851 0.024401
0.665861 0.415864 0.021414
0.695858 0.412864 0.018414
0.725980 0.409852 0.015402
0.756223 0.406828 0.012378
0.786582 0.403792 0.009342
0.817054 0.400745 0.006295
0.847635 0.397687 0.003236
0.878322 0.394618 0.000168
0.909111 0.393191 0.000000
0.940000 0.391948 0.000000
0.000000 0.466727 0.043749
0.019203 0.466727 0.041327
0.044220 0.466727 0.041327
0.070577 0.466727 0.041327
0.097844 0.466727 0.041327
0.125808 0.466727 0.041327
0.154341 0.466727 0.041327
0.183355 0.466727 0.041327
0.212789 0.466727 0.041327
0.242593 0.466727 0.041327
0.272731 0.466727 0.041327
0.303173 0.466727 0.041327
0.333893 0.466727 0.041327
0.364870 0.466727 0.041327
0.396087 0.466727 0.041327
0.427527 0.466727 0.041327
0.459179 0.466727 0.041327
0.488819 0.464518 0.039118
0.517944 0.461605 0.036206
0.547232 0.458677 0.033277
0.576674 0.455733 0.030333
0.606264 0.452774 0.027374
0.635995 0.449800 0.024401
0.665861 0.446814 0.021414
0.695858 0.443814 0.018414
0.725980 0.440802 0.015402
0.756223 0.437778 0.012378
0.786582 0.434742 0.009342
0.817054 0.431694 0.006295
0.847635 0.428636 0.003236
0.878322 0.425568 0.000168
0.909111 0.424042 0.000000
0.940000 0.422702 0.000000
0.000000 0.495086 0.043516
0.016367 0.495086 0.038491
0.041384 0.495086 0.038491
0.067741 0.495086 0.038491
0.095008 0.495086 0.038491
0.122972 0.495086 0.038491
0.151505 0.495086 0.038491
0.180519 0.495086 0.038491
0.209953 0.495086 0.038491
0.239757 0.495086 0.038491
0.269895 0.495086 0.038491
0.300337 0.495086 0.038491
0.331057 0.495086 0.038491
0.362034 0.495086 0.038491
0.393251 0.495086 0.038491
0.424692 0.495086 0.038491
0.456343 0.495086 0.038491
0.488192 0.495086 0.038491
0.517944 0.492801 0.036206
0.547232 0.489872 0.033277
0.576674 0.486928 0.030333
0.606264 0.483969 0.027374
0.635995 0.480995 0.024401
0.665861 0.478009 0.021414
0.695858 0.475009 0.018414
0.725980 0.471997 0.015402
0.756223 0.468973 0.012378
0.786582 0.465937 0.009342
0.817054 0.462890 0.006295
0.847635 0.459831 0.003236
0.878322 0.456763 0.000168
0.909111 0.455138 0.000000
0.940000 0.453699 0.000000
0.000000 0.523659 0.043308
0.013510 0.523659 0.035634
0.038527 0.523659 0.035634
0.064883 0.523659 0.035634
0.092150 0.523659 0.035634
0.120115 0.523659 0.035634
0.148647 0.523659 0.035634
0.177662 0.523659 0.035634
0.207095 0.523659 0.035634
0.236900 0.523659 0.035634
0.267038 0.523659 0.035634
0.297480 0.523659 0.035634
0.328200 0.523659 0.035634
0.359177 0.523659 0.035634
0.390394 0.523659 0.035634
0.421834 0.523659 0.035634
0.453485 0.523659 0.035634
0.485335 0.523659 0.035634
0.517373 0.523659 0.035634
0.547232 0.521302 0.033277
0.576674 0.518358 0.030333
0.606264 0.515399 0.027374
0.635995 0.512426 0.024401
0.665861 0.509439 0.021414
0.695858 0.506439 0.018414
0.725980 0.503427 0.015402
0.756223 0.500403 0.012378
0.786582 0.497367 0.009342
0.817054 0.494320 0.006295
0.847635 0.491261 0.003236
0.878322 0.488193 0.000168
0.909111 0.486467 0.000000
0.940000 0.484930 0.000000
0.000000 0.552437 0.043122
0.010632 0.552437 0.032756
0.035649 0.552437 0.032756
0.062006 0.552437 0.032756
0.089273 0.552437 0.032756
0.117237 0.552437 0.032756
0.145770 0.552437 0.032756
0.174784 0.552437 0.032756
0.204218 0.552437 0.032756
0.234022 0.552437 0.032756
0.264160 0.552437 0.032756
0.294602 0.552437 0.032756
0.325322 0.552437 0.032756
0.356299 0.552437 0.032756
0.387516 0.552437 0.032756
0.418957 0.552437 0.032756
0.450608 0.552437 0.032756
0.482457 0.552437 0.032756
0.514495 0.552437 0.032756
0.546711 0.552437 0.032756
0.576674 0.550013 0.030333
0.606264 0.547054 0.027374
0.635995 0.544081 0.024401
0.665861 0.541094 0.021414
0.695858 0.538095 0.018414
0.725980 0.535082 0.015402
0.756223 0.532058 0.012378
0.786582 0.529022 0.009342
0.817054 0.525975 0.006295
0.847635 0.522917 0.003236
0.878322 0.519848 0.000168
0.909111 0.518022 0.000000
0.940000 0.516384 0.000000
0.000000 0.581411 0.042955
0.007735 0.581411 0.029859
0.032751 0.581411 0.029859
0.059108 0.581411 0.029859
0.086375 0.581411 0.029859
0.114339 0.581411 0.029859
0.142872 0.581411 0.029859
0.171887 0.581411 0.029859
0.201320 0.581411 0.029859
0.231125 0.581411 0.029859
0.261263 0.581411 0.029859
0.291704 0.581411 0.029859
0.322424 0.581411 0.029859
0.353402 0.581411 0.029859
0.384618 0.581411 0.029859
0.416059 0.581411 0.029859
0.447710 0.581411 0.029859
0.479560 0.581411 0.029859
0.511598 0.581411 0.029859
0.543814 0.581411 0.029859
0.576200 0.581411 0.029859
0.606264 0.578926 0.027374
0.635995 0.575953 0.024401
0.665861 0.572966 0.021414
0.695858 0.569967 0.018414
0.725980 0.566954 0.015402
0.756223 0.563930 0.012378
0.786582 0.560894 0.009342
0.817054 0.557847 0.006295
0.847635 0.554789 0.003236
0.878322 0.551720 0.000168
0.909111 0.549792 0.000000
0.940000 0.548054 0.000000
0.000000 0.610576 0.042804
0.004819 0.610576 0.026942
0.029835 0.610576 0.026942
0.056192 0.610576 0.026942
0.083459 0.610576 0.026942
0.111423 0.610576 0.026942
0.139956 0.610576 0.026942
0.168970 0.610576 0.026942
0.198404 0.610576 0.026942
0.228208 0.610576 0.026942
0.258346 0.610576 0.026942
0.288788 0.610576 0.026942
0.319508 0.610576 0.026942
0.350485 0.610576 0.026942
0.381702 0.610576 0.026942
0.413143 0.610576 0.026942
0.444794 0.610576 0.026942
0.476643 0.610576 0.026942
0.508681 0.610576 0.026942
0.540897 0.610576 0.026942
0.573284 0.610576 0.026942
0.605833 0.610576 0.026942
0.635995 0.608034 0.024401
0.665861 0.605047 0.021414
0.695858 0.602047 0.018414
0.725980 0.599035 0.015402
0.756223 0.596011 0.012378
0.786582 0.592975 0.009342
0.817054 0.589928 0.006295
0.847635 0.586870 0.003236
0.878322 0.583801 0.000168
0.909111 0.581770 0.000000
0.940000 0.579931 0.000000
0.000000 0.639923 0.042667
0.001884 0.639923 0.024008
0.026900 0.639923 0.024008
0.053257 0.639923 0.024008
0.080524 0.639923 0.024008
0.108488 0.639923 0.024008
0.137021 0.639923 0.024008
0.166036 0.639923 0.024008
0.195469 0.639923 0.024008
0.225274 0.639923 0.024008
0.255412 0.639923 0.024008
0.285853 0.639923 0.024008
0.316573 0.639923 0.024008
0.347551 0.639923 0.024008
0.378767 0.639923 0.024008
0.410208 0.639923 0.024008
0.441859 0.639923 0.024008
0.473709 0.639923 0.024008
0.505746 0.639923 0.024008
0.537963 0.639923 0.024008
0.570349 0.639923 0.024008
0.602898 0.639923 0.024008
0.635602 0.639923 0.024008
0.665861 0.637329 0.021414
0.695858 0.634329 0.018414
0.725980 0.631317 0.015402
0.756223 0.628293 0.012378
0.786582 0.625257 0.009342
0.817054 0.622209 0.006295
0.847635 0.619151 0.003236
0.878322 0.616083 0.000168
0.909111 0.613949 0.000000
0.940000 0.612008 0.000000
0.000000 0.669446 0.042542
0.000000 0.669446 0.022089
0.023948 0.669446 0.021055
0.050305 0.669446 0.021055
0.077572 0.669446 0.021055
0.105536 0.669446 0.021055
0.134069 0.669446 0.021055
0.163083 0.669446 0.021055
0.192517 0.669446 0.021055
0.222321 0.669446 0.021055
0.252459 0.669446 0.021055
0.282901 0.669446 0.021055
0.313621 0.669446 0.021055
0.344598 0.669446 0.021055
0.375815 0.669446 0.021055
0.407256 0.669446 0.021055
0.438907 0.669446 0.021055
0.470756 0.669446 0.021055
0.502794 0.669446 0.021055
0.535010 0.669446 0.021055
0.567397 0.669446 0.021055
0.599945 0.669446 0.021055
0.632650 0.669446 0.021055
0.665503 0.669446 0.021055
0.695858 0.666805 0.018414
0.725980 0.663793 0.015402
0.756223 0.660769 0.012378
0.786582 0.657733 0.009342
