app/src/main/assets/luts/dusk.cube
TITLE "Dusk"
LUT_3D_SIZE 9
DOMAIN_MIN 0.0 0.0 0.0
DOMAIN_MAX 1.0 1.0 1.0
0.040000 0.000000 0.080000
0.131378 0.000000 0.080000
0.235874 0.000000 0.080000
0.345969 0.000000 0.080000
0.459865 0.000000 0.080000
0.576674 0.000000 0.080000
0.695858 0.000000 0.080000
0.817054 0.000000 0.080000
0.940000 0.000000 0.080000
0.036000 0.077558 0.080000
0.131378 0.072420 0.074862
0.235874 0.061970 0.064413
0.345969 0.050961 0.053403
0.459865 0.039571 0.042014
0.576674 0.027890 0.030333
0.695858 0.015972 0.018414
0.817054 0.003852 0.006295
0.940000 0.000000 0.002421
0.026740 0.172604 0.070740
0.127256 0.172604 0.070740
0.235874 0.166277 0.064413
0.345969 0.155267 0.053403
0.459865 0.143878 0.042014
0.576674 0.132197 0.030333
0.695858 0.120278 0.018414
0.817054 0.108159 0.006295
0.940000 0.101218 0.000000
0.016486 0.275141 0.060486
0.117002 0.275141 0.060486
0.231947 0.275141 0.060486
0.345969 0.268058 0.053403
0.459865 0.256668 0.042014
0.576674 0.244987 0.030333
0.695858 0.233069 0.018414
0.817054 0.220949 0.006295
0.940000 0.213293 0.000000
0.005697 0.383031 0.049697
0.106213 0.383031 0.049697
0.221158 0.383031 0.049697
0.342262 0.383031 0.049697
0.459865 0.375348 0.042014
0.576674 0.363667 0.030333
0.695858 0.351749 0.018414
0.817054 0.339629 0.006295
0.940000 0.331220 0.000000
0.000000 0.495086 0.043516
0.095008 0.495086 0.038491
0.209953 0.495086 0.038491
0.331057 0.495086 0.038491
0.456343 0.495086 0.038491
0.576674 0.486928 0.030333
0.695858 0.475009 0.018414
0.817054 0.462890 0.006295
0.940000 0.453699 0.000000
0.000000 0.610576 0.042804
0.083459 0.610576 0.026942
0.198404 0.610576 0.026942
0.319508 0.610576 0.026942
0.444794 0.610576 0.026942
0.573284 0.610576 0.026942
0.695858 0.602047 0.018414
0.817054 0.589928 0.006295
0.940000 0.579931 0.000000
0.000000 0.729001 0.042322
0.071616 0.729001 0.015100
0.186561 0.729001 0.015100
0.307665 0.729001 0.015100
0.432951 0.729001 0.015100
0.561441 0.729001 0.015100
0.692544 0.729001 0.015100
0.817054 0.720196 0.006295
0.940000 0.709373 0.000000
0.000000 0.850000 0.041975
0.059516 0.850000 0.003000
0.174461 0.850000 0.003000
0.295565 0.850000 0.003000
0.420851 0.850000 0.003000
0.549341 0.850000 0.003000
0.680444 0.850000 0.003000
0.813760 0.850000 0.003000
0.940000 0.841628 0.000000
0.040000 0.000000 0.245339
0.131378 0.000000 0.245339
0.235874 0.000000 0.245339
0.345969 0.000000 0.245339
0.459865 0.000000 0.245339
0.576674 0.000000 0.245339
0.695858 0.000000 0.245339
0.817054 0.000000 0.245339
0.940000 0.000000 0.245339
0.019466 0.061024 0.245339
0.119982 0.061024 0.245339
0.234927 0.061024 0.245339
0.345969 0.050961 0.235276
0.459865 0.039571 0.223886
0.576674 0.027890 0.212205
0.695858 0.015972 0.200287
0.817054 0.003852 0.188167
0.940000 0.000000 0.182675
0.019466 0.165330 0.245339
0.119982 0.165330 0.245339
0.234927 0.165330 0.245339
0.345969 0.155267 0.235276
0.459865 0.143878 0.223886
0.576674 0.132197 0.212205
0.695858 0.120278 0.200287
0.817054 0.108159 0.188167
0.940000 0.095864 0.175873
0.016486 0.275141 0.242359
0.117002 0.275141 0.242359
0.231947 0.275141 0.242359
0.345969 0.268058 0.235276
0.459865 0.256668 0.223886
0.576674 0.244987 0.212205
0.695858 0.233069 0.200287
0.817054 0.220949 0.188167
0.940000 0.208655 0.175873
0.005697 0.383031 0.231570
0.106213 0.383031 0.231570
0.221158 0.383031 0.231570
0.342262 0.383031 0.231570
0.459865 0.375348 0.223886
0.576674 0.363667 0.212205
0.695858 0.351749 0.200287
0.817054 0.339629 0.188167
0.940000 0.327335 0.175873
0.000000 0.495086 0.223387
0.095008 0.495086 0.220364
0.209953 0.495086 0.220364
0.331057 0.495086 0.220364
0.456343 0.495086 0.220364
0.576674 0.486928 0.212205
0.695858 0.475009 0.200287
0.817054 0.462890 0.188167
0.940000 0.450595 0.175873
0.000000 0.610576 0.219734
0.083459 0.610576 0.208815
0.198404 0.610576 0.208815
0.319508 0.610576 0.208815
0.444794 0.610576 0.208815
0.573284 0.610576 0.208815
0.695858 0.602047 0.200287
0.817054 0.589928 0.188167
0.940000 0.577633 0.175873
0.000000 0.729001 0.217260
0.071616 0.729001 0.196973
0.186561 0.729001 0.196973
0.307665 0.729001 0.196973
0.432951 0.729001 0.196973
0.561441 0.729001 0.196973
0.692544 0.729001 0.196973
0.817054 0.720196 0.188167
0.940000 0.707901 0.175873
0.000000 0.850000 0.215479
0.059516 0.850000 0.184873
0.174461 0.850000 0.184873
0.295565 0.850000 0.184873
0.420851 0.850000 0.184873
0.549341 0.850000 0.184873
0.680444 0.850000 0.184873
0.813760 0.850000 0.184873
0.940000 0.841000 0.175873
0.040000 0.000000 0.392840
0.131378 0.000000 0.392840
0.235874 0.000000 0.392840
0.345969 0.000000 0.392840
0.459865 0.000000 0.392840
0.576674 0.000000 0.392840
0.695858 0.000000 0.392840
0.817054 0.000000 0.392840
0.940000 0.000000 0.392840
0.004716 0.046273 0.392840
0.105232 0.046273 0.392840
0.220177 0.046273 0.392840
0.341281 0.046273 0.392840
0.459865 0.039571 0.386138
0.576674 0.027890 0.374457
0.695858 0.015972 0.362539
0.817054 0.003852 0.350419
0.940000 0.000000 0.343482
0.004716 0.150580 0.392840
0.105232 0.150580 0.392840
0.220177 0.150580 0.392840
0.341281 0.150580 0.392840
0.459865 0.143878 0.386138
0.576674 0.132197 0.374457
0.695858 0.120278 0.362539
0.817054 0.108159 0.350419
0.940000 0.095864 0.338124
0.004716 0.263371 0.392840
0.105232 0.263371 0.392840
0.220177 0.263371 0.392840
0.341281 0.263371 0.392840
0.459865 0.256668 0.386138
0.576674 0.244987 0.374457
0.695858 0.233069 0.362539
0.817054 0.220949 0.350419
0.940000 0.208655 0.338124
0.004716 0.382051 0.392840
0.105232 0.382051 0.392840
0.220177 0.382051 0.392840
0.341281 0.382051 0.392840
0.459865 0.375348 0.386138
0.576674 0.363667 0.374457
0.695858 0.351749 0.362539
0.817054 0.339629 0.350419
0.940000 0.327335 0.338124
0.000000 0.495086 0.383853
0.095008 0.495086 0.382616
0.209953 0.495086 0.382616
0.331057 0.495086 0.382616
0.456343 0.495086 0.382616
0.576674 0.486928 0.374457
0.695858 0.475009 0.362539
0.817054 0.462890 0.350419
0.940000 0.450595 0.338124
0.000000 0.610576 0.377576
0.083459 0.610576 0.371067
0.198404 0.610576 0.371067
0.319508 0.610576 0.371067
0.444794 0.610576 0.371067
0.573284 0.610576 0.371067
0.695858 0.602047 0.362539
0.817054 0.589928 0.350419
0.940000 0.577633 0.338124
0.000000 0.729001 0.373325
0.071616 0.729001 0.359224
0.186561 0.729001 0.359224
0.307665 0.729001 0.359224
0.432951 0.729001 0.359224
0.561441 0.729001 0.359224
0.692544 0.729001 0.359224
0.817054 0.720196 0.350419
0.940000 0.707901 0.338124
0.000000 0.850000 0.370265
0.059516 0.850000 0.347124
0.174461 0.850000 0.347124
0.295565 0.850000 0.347124
0.420851 0.850000 0.347124
0.549341 0.850000 0.347124
0.680444 0.850000 0.347124
0.813760 0.850000 0.347124
0.940000 0.841000 0.338124
0.040000 0.000000 0.534283
0.131378 0.000000 0.534283
0.235874 0.000000 0.534283
0.345969 0.000000 0.534283
0.459865 0.000000 0.534283
0.576674 0.000000 0.534283
0.695858 0.000000 0.534283
0.817054 0.000000 0.534283
0.940000 0.000000 0.534283
0.000000 0.040837 0.534283
0.091088 0.032129 0.534283
0.206033 0.032129 0.534283
0.327137 0.032129 0.534283
0.452423 0.032129 0.534283
0.576674 0.027890 0.530044
0.695858 0.015972 0.518126
0.817054 0.003852 0.506006
0.940000 0.000000 0.497684
0.000000 0.143335 0.534283
0.091088 0.136436 0.534283
0.206033 0.136436 0.534283
0.327137 0.136436 0.534283
0.452423 0.136436 0.534283
0.576674 0.132197 0.530044
0.695858 0.120278 0.518126
0.817054 0.108159 0.506006
0.940000 0.095864 0.493712
0.000000 0.254170 0.534283
0.091088 0.249226 0.534283
0.206033 0.249226 0.534283
0.327137 0.249226 0.534283
0.452423 0.249226 0.534283
0.576674 0.244987 0.530044
0.695858 0.233069 0.518126
0.817054 0.220949 0.506006
0.940000 0.208655 0.493712
0.000000 0.370791 0.534283
0.091088 0.367906 0.534283
0.206033 0.367906 0.534283
0.327137 0.367906 0.534283
0.452423 0.367906 0.534283
0.576674 0.363667 0.530044
0.695858 0.351749 0.518126
0.817054 0.339629 0.506006
0.940000 0.327335 0.493712
0.000000 0.491914 0.534283
0.091088 0.491167 0.534283
0.206033 0.491167 0.534283
0.327137 0.491167 0.534283
0.452423 0.491167 0.534283
0.576674 0.486928 0.530044
0.695858 0.475009 0.518126
0.817054 0.462890 0.506006
0.940000 0.450595 0.493712
0.000000 0.610576 0.528935
0.083459 0.610576 0.526654
0.198404 0.610576 0.526654
0.319508 0.610576 0.526654
0.444794 0.610576 0.526654
0.573284 0.610576 0.526654
0.695858 0.602047 0.518126
0.817054 0.589928 0.506006
0.940000 0.577633 0.493712
0.000000 0.729001 0.522979
0.071616 0.729001 0.514812
0.186561 0.729001 0.514812
0.307665 0.729001 0.514812
0.432951 0.729001 0.514812
0.561441 0.729001 0.514812
0.692544 0.729001 0.514812
0.817054 0.720196 0.506006
0.940000 0.707901 0.493712
0.000000 0.850000 0.518692
0.059516 0.850000 0.502712
0.174461 0.850000 0.502712
0.295565 0.850000 0.502712
0.420851 0.850000 0.502712
0.549341 0.850000 0.502712
0.680444 0.850000 0.502712
0.813760 0.850000 0.502712
0.940000 0.841000 0.493712
0.040000 0.000000 0.671930
0.131378 0.000000 0.671930
0.235874 0.000000 0.671930
0.345969 0.000000 0.671930
0.459865 0.000000 0.671930
0.576674 0.000000 0.671930
0.695858 0.000000 0.671930
0.817054 0.000000 0.671930
0.940000 0.000000 0.671930
0.000000 0.040171 0.671930
0.077323 0.018364 0.671930
0.192268 0.018364 0.671930
0.313372 0.018364 0.671930
0.438658 0.018364 0.671930
0.567148 0.018364 0.671930
0.695858 0.015972 0.669537
0.817054 0.003852 0.657418
0.940000 0.000000 0.647748
0.000000 0.140997 0.671930
0.077323 0.122671 0.671930
0.192268 0.122671 0.671930
0.313372 0.122671 0.671930
0.438658 0.122671 0.671930
0.567148 0.122671 0.671930
0.695858 0.120278 0.669537
0.817054 0.108159 0.657418
0.940000 0.095864 0.645123
0.000000 0.250025 0.671930
0.077323 0.235462 0.671930
0.192268 0.235462 0.671930
0.313372 0.235462 0.671930
0.438658 0.235462 0.671930
0.567148 0.235462 0.671930
0.695858 0.233069 0.669537
0.817054 0.220949 0.657418
0.940000 0.208655 0.645123
0.000000 0.364745 0.671930
0.077323 0.354142 0.671930
0.192268 0.354142 0.671930
0.313372 0.354142 0.671930
0.438658 0.354142 0.671930
0.567148 0.354142 0.671930
0.695858 0.351749 0.669537
0.817054 0.339629 0.657418
0.940000 0.327335 0.645123
0.000000 0.483892 0.671930
0.077323 0.477402 0.671930
0.192268 0.477402 0.671930
0.313372 0.477402 0.671930
0.438658 0.477402 0.671930
0.567148 0.477402 0.671930
0.695858 0.475009 0.669537
0.817054 0.462890 0.657418
0.940000 0.450595 0.645123
0.000000 0.606692 0.671930
0.077323 0.604440 0.671930
0.192268 0.604440 0.671930
0.313372 0.604440 0.671930
0.438658 0.604440 0.671930
0.567148 0.604440 0.671930
0.695858 0.602047 0.669537
0.817054 0.589928 0.657418
0.940000 0.577633 0.645123
0.000000 0.729001 0.668617
0.071616 0.729001 0.666223
0.186561 0.729001 0.666223
0.307665 0.729001 0.666223
0.432951 0.729001 0.666223
0.561441 0.729001 0.666223
0.692544 0.729001 0.666223
0.817054 0.720196 0.657418
0.940000 0.707901 0.645123
0.000000 0.850000 0.663137
0.059516 0.850000 0.654123
0.174461 0.850000 0.654123
0.295565 0.850000 0.654123
0.420851 0.850000 0.654123
0.549341 0.850000 0.654123
0.680444 0.850000 0.654123
0.813760 0.850000 0.654123
0.940000 0.841000 0.645123
0.040000 0.000000 0.806821
0.131378 0.000000 0.806821
0.235874 0.000000 0.806821
0.345969 0.000000 0.806821
0.459865 0.000000 0.806821
0.576674 0.000000 0.806821
0.695858 0.000000 0.806821
0.817054 0.000000 0.806821
0.940000 0.000000 0.806821
0.000000 0.039750 0.806821
0.063834 0.004875 0.806821
0.178779 0.004875 0.806821
0.299883 0.004875 0.806821
0.425169 0.004875 0.806821
0.553659 0.004875 0.806821
0.684762 0.004875 0.806821
0.817054 0.003852 0.805798
0.940000 0.000000 0.794807
0.000000 0.139521 0.806821
0.063834 0.109182 0.806821
0.178779 0.109182 0.806821
0.299883 0.109182 0.806821
0.425169 0.109182 0.806821
0.553659 0.109182 0.806821
0.684762 0.109182 0.806821
0.817054 0.108159 0.805798
0.940000 0.095864 0.793503
0.000000 0.247406 0.806821
0.063834 0.221973 0.806821
0.178779 0.221973 0.806821
0.299883 0.221973 0.806821
0.425169 0.221973 0.806821
0.553659 0.221973 0.806821
0.684762 0.221973 0.806821
0.817054 0.220949 0.805798
0.940000 0.208655 0.793503
0.000000 0.360925 0.806821
0.063834 0.340652 0.806821
0.178779 0.340652 0.806821
0.299883 0.340652 0.806821
0.425169 0.340652 0.806821
0.553659 0.340652 0.806821
0.684762 0.340652 0.806821
0.817054 0.339629 0.805798
0.940000 0.327335 0.793503
0.000000 0.478825 0.806821
0.063834 0.463913 0.806821
0.178779 0.463913 0.806821
0.299883 0.463913 0.806821
0.425169 0.463913 0.806821
0.553659 0.463913 0.806821
0.684762 0.463913 0.806821
0.817054 0.462890 0.805798
0.940000 0.450595 0.793503
0.000000 0.600339 0.806821
0.063834 0.590951 0.806821
0.178779 0.590951 0.806821
0.299883 0.590951 0.806821
0.425169 0.590951 0.806821
0.553659 0.590951 0.806821
0.684762 0.590951 0.806821
0.817054 0.589928 0.805798
0.940000 0.577633 0.793503
0.000000 0.724942 0.806821
0.063834 0.721219 0.806821
0.178779 0.721219 0.806821
0.299883 0.721219 0.806821
0.425169 0.721219 0.806821
0.553659 0.721219 0.806821
0.684762 0.721219 0.806821
0.817054 0.720196 0.805798
0.940000 0.707901 0.793503
0.000000 0.850000 0.804689
0.059516 0.850000 0.802503
0.174461 0.850000 0.802503
0.295565 0.850000 0.802503
0.420851 0.850000 0.802503
0.549341 0.850000 0.802503
0.680444 0.850000 0.802503
0.813760 0.850000 0.802503
0.940000 0.841000 0.793503
0.040000 0.000000 0.939556
0.131378 0.000000 0.939556
0.235874 0.000000 0.939556
0.345969 0.000000 0.939556
0.459865 0.000000 0.939556
0.576674 0.000000 0.939556
0.695858 0.000000 0.939556
0.817054 0.000000 0.939556
0.940000 0.000000 0.939556
0.000000 0.039459 0.939556
0.058436 0.000000 0.939556
0.172363 0.000000 0.939556
0.292394 0.000000 0.939556
0.416570 0.000000 0.939556
0.543922 0.000000 0.939556
0.673863 0.000000 0.939556
0.805998 0.000000 0.939556
0.940000 0.000000 0.939516
0.000000 0.138500 0.939556
0.050561 0.095908 0.939556
0.165506 0.095908 0.939556
0.286610 0.095908 0.939556
0.411896 0.095908 0.939556
0.540386 0.095908 0.939556
0.671488 0.095908 0.939556
0.804804 0.095908 0.939556
0.940000 0.095864 0.939512
0.000000 0.245597 0.939556
0.050561 0.208699 0.939556
0.165506 0.208699 0.939556
0.286610 0.208699 0.939556
0.411896 0.208699 0.939556
0.540386 0.208699 0.939556
0.671488 0.208699 0.939556
0.804804 0.208699 0.939556
0.940000 0.208655 0.939512
0.000000 0.358285 0.939556
0.050561 0.327379 0.939556
0.165506 0.327379 0.939556
0.286610 0.327379 0.939556
0.411896 0.327379 0.939556
0.540386 0.327379 0.939556
0.671488 0.327379 0.939556
0.804804 0.327379 0.939556
0.940000 0.327335 0.939512
0.000000 0.475322 0.939556
0.050561 0.450639 0.939556
0.165506 0.450639 0.939556
0.286610 0.450639 0.939556
0.411896 0.450639 0.939556
0.540386 0.450639 0.939556
0.671488 0.450639 0.939556
0.804804 0.450639 0.939556
0.940000 0.450595 0.939512
0.000000 0.595947 0.939556
0.050561 0.577677 0.939556
0.165506 0.577677 0.939556
0.286610 0.577677 0.939556
0.411896 0.577677 0.939556
0.540386 0.577677 0.939556
0.671488 0.577677 0.939556
0.804804 0.577677 0.939556
0.940000 0.577633 0.939512
0.000000 0.719638 0.939556
0.050561 0.707946 0.939556
0.165506 0.707946 0.939556
0.286610 0.707946 0.939556
0.411896 0.707946 0.939556
0.540386 0.707946 0.939556
0.671488 0.707946 0.939556
0.804804 0.707946 0.939556
0.940000 0.707901 0.939512
0.000000 0.846018 0.939556
0.050561 0.841044 0.939556
0.165506 0.841044 0.939556
0.286610 0.841044 0.939556
0.411896 0.841044 0.939556
0.540386 0.841044 0.939556
0.671488 0.841044 0.939556
0.804804 0.841044 0.939556
0.940000 0.841000 0.939512
0.040000 0.000000 1.000000
0.131378 0.000000 1.000000
0.235874 0.000000 1.000000
0.345969 0.000000 1.000000
0.459865 0.000000 1.000000
0.576674 0.000000 1.000000
0.695858 0.000000 1.000000
0.817054 0.000000 1.000000
0.940000 0.000000 1.000000
0.000000 0.039354 1.000000
0.058119 0.000000 1.000000
0.171428 0.000000 1.000000
0.290808 0.000000 1.000000
0.414310 0.000000 1.000000
0.540971 0.000000 1.000000
0.670207 0.000000 1.000000
0.801625 0.000000 1.000000
0.934940 0.000000 1.000000
0.000000 0.138129 1.000000
0.044516 0.089864 1.000000
0.159461 0.089864 1.000000
0.280565 0.089864 1.000000
0.405851 0.089864 1.000000
0.534341 0.089864 1.000000
0.665444 0.089864 1.000000
0.798760 0.089864 1.000000
0.934000 0.089864 1.000000
0.000000 0.244938 1.000000
0.044516 0.202655 1.000000
0.159461 0.202655 1.000000
0.280565 0.202655 1.000000
0.405851 0.202655 1.000000
0.534341 0.202655 1.000000
0.665444 0.202655 1.000000
0.798760 0.202655 1.000000
0.934000 0.202655 1.000000
0.000000 0.357324 1.000000
0.044516 0.321335 1.000000
0.159461 0.321335 1.000000
0.280565 0.321335 1.000000
0.405851 0.321335 1.000000
0.534341 0.321335 1.000000
0.665444 0.321335 1.000000
0.798760 0.321335 1.000000
0.934000 0.321335 1.000000
0.000000 0.474048 1.000000
0.044516 0.444595 1.000000
0.159461 0.444595 1.000000
0.280565 0.444595 1.000000
0.405851 0.444595 1.000000
0.534341 0.444595 1.000000
0.665444 0.444595 1.000000
0.798760 0.444595 1.000000
0.934000 0.444595 1.000000
0.000000 0.594349 1.000000
0.044516 0.571633 1.000000
0.159461 0.571633 1.000000
0.280565 0.571633 1.000000
0.405851 0.571633 1.000000
0.534341 0.571633 1.000000
0.665444 0.571633 1.000000
0.798760 0.571633 1.000000
0.934000 0.571633 1.000000
0.000000 0.717709 1.000000
0.044516 0.701901 1.000000
0.159461 0.701901 1.000000
0.280565 0.701901 1.000000
0.405851 0.701901 1.000000
0.534341 0.701901 1.000000
0.665444 0.701901 1.000000
0.798760 0.701901 1.000000
0.934000 0.701901 1.000000
0.000000 0.843750 1.000000
0.044516 0.835000 1.000000
0.159461 0.835000 1.000000
0.280565 0.835000 1.000000
0.405851 0.835000 1.000000
0.534341 0.835000 1.000000
0.665444 0.835000 1.000000
0.798760 0.835000 1.000000
0.934000 0.835000 1.000000
0.040000 0.000000 1.000000
0.131378 0.000000 1.000000
0.235874 0.000000 1.000000
0.345969 0.000000 1.000000
0.459865 0.000000 1.000000
0.576674 0.000000 1.000000
0.695858 0.000000 1.000000
0.817054 0.000000 1.000000
0.940000 0.000000 1.000000
0.000000 0.039354 1.000000
0.058119 0.000000 1.000000
0.171428 0.000000 1.000000
0.290808 0.000000 1.000000
0.414310 0.000000 1.000000
0.540971 0.000000 1.000000
0.670207 0.000000 1.000000
0.801625 0.000000 1.000000
0.934940 0.000000 1.000000
0.000000 0.138129 1.000000
0.044516 0.089864 1.000000
0.159461 0.089864 1.000000
0.280565 0.089864 1.000000
0.405851 0.089864 1.000000
0.534341 0.089864 1.000000
0.665444 0.089864 1.000000
0.798760 0.089864 1.000000
0.934000 0.089864 1.000000
0.000000 0.244938 1.000000
0.044516 0.202655 1.000000
0.159461 0.202655 1.000000
0.280565 0.202655 1.000000
0.405851 0.202655 1.000000
0.534341 0.202655 1.000000
0.665444 0.202655 1.000000
0.798760 0.202655 1.000000
0.934000 0.202655 1.000000
0.000000 0.357324 1.000000
0.044516 0.321335 1.000000
0.159461 0.321335 1.000000
0.280565 0.321335 1.000000
0.405851 0.321335 1.000000
0.534341 0.321335 1.000000
0.665444 0.321335 1.000000
0.798760 0.321335 1.000000
0.934000 0.321335 1.000000
0.000000 0.474048 1.000000
0.044516 0.444595 1.000000
0.159461 0.444595 1.000000
0.280565 0.444595 1.000000
0.405851 0.444595 1.000000
0.534341 0.444595 1.000000
0.665444 0.444595 1.000000
0.798760 0.444595 1.000000
0.934000 0.444595 1.000000
0.000000 0.594349 1.000000
0.044516 0.571633 1.000000
0.159461 0.571633 1.000000
0.280565 0.571633 1.000000
0.405851 0.571633 1.000000
0.534341 0.571633 1.000000
0.665444 0.571633 1.000000
0.798760 0.571633 1.000000
0.934000 0.571633 1.000000
0.000000 0.717709 1.000000
0.044516 0.701901 1.000000
0.159461 0.701901 1.000000
0.280565 0.701901 1.000000
0.405851 0.701901 1.000000
0.534341 0.701901 1.000000
0.665444 0.701901 1.000000
0.798760 0.701901 1.000000
0.934000 0.701901 1.000000
0.000000 0.843750 1.000000
0.044516 0.835000 1.000000
0.159461 0.835000 1.000000
0.280565 0.835000 1.000000
0.405851 0.835000 1.000000
0.534341 0.835000 1.000000
0.665444 0.835000 1.000000
0.798760 0.835000 1.000000
0.934000 0.835000 1.000000
