app/src/main/assets/luts/dusk.cube
TITLE "Dusk"
LUT_3D_SIZE 5
DOMAIN_MIN 0.0 0.0 0.0
DOMAIN_MAX 1.0 1.0 1.0
0.040000 0.000000 0.080000
0.235874 0.000000 0.080000
0.459865 0.000000 0.080000
0.695858 0.000000 0.080000
0.940000 0.000000 0.080000
0.026740 0.172604 0.070740
0.235874 0.166277 0.064413
0.459865 0.143878 0.042014
0.695858 0.120278 0.018414
0.940000 0.101218 0.000000
0.005697 0.383031 0.049697
0.221158 0.383031 0.049697
0.459865 0.375348 0.042014
0.695858 0.351749 0.018414
0.940000 0.331220 0.000000
0.000000 0.610576 0.042804
0.198404 0.610576 0.026942
0.444794 0.610576 0.026942
0.695858 0.602047 0.018414
0.940000 0.579931 0.000000
0.000000 0.850000 0.041975
0.174461 0.850000 0.003000
0.420851 0.850000 0.003000
0.680444 0.850000 0.003000
0.940000 0.841628 0.000000
0.040000 0.000000 0.392840
0.235874 0.000000 0.392840
0.459865 0.000000 0.392840
0.695858 0.000000 0.392840
0.940000 0.000000 0.392840
0.004716 0.150580 0.392840
0.220177 0.150580 0.392840
0.459865 0.143878 0.386138
0.695858 0.120278 0.362539
0.940000 0.095864 0.338124
0.004716 0.382051 0.392840
0.220177 0.382051 0.392840
0.459865 0.375348 0.386138
0.695858 0.351749 0.362539
0.940000 0.327335 0.338124
0.000000 0.610576 0.377576
0.198404 0.610576 0.371067
0.444794 0.610576 0.371067
0.695858 0.602047 0.362539
0.940000 0.577633 0.338124
0.000000 0.850000 0.370265
0.174461 0.850000 0.347124
0.420851 0.850000 0.347124
0.680444 0.850000 0.347124
0.940000 0.841000 0.338124
0.040000 0.000000 0.671930
0.235874 0.000000 0.671930
0.459865 0.000000 0.671930
0.695858 0.000000 0.671930
0.940000 0.000000 0.671930
0.000000 0.140997 0.671930
0.192268 0.122671 0.671930
0.438658 0.122671 0.671930
0.695858 0.120278 0.669537
0.940000 0.095864 0.645123
0.000000 0.364745 0.671930
0.192268 0.354142 0.671930
0.438658 0.354142 0.671930
0.695858 0.351749 0.669537
0.940000 0.327335 0.645123
0.000000 0.606692 0.671930
0.192268 0.604440 0.671930
0.438658 0.604440 0.671930
0.695858 0.602047 0.669537
0.940000 0.577633 0.645123
0.000000 0.850000 0.663137
0.174461 0.850000 0.654123
0.420851 0.850000 0.654123
0.680444 0.850000 0.654123
0.940000 0.841000 0.645123
0.040000 0.000000 0.939556
0.235874 0.000000 0.939556
0.459865 0.000000 0.939556
0.695858 0.000000 0.939556
0.940000 0.000000 0.939556
0.000000 0.138500 0.939556
0.165506 0.095908 0.939556
0.411896 0.095908 0.939556
0.671488 0.095908 0.939556
0.940000 0.095864 0.939512
0.000000 0.358285 0.939556
0.165506 0.327379 0.939556
0.411896 0.327379 0.939556
0.671488 0.327379 0.939556
0.940000 0.327335 0.939512
0.000000 0.595947 0.939556
0.165506 0.577677 0.939556
0.411896 0.577677 0.939556
0.671488 0.577677 0.939556
0.940000 0.577633 0.939512
0.000000 0.846018 0.939556
0.165506 0.841044 0.939556
0.411896 0.841044 0.939556
0.671488 0.841044 0.939556
0.940000 0.841000 0.939512
0.040000 0.000000 1.000000
0.235874 0.000000 1.000000
0.459865 0.000000 1.000000
0.695858 0.000000 1.000000
0.940000 0.000000 1.000000
0.000000 0.138129 1.000000
0.159461 0.089864 1.000000
0.405851 0.089864 1.000000
0.665444 0.089864 1.000000
0.934000 0.089864 1.000000
0.000000 0.357324 1.000000
0.159461 0.321335 1.000000
0.405851 0.321335 1.000000
0.665444 0.321335 1.000000
0.934000 0.321335 1.000000
0.000000 0.594349 1.000000
0.159461 0.571633 1.000000
0.405851 0.571633 1.000000
0.665444 0.571633 1.000000
0.934000 0.571633 1.000000
0.000000 0.843750 1.000000
0.159461 0.835000 1.000000
0.405851 0.835000 1.000000
0.665444 0.835000 1.000000
0.934000 0.835000 1.000000
