app/src/main/assets/luts/ektar_100.cube
TITLE "Ektar 100"
LUT_3D_SIZE 33
DOMAIN_MIN 0.0 0.0 0.0
DOMAIN_MAX 1.0 1.0 1.0
0.000000 0.000000 0.000000
0.027329 0.000000 0.000000
0.056586 0.000000 0.000000
0.086617 0.000000 0.000000
0.117163 0.000000 0.000000
0.148096 0.000000 0.000000
0.179343 0.000000 0.000000
0.210853 0.000000 0.000000
0.242589 0.000000 0.000000
0.274524 0.000000 0.000000
0.306638 0.000000 0.000000
0.338913 0.000000 0.000000
0.371335 0.000000 0.000000
0.403893 0.000000 0.000000
0.436576 0.000000 0.000000
0.469377 0.000000 0.000000
0.502287 0.000000 0.000000
0.535300 0.000000 0.000000
0.568410 0.000000 0.000000
0.601613 0.000000 0.000000
0.634903 0.000000 0.000000
0.668276 0.000000 0.000000
0.701729 0.000000 0.000000
0.735259 0.000000 0.000000
0.768861 0.000000 0.000000
0.802533 0.000000 0.000000
0.836273 0.000000 0.000000
0.870077 0.000000 0.000000
0.903945 0.000000 0.000000
0.937872 0.000000 0.000000
0.971859 0.000000 0.000000
1.000000 0.000000 0.000000
1.000000 0.000000 0.000000
0.000000 0.027749 0.000000
0.027329 0.027749 0.000000
0.056586 0.027749 0.000000
0.086617 0.027749 0.000000
0.117163 0.027749 0.000000
0.148096 0.027749 0.000000
0.179343 0.027749 0.000000
0.210853 0.027749 0.000000
0.242589 0.027749 0.000000
0.274524 0.027749 0.000000
0.306638 0.027749 0.000000
0.338913 0.027749 0.000000
0.371335 0.027749 0.000000
0.403893 0.027749 0.000000
0.436576 0.027749 0.000000
0.469377 0.027749 0.000000
0.502287 0.027749 0.000000
0.535300 0.027749 0.000000
0.568410 0.027749 0.000000
0.601613 0.027749 0.000000
0.634903 0.027749 0.000000
0.668276 0.027749 0.000000
0.701729 0.027749 0.000000
0.735259 0.027749 0.000000
0.768861 0.027749 0.000000
0.802533 0.027749 0.000000
0.836273 0.027749 0.000000
0.870077 0.027749 0.000000
0.903945 0.027749 0.000000
0.937872 0.027749 0.000000
0.971859 0.027749 0.000000
1.000000 0.027749 0.000000
1.000000 0.027749 0.000000
0.000000 0.057058 0.000000
0.027329 0.057058 0.000000
0.056586 0.057058 0.000000
0.086617 0.057058 0.000000
0.117163 0.057058 0.000000
0.148096 0.057058 0.000000
0.179343 0.057058 0.000000
0.210853 0.057058 0.000000
0.242589 0.057058 0.000000
0.274524 0.057058 0.000000
0.306638 0.057058 0.000000
0.338913 0.057058 0.000000
0.371335 0.057058 0.000000
0.403893 0.057058 0.000000
0.436576 0.057058 0.000000
0.469377 0.057058 0.000000
0.502287 0.057058 0.000000
0.535300 0.057058 0.000000
0.568410 0.057058 0.000000
0.601613 0.057058 0.000000
0.634903 0.057058 0.000000
0.668276 0.057058 0.000000
0.701729 0.057058 0.000000
0.735259 0.057058 0.000000
0.768861 0.057058 0.000000
0.802533 0.057058 0.000000
0.836273 0.057058 0.000000
0.870077 0.057058 0.000000
0.903945 0.057058 0.000000
0.937872 0.057058 0.000000
0.971859 0.057058 0.000000
1.000000 0.057058 0.000000
1.000000 0.057058 0.000000
0.000000 0.086986 0.000000
0.027329 0.086986 0.000000
0.056586 0.086986 0.000000
0.086617 0.086986 0.000000
0.117163 0.086986 0.000000
0.148096 0.086986 0.000000
0.179343 0.086986 0.000000
0.210853 0.086986 0.000000
0.242589 0.086986 0.000000
0.274524 0.086986 0.000000
0.306638 0.086986 0.000000
0.338913 0.086986 0.000000
0.371335 0.086986 0.000000
0.403893 0.086986 0.000000
0.436576 0.086986 0.000000
0.469377 0.086986 0.000000
0.502287 0.086986 0.000000
0.535300 0.086986 0.000000
0.568410 0.086986 0.000000
0.601613 0.086986 0.000000
0.634903 0.086986 0.000000
0.668276 0.086986 0.000000
0.701729 0.086986 0.000000
0.735259 0.086986 0.000000
0.768861 0.086986 0.000000
0.802533 0.086986 0.000000
0.836273 0.086986 0.000000
0.870077 0.086986 0.000000
0.903945 0.086986 0.000000
0.937872 0.086986 0.000000
0.971859 0.086986 0.000000
1.000000 0.086986 0.000000
1.000000 0.086986 0.000000
0.000000 0.117324 0.000000
0.027329 0.117324 0.000000
0.056586 0.117324 0.000000
0.086617 0.117324 0.000000
0.117163 0.117324 0.000000
0.148096 0.117324 0.000000
0.179343 0.117324 0.000000
0.210853 0.117324 0.000000
0.242589 0.117324 0.000000
0.274524 0.117324 0.000000
0.306638 0.117324 0.000000
0.338913 0.117324 0.000000
0.371335 0.117324 0.000000
0.403893 0.117324 0.000000
0.436576 0.117324 0.000000
0.469377 0.117324 0.000000
0.502287 0.117324 0.000000
0.535300 0.117324 0.000000
0.568410 0.117324 0.000000
0.601613 0.117324 0.000000
0.634903 0.117324 0.000000
0.668276 0.117324 0.000000
0.701729 0.117324 0.000000
0.735259 0.117324 0.000000
0.768861 0.117324 0.000000
0.802533 0.117324 0.000000
0.836273 0.117324 0.000000
0.870077 0.117324 0.000000
0.903945 0.117324 0.000000
0.937872 0.117324 0.000000
0.971859 0.117324 0.000000
1.000000 0.117324 0.000000
1.000000 0.117324 0.000000
0.000000 0.147970 0.000000
0.027329 0.147970 0.000000
0.056586 0.147970 0.000000
0.086617 0.147970 0.000000
0.117163 0.147970 0.000000
0.148096 0.147970 0.000000
0.179343 0.147970 0.000000
0.210853 0.147970 0.000000
0.242589 0.147970 0.000000
0.274524 0.147970 0.000000
0.306638 0.147970 0.000000
0.338913 0.147970 0.000000
0.371335 0.147970 0.000000
0.403893 0.147970 0.000000
0.436576 0.147970 0.000000
0.469377 0.147970 0.000000
0.502287 0.147970 0.000000
0.535300 0.147970 0.000000
0.568410 0.147970 0.000000
0.601613 0.147970 0.000000
0.634903 0.147970 0.000000
0.668276 0.147970 0.000000
0.701729 0.147970 0.000000
0.735259 0.147970 0.000000
0.768861 0.147970 0.000000
0.802533 0.147970 0.000000
0.836273 0.147970 0.000000
0.870077 0.147970 0.000000
0.903945 0.147970 0.000000
0.937872 0.147970 0.000000
0.971859 0.147970 0.000000
1.000000 0.147970 0.000000
1.000000 0.147970 0.000000
0.000000 0.178863 0.000000
0.027329 0.178863 0.000000
0.056586 0.178863 0.000000
0.086617 0.178863 0.000000
0.117163 0.178863 0.000000
0.148096 0.178863 0.000000
0.179343 0.178863 0.000000
0.210853 0.178863 0.000000
0.242589 0.178863 0.000000
0.274524 0.178863 0.000000
0.306638 0.178863 0.000000
0.338913 0.178863 0.000000
0.371335 0.178863 0.000000
0.403893 0.178863 0.000000
0.436576 0.178863 0.000000
0.469377 0.178863 0.000000
0.502287 0.178863 0.000000
0.535300 0.178863 0.000000
0.568410 0.178863 0.000000
0.601613 0.178863 0.000000
0.634903 0.178863 0.000000
0.668276 0.178863 0.000000
0.701729 0.178863 0.000000
0.735259 0.178863 0.000000
0.768861 0.178863 0.000000
0.802533 0.178863 0.000000
0.836273 0.178863 0.000000
0.870077 0.178863 0.000000
0.903945 0.178863 0.000000
0.937872 0.178863 0.000000
0.971859 0.178863 0.000000
1.000000 0.178863 0.000000
1.000000 0.178863 0.000000
0.000000 0.209965 0.000000
0.027329 0.209965 0.000000
0.056586 0.209965 0.000000
0.086617 0.209965 0.000000
0.117163 0.209965 0.000000
0.148096 0.209965 0.000000
0.179343 0.209965 0.000000
0.210853 0.209965 0.000000
0.242589 0.209965 0.000000
0.274524 0.209965 0.000000
0.306638 0.209965 0.000000
0.338913 0.209965 0.000000
0.371335 0.209965 0.000000
0.403893 0.209965 0.000000
0.436576 0.209965 0.000000
0.469377 0.209965 0.000000
0.502287 0.209965 0.000000
0.535300 0.209965 0.000000
0.568410 0.209965 0.000000
0.601613 0.209965 0.000000
0.634903 0.209965 0.000000
0.668276 0.209965 0.000000
0.701729 0.209965 0.000000
0.735259 0.209965 0.000000
0.768861 0.209965 0.000000
0.802533 0.209965 0.000000
0.836273 0.209965 0.000000
0.870077 0.209965 0.000000
0.903945 0.209965 0.000000
0.937872 0.209965 0.000000
0.971859 0.209965 0.000000
1.000000 0.209965 0.000000
1.000000 0.209965 0.000000
0.000000 0.241245 0.000000
0.027329 0.241245 0.000000
0.056586 0.241245 0.000000
0.086617 0.241245 0.000000
0.117163 0.241245 0.000000
0.148096 0.241245 0.000000
0.179343 0.241245 0.000000
0.210853 0.241245 0.000000
0.242589 0.241245 0.000000
0.274524 0.241245 0.000000
0.306638 0.241245 0.000000
0.338913 0.241245 0.000000
0.371335 0.241245 0.000000
0.403893 0.241245 0.000000
0.436576 0.241245 0.000000
0.469377 0.241245 0.000000
0.502287 0.241245 0.000000
0.535300 0.241245 0.000000
0.568410 0.241245 0.000000
0.601613 0.241245 0.000000
0.634903 0.241245 0.000000
0.668276 0.241245 0.000000
0.701729 0.241245 0.000000
0.735259 0.241245 0.000000
0.768861 0.241245 0.000000
0.802533 0.241245 0.000000
0.836273 0.241245 0.000000
0.870077 0.241245 0.000000
0.903945 0.241245 0.000000
0.937872 0.241245 0.000000
0.971859 0.241245 0.000000
1.000000 0.241245 0.000000
1.000000 0.241245 0.000000
0.000000 0.272682 0.000000
0.027329 0.272682 0.000000
0.056586 0.272682 0.000000
0.086617 0.272682 0.000000
0.117163 0.272682 0.000000
0.148096 0.272682 0.000000
0.179343 0.272682 0.000000
0.210853 0.272682 0.000000
0.242589 0.272682 0.000000
0.274524 0.272682 0.000000
0.306638 0.272682 0.000000
0.338913 0.272682 0.000000
0.371335 0.272682 0.000000
0.403893 0.272682 0.000000
0.436576 0.272682 0.000000
0.469377 0.272682 0.000000
0.502287 0.272682 0.000000
0.535300 0.272682 0.000000
0.568410 0.272682 0.000000
0.601613 0.272682 0.000000
0.634903 0.272682 0.000000
0.668276 0.272682 0.000000
0.701729 0.272682 0.000000
0.735259 0.272682 0.000000
0.768861 0.272682 0.000000
0.802533 0.272682 0.000000
0.836273 0.272682 0.000000
0.870077 0.272682 0.000000
0.903945 0.272682 0.000000
0.937872 0.272682 0.000000
0.971859 0.272682 0.000000
1.000000 0.272682 0.000000
1.000000 0.272682 0.000000
0.000000 0.304260 0.000000
0.027329 0.304260 0.000000
0.056586 0.304260 0.000000
0.086617 0.304260 0.000000
0.117163 0.304260 0.000000
0.148096 0.304260 0.000000
0.179343 0.304260 0.000000
0.210853 0.304260 0.000000
0.242589 0.304260 0.000000
0.274524 0.304260 0.000000
0.306638 0.304260 0.000000
0.338913 0.304260 0.000000
0.371335 0.304260 0.000000
0.403893 0.304260 0.000000
0.436576 0.304260 0.000000
0.469377 0.304260 0.000000
0.502287 0.304260 0.000000
0.535300 0.304260 0.000000
0.568410 0.304260 0.000000
0.601613 0.304260 0.000000
0.634903 0.304260 0.000000
0.668276 0.304260 0.000000
0.701729 0.304260 0.000000
0.735259 0.304260 0.000000
0.768861 0.304260 0.000000
0.802533 0.304260 0.000000
0.836273 0.304260 0.000000
0.870077 0.304260 0.000000
0.903945 0.304260 0.000000
0.937872 0.304260 0.000000
0.971859 0.304260 0.000000
1.000000 0.304260 0.000000
1.000000 0.304260 0.000000
0.000000 0.335964 0.000000
0.027329 0.335964 0.000000
0.056586 0.335964 0.000000
0.086617 0.335964 0.000000
0.117163 0.335964 0.000000
0.148096 0.335964 0.000000
0.179343 0.335964 0.000000
0.210853 0.335964 0.000000
0.242589 0.335964 0.000000
0.274524 0.335964 0.000000
0.306638 0.335964 0.000000
0.338913 0.335964 0.000000
0.371335 0.335964 0.000000
0.403893 0.335964 0.000000
0.436576 0.335964 0.000000
0.469377 0.335964 0.000000
0.502287 0.335964 0.000000
0.535300 0.335964 0.000000
0.568410 0.335964 0.000000
0.601613 0.335964 0.000000
0.634903 0.335964 0.000000
0.668276 0.335964 0.000000
0.701729 0.335964 0.000000
0.735259 0.335964 0.000000
0.768861 0.335964 0.000000
0.802533 0.335964 0.000000
0.836273 0.335964 0.000000
0.870077 0.335964 0.000000
0.903945 0.335964 0.000000
0.937872 0.335964 0.000000
0.971859 0.335964 0.000000
1.000000 0.335964 0.000000
1.000000 0.335964 0.000000
0.000000 0.367784 0.000000
0.027329 0.367784 0.000000
0.056586 0.367784 0.000000
0.086617 0.367784 0.000000
0.117163 0.367784 0.000000
0.148096 0.367784 0.000000
0.179343 0.367784 0.000000
0.210853 0.367784 0.000000
0.242589 0.367784 0.000000
0.274524 0.367784 0.000000
0.306638 0.367784 0.000000
0.338913 0.367784 0.000000
0.371335 0.367784 0.000000
0.403893 0.367784 0.000000
0.436576 0.367784 0.000000
0.469377 0.367784 0.000000
0.502287 0.367784 0.000000
0.535300 0.367784 0.000000
0.568410 0.367784 0.000000
0.601613 0.367784 0.000000
0.634903 0.367784 0.000000
0.668276 0.367784 0.000000
0.701729 0.367784 0.000000
0.735259 0.367784 0.000000
0.768861 0.367784 0.000000
0.802533 0.367784 0.000000
0.836273 0.367784 0.000000
0.870077 0.367784 0.000000
0.903945 0.367784 0.000000
0.937872 0.367784 0.000000
0.971859 0.367784 0.000000
1.000000 0.367784 0.000000
1.000000 0.367784 0.000000
0.000000 0.399710 0.000000
0.027329 0.399710 0.000000
0.056586 0.399710 0.000000
0.086617 0.399710 0.000000
0.117163 0.399710 0.000000
0.148096 0.399710 0.000000
0.179343 0.399710 0.000000
0.210853 0.399710 0.000000
0.242589 0.399710 0.000000
0.274524 0.399710 0.000000
0.306638 0.399710 0.000000
0.338913 0.399710 0.000000
0.371335 0.399710 0.000000
0.403893 0.399710 0.000000
0.436576 0.399710 0.000000
0.469377 0.399710 0.000000
0.502287 0.399710 0.000000
0.535300 0.399710 0.000000
0.568410 0.399710 0.000000
0.601613 0.399710 0.000000
0.634903 0.399710 0.000000
0.668276 0.399710 0.000000
0.701729 0.399710 0.000000
0.735259 0.399710 0.000000
0.768861 0.399710 0.000000
0.802533 0.399710 0.000000
0.836273 0.399710 0.000000
0.870077 0.399710 0.000000
0.903945 0.399710 0.000000
0.937872 0.399710 0.000000
0.971859 0.399710 0.000000
1.000000 0.399710 0.000000
1.000000 0.399710 0.000000
0.000000 0.431735 0.000000
0.027329 0.431735 0.000000
0.056586 0.431735 0.000000
0.086617 0.431735 0.000000
0.117163 0.431735 0.000000
0.148096 0.431735 0.000000
0.179343 0.431735 0.000000
0.210853 0.431735 0.000000
0.242589 0.431735 0.000000
0.274524 0.431735 0.000000
0.306638 0.431735 0.000000
0.338913 0.431735 0.000000
0.371335 0.431735 0.000000
0.403893 0.431735 0.000000
0.436576 0.431735 0.000000
0.469377 0.431735 0.000000
0.502287 0.431735 0.000000
0.535300 0.431735 0.000000
0.568410 0.431735 0.000000
0.601613 0.431735 0.000000
0.634903 0.431735 0.000000
0.668276 0.431735 0.000000
0.701729 0.431735 0.000000
0.735259 0.431735 0.000000
0.768861 0.431735 0.000000
0.802533 0.431735 0.000000
0.836273 0.431735 0.000000
0.870077 0.431735 0.000000
0.903945 0.431735 0.000000
0.937872 0.431735 0.000000
0.971859 0.431735 0.000000
1.000000 0.431735 0.000000
1.000000 0.431735 0.000000
0.000000 0.463852 0.000000
0.027329 0.463852 0.000000
0.056586 0.463852 0.000000
0.086617 0.463852 0.000000
0.117163 0.463852 0.000000
0.148096 0.463852 0.000000
0.179343 0.463852 0.000000
0.210853 0.463852 0.000000
0.242589 0.463852 0.000000
0.274524 0.463852 0.000000
0.306638 0.463852 0.000000
0.338913 0.463852 0.000000
0.371335 0.463852 0.000000
0.403893 0.463852 0.000000
0.436576 0.463852 0.000000
0.469377 0.463852 0.000000
0.502287 0.463852 0.000000
0.535300 0.463852 0.000000
0.568410 0.463852 0.000000
0.601613 0.463852 0.000000
0.634903 0.463852 0.000000
0.668276 0.463852 0.000000
0.701729 0.463852 0.000000
0.735259 0.463852 0.000000
0.768861 0.463852 0.000000
0.802533 0.463852 0.000000
0.836273 0.463852 0.000000
0.870077 0.463852 0.000000
0.903945 0.463852 0.000000
0.937872 0.463852 0.000000
0.971859 0.463852 0.000000
1.000000 0.463852 0.000000
1.000000 0.463852 0.000000
0.000000 0.496054 0.000000
0.027329 0.496054 0.000000
0.056586 0.496054 0.000000
0.086617 0.496054 0.000000
0.117163 0.496054 0.000000
0.148096 0.496054 0.000000
0.179343 0.496054 0.000000
0.210853 0.496054 0.000000
0.242589 0.496054 0.000000
0.274524 0.496054 0.000000
0.306638 0.496054 0.000000
0.338913 0.496054 0.000000
0.371335 0.496054 0.000000
0.403893 0.496054 0.000000
0.436576 0.496054 0.000000
0.469377 0.496054 0.000000
0.502287 0.496054 0.000000
0.535300 0.496054 0.000000
0.568410 0.496054 0.000000
0.601613 0.496054 0.000000
0.634903 0.496054 0.000000
0.668276 0.496054 0.000000
0.701729 0.496054 0.000000
0.735259 0.496054 0.000000
0.768861 0.496054 0.000000
0.802533 0.496054 0.000000
0.836273 0.496054 0.000000
0.870077 0.496054 0.000000
0.903945 0.496054 0.000000
0.937872 0.496054 0.000000
0.971859 0.496054 0.000000
1.000000 0.496054 0.000000
1.000000 0.496054 0.000000
0.000000 0.528337 0.000000
0.027329 0.528337 0.000000
0.056586 0.528337 0.000000
0.086617 0.528337 0.000000
0.117163 0.528337 0.000000
0.148096 0.528337 0.000000
0.179343 0.528337 0.000000
0.210853 0.528337 0.000000
0.242589 0.528337 0.000000
0.274524 0.528337 0.000000
0.306638 0.528337 0.000000
0.338913 0.528337 0.000000
0.371335 0.528337 0.000000
0.403893 0.528337 0.000000
0.436576 0.528337 0.000000
0.469377 0.528337 0.000000
0.502287 0.528337 0.000000
0.535300 0.528337 0.000000
0.568410 0.528337 0.000000
0.601613 0.528337 0.000000
0.634903 0.528337 0.000000
0.668276 0.528337 0.000000
0.701729 0.528337 0.000000
0.735259 0.528337 0.000000
0.768861 0.528337 0.000000
0.802533 0.528337 0.000000
0.836273 0.528337 0.000000
0.870077 0.528337 0.000000
0.903945 0.528337 0.000000
0.937872 0.528337 0.000000
0.971859 0.528337 0.000000
1.000000 0.528337 0.000000
1.000000 0.528337 0.000000
0.000000 0.560696 0.000000
0.027329 0.560696 0.000000
0.056586 0.560696 0.000000
0.086617 0.560696 0.000000
0.117163 0.560696 0.000000
0.148096 0.560696 0.000000
0.179343 0.560696 0.000000
0.210853 0.560696 0.000000
0.242589 0.560696 0.000000
0.274524 0.560696 0.000000
0.306638 0.560696 0.000000
0.338913 0.560696 0.000000
0.371335 0.560696 0.000000
0.403893 0.560696 0.000000
0.436576 0.560696 0.000000
0.469377 0.560696 0.000000
0.502287 0.560696 0.000000
0.535300 0.560696 0.000000
0.568410 0.560696 0.000000
0.601613 0.560696 0.000000
0.634903 0.560696 0.000000
0.668276 0.560696 0.000000
0.701729 0.560696 0.000000
0.735259 0.560696 0.000000
0.768861 0.560696 0.000000
0.802533 0.560696 0.000000
0.836273 0.560696 0.000000
0.870077 0.560696 0.000000
0.903945 0.560696 0.000000
0.937872 0.560696 0.000000
0.971859 0.560696 0.000000
1.000000 0.560696 0.000000
1.000000 0.560696 0.000000
0.000000 0.593127 0.000000
0.027329 0.593127 0.000000
0.056586 0.593127 0.000000
0.086617 0.593127 0.000000
0.117163 0.593127 0.000000
0.148096 0.593127 0.000000
0.179343 0.593127 0.000000
0.210853 0.593127 0.000000
0.242589 0.593127 0.000000
0.274524 0.593127 0.000000
0.306638 0.593127 0.000000
0.338913 0.593127 0.000000
0.371335 0.593127 0.000000
0.403893 0.593127 0.000000
0.436576 0.593127 0.000000
0.469377 0.593127 0.000000
0.502287 0.593127 0.000000
0.535300 0.593127 0.000000
0.568410 0.593127 0.000000
0.601613 0.593127 0.000000
0.634903 0.593127 0.000000
0.668276 0.593127 0.000000
0.701729 0.593127 0.000000
0.735259 0.593127 0.000000
0.768861 0.593127 0.000000
0.802533 0.593127 0.000000
0.836273 0.593127 0.000000
0.870077 0.593127 0.000000
0.903945 0.593127 0.000000
0.937872 0.593127 0.000000
0.971859 0.593127 0.000000
1.000000 0.593127 0.000000
1.000000 0.593127 0.000000
0.000000 0.625627 0.000000
0.027329 0.625627 0.000000
0.056586 0.625627 0.000000
0.086617 0.625627 0.000000
0.117163 0.625627 0.000000
0.148096 0.625627 0.000000
0.179343 0.625627 0.000000
0.210853 0.625627 0.000000
0.242589 0.625627 0.000000
0.274524 0.625627 0.000000
0.306638 0.625627 0.000000
0.338913 0.625627 0.000000
0.371335 0.625627 0.000000
0.403893 0.625627 0.000000
0.436576 0.625627 0.000000
0.469377 0.625627 0.000000
0.502287 0.625627 0.000000
0.535300 0.625627 0.000000
0.568410 0.625627 0.000000
0.601613 0.625627 0.000000
0.634903 0.625627 0.000000
0.668276 0.625627 0.000000
0.701729 0.625627 0.000000
0.735259 0.625627 0.000000
0.768861 0.625627 0.000000
0.802533 0.625627 0.000000
0.836273 0.625627 0.000000
0.870077 0.625627 0.000000
0.903945 0.625627 0.000000
0.937872 0.625627 0.000000
0.971859 0.625627 0.000000
1.000000 0.625627 0.000000
1.000000 0.625627 0.000000
0.000000 0.658191 0.000000
0.027329 0.658191 0.000000
0.056586 0.658191 0.000000
0.086617 0.658191 0.000000
0.117163 0.658191 0.000000
0.148096 0.658191 0.000000
0.179343 0.658191 0.000000
0.210853 0.658191 0.000000
0.242589 0.658191 0.000000
0.274524 0.658191 0.000000
0.306638 0.658191 0.000000
0.338913 0.658191 0.000000
0.371335 0.658191 0.000000
0.403893 0.658191 0.000000
0.436576 0.658191 0.000000
0.469377 0.658191 0.000000
0.502287 0.658191 0.000000
0.535300 0.658191 0.000000
0.568410 0.658191 0.000000
0.601613 0.658191 0.000000
0.634903 0.658191 0.000000
0.668276 0.658191 0.000000
0.701729 0.658191 0.000000
0.735259 0.658191 0.000000
0.768861 0.658191 0.000000
0.802533 0.658191 0.000000
0.836273 0.658191 0.000000
0.870077 0.658191 0.000000
0.903945 0.658191 0.000000
0.937872 0.658191 0.000000
0.971859 0.658191 0.000000
1.000000 0.658191 0.000000
1.000000 0.658191 0.000000
0.000000 0.690818 0.000000
0.027329 0.690818 0.000000
0.056586 0.690818 0.000000
0.086617 0.690818 0.000000
0.117163 0.690818 0.000000
0.148096 0.690818 0.000000
0.179343 0.690818 0.000000
0.210853 0.690818 0.000000
0.242589 0.690818 0.000000
0.274524 0.690818 0.000000
0.306638 0.690818 0.000000
0.338913 0.690818 0.000000
0.371335 0.690818 0.000000
0.403893 0.690818 0.000000
0.436576 0.690818 0.000000
0.469377 0.690818 0.000000
0.502287 0.690818 0.000000
0.535300 0.690818 0.000000
0.568410 0.690818 0.000000
0.601613 0.690818 0.000000
0.634903 0.690818 0.000000
0.668276 0.690818 0.000000
0.701729 0.690818 0.000000
0.735259 0.690818 0.000000
0.768861 0.690818 0.000000
0.802533 0.690818 0.000000
0.836273 0.690818 0.000000
0.870077 0.690818 0.000000
0.903945 0.690818 0.000000
0.937872 0.690818 0.000000
0.971859 0.690818 0.000000
1.000000 0.690818 0.000000
1.000000 0.690818 0.000000
0.000000 0.723504 0.000000
0.027329 0.723504 0.000000
0.056586 0.723504 0.000000
0.086617 0.723504 0.000000
0.117163 0.723504 0.000000
0.148096 0.723504 0.000000
0.179343 0.723504 0.000000
0.210853 0.723504 0.000000
0.242589 0.723504 0.000000
0.274524 0.723504 0.000000
0.306638 0.723504 0.000000
0.338913 0.723504 0.000000
0.371335 0.723504 0.000000
0.403893 0.723504 0.000000
0.436576 0.723504 0.000000
0.469377 0.723504 0.000000
0.502287 0.723504 0.000000
0.535300 0.723504 0.000000
0.568410 0.723504 0.000000
0.601613 0.723504 0.000000
0.634903 0.723504 0.000000
0.668276 0.723504 0.000000
0.701729 0.723504 0.000000
0.735259 0.723504 0.000000
0.768861 0.723504 0.000000
0.802533 0.723504 0.000000
0.836273 0.723504 0.000000
0.870077 0.723504 0.000000
0.903945 0.723504 0.000000
0.937872 0.723504 0.000000
0.971859 0.723504 0.000000
1.000000 0.723504 0.000000
1.000000 0.723504 0.000000
0.000000 0.756247 0.000000
0.027329 0.756247 0.000000
0.056586 0.756247 0.000000
0.086617 0.756247 0.000000
0.117163 0.756247 0.000000
0.148096 0.756247 0.000000
0.179343 0.756247 0.000000
0.210853 0.756247 0.000000
0.242589 0.756247 0.000000
0.274524 0.756247 0.000000
0.306638 0.756247 0.000000
0.338913 0.756247 0.000000
0.371335 0.756247 0.000000
0.403893 0.756247 0.000000
0.436576 0.756247 0.000000
0.469377 0.756247 0.000000
0.502287 0.756247 0.000000
0.535300 0.756247 0.000000
0.568410 0.756247 0.000000
0.601613 0.756247 0.000000
0.634903 0.756247 0.000000
0.668276 0.756247 0.000000
0.701729 0.756247 0.000000
0.735259 0.756247 0.000000
0.768861 0.756247 0.000000
0.802533 0.756247 0.000000
0.836273 0.756247 0.000000
0.870077 0.756247 0.000000
0.903945 0.756247 0.000000
0.937872 0.756247 0.000000
0.971859 0.756247 0.000000
1.000000 0.756247 0.000000
1.000000 0.756247 0.000000
0.000000 0.789045 0.000000
0.027329 0.789045 0.000000
0.056586 0.789045 0.000000
0.086617 0.789045 0.000000
0.117163 0.789045 0.000000
0.148096 0.789045 0.000000
0.179343 0.789045 0.000000
0.210853 0.789045 0.000000
0.242589 0.789045 0.000000
0.274524 0.789045 0.000000
0.306638 0.789045 0.000000
0.338913 0.789045 0.000000
0.371335 0.789045 0.000000
0.403893 0.789045 0.000000
0.436576 0.789045 0.000000
0.469377 0.789045 0.000000
0.502287 0.789045 0.000000
0.535300 0.789045 0.000000
0.568410 0.789045 0.000000
0.601613 0.789045 0.000000
0.634903 0.789045 0.000000
0.668276 0.789045 0.000000
0.701729 0.789045 0.000000
0.735259 0.789045 0.000000
0.768861 0.789045 0.000000
0.802533 0.789045 0.000000
0.836273 0.789045 0.000000
0.870077 0.789045 0.000000
0.903945 0.789045 0.000000
0.937872 0.789045 0.000000
0.971859 0.789045 0.000000
1.000000 0.789045 0.000000
1.000000 0.789045 0.000000
0.000000 0.821895 0.000000
0.027329 0.821895 0.000000
0.056586 0.821895 0.000000
0.086617 0.821895 0.000000
0.117163 0.821895 0.000000
0.148096 0.821895 0.000000
0.179343 0.821895 0.000000
0.210853 0.821895 0.000000
0.242589 0.821895 0.000000
0.274524 0.821895 0.000000
0.306638 0.821895 0.000000
0.338913 0.821895 0.000000
0.371335 0.821895 0.000000
0.403893 0.821895 0.000000
0.436576 0.821895 0.000000
0.469377 0.821895 0.000000
0.502287 0.821895 0.000000
0.535300 0.821895 0.000000
0.568410 0.821895 0.000000
0.601613 0.821895 0.000000
0.634903 0.821895 0.000000
0.668276 0.821895 0.000000
0.701729 0.821895 0.000000
0.735259 0.821895 0.000000
0.768861 0.821895 0.000000
0.802533 0.821895 0.000000
0.836273 0.821895 0.000000
