app/src/main/assets/luts/ektar_100.cube
TITLE "Ektar 100"
LUT_3D_SIZE 9
DOMAIN_MIN 0.0 0.0 0.0
DOMAIN_MAX 1.0 1.0 1.0
0.000000 0.000000 0.000000
0.117163 0.000000 0.000000
0.242589 0.000000 0.000000
0.371335 0.000000 0.000000
0.502287 0.000000 0.000000
0.634903 0.000000 0.000000
0.768861 0.000000 0.000000
0.903945 0.000000 0.000000
1.000000 0.000000 0.000000
0.000000 0.117324 0.000000
0.117163 0.117324 0.000000
0.242589 0.117324 0.000000
0.371335 0.117324 0.000000
0.502287 0.117324 0.000000
0.634903 0.117324 0.000000
0.768861 0.117324 0.000000
0.903945 0.117324 0.000000
1.000000 0.117324 0.000000
0.000000 0.241245 0.000000
0.117163 0.241245 0.000000
0.242589 0.241245 0.000000
0.371335 0.241245 0.000000
0.502287 0.241245 0.000000
0.634903 0.241245 0.000000
0.768861 0.241245 0.000000
0.903945 0.241245 0.000000
1.000000 0.241245 0.000000
0.000000 0.367784 0.000000
0.117163 0.367784 0.000000
0.242589 0.367784 0.000000
0.371335 0.367784 0.000000
0.502287 0.367784 0.000000
0.634903 0.367784 0.000000
0.768861 0.367784 0.000000
0.903945 0.367784 0.000000
1.000000 0.367784 0.000000
0.000000 0.496054 0.000000
0.117163 0.496054 0.000000
0.242589 0.496054 0.000000
0.371335 0.496054 0.000000
0.502287 0.496054 0.000000
0.634903 0.496054 0.000000
0.768861 0.496054 0.000000
0.903945 0.496054 0.000000
1.000000 0.496054 0.000000
0.000000 0.625627 0.000000
0.117163 0.625627 0.000000
0.242589 0.625627 0.000000
0.371335 0.625627 0.000000
0.502287 0.625627 0.000000
0.634903 0.625627 0.000000
0.768861 0.625627 0.000000
0.903945 0.625627 0.000000
1.000000 0.625627 0.000000
0.000000 0.756247 0.000000
0.117163 0.756247 0.000000
0.242589 0.756247 0.000000
0.371335 0.756247 0.000000
0.502287 0.756247 0.000000
0.634903 0.756247 0.000000
0.768861 0.756247 0.000000
0.903945 0.756247 0.000000
1.000000 0.756247 0.000000
0.000000 0.887746 0.000000
0.117163 0.887746 0.000000
0.242589 0.887746 0.000000
0.371335 0.887746 0.000000
0.502287 0.887746 0.000000
0.634903 0.887746 0.000000
0.768861 0.887746 0.000000
0.903945 0.887746 0.000000
1.000000 0.887746 0.000000
0.000000 1.000000 0.000000
0.117163 1.000000 0.000000
0.242589 1.000000 0.000000
0.371335 1.000000 0.000000
0.502287 1.000000 0.000000
0.634903 1.000000 0.000000
0.768861 1.000000 0.000000
0.903945 1.000000 0.000000
1.000000 1.000000 0.000000
0.000000 0.000000 0.116958
0.117163 0.000000 0.116958
0.242589 0.000000 0.116958
0.371335 0.000000 0.116958
0.502287 0.000000 0.116958
0.634903 0.000000 0.116958
0.768861 0.000000 0.116958
0.903945 0.000000 0.116958
1.000000 0.000000 0.116958
0.000000 0.117324 0.116958
0.117106 0.117324 0.116830
0.242589 0.073481 0.072987
0.371335 0.028420 0.027926
0.502287 0.000477 0.000000
0.634903 0.000448 0.000000
0.768861 0.000431 0.000000
0.903945 0.000420 0.000000
1.000000 0.000414 0.000000
0.000000 0.241245 0.116958
0.073734 0.241245 0.073458
0.242589 0.240774 0.072987
0.371335 0.195713 0.027926
0.502287 0.162011 0.000000
0.634903 0.152352 0.000000
0.768861 0.146585 0.000000
0.903945 0.142757 0.000000
1.000000 0.140748 0.000000
0.000000 0.367784 0.116958
0.029445 0.367784 0.029169
0.198770 0.367784 0.029169
0.371335 0.366541 0.027926
0.502287 0.326958 0.000000
0.634903 0.307465 0.000000
0.768861 0.295826 0.000000
0.903945 0.288102 0.000000
1.000000 0.284047 0.000000
0.000000 0.496054 0.116958
0.000267 0.496054 0.000000
0.164390 0.496054 0.000000
0.332857 0.496054 0.000000
0.502287 0.494162 0.000000
0.634903 0.464700 0.000000
0.768861 0.447110 0.000000
0.903945 0.435435 0.000000
1.000000 0.429307 0.000000
0.000000 0.625627 0.116958
0.000251 0.625627 0.000000
0.154517 0.625627 0.000000
0.312866 0.625627 0.000000
0.473927 0.625627 0.000000
0.634903 0.623532 0.000000
0.768861 0.599929 0.000000
0.903945 0.584265 0.000000
1.000000 0.576041 0.000000
0.000000 0.756247 0.116958
0.000242 0.756247 0.000000
0.148615 0.756247 0.000000
0.300915 0.756247 0.000000
0.455825 0.756247 0.000000
0.612703 0.756247 0.000000
0.768861 0.753984 0.000000
0.903945 0.734297 0.000000
1.000000 0.723963 0.000000
0.000000 0.887746 0.116958
0.000235 0.887746 0.000000
0.144693 0.887746 0.000000
0.292976 0.887746 0.000000
0.443798 0.887746 0.000000
0.596537 0.887746 0.000000
0.750821 0.887746 0.000000
0.903945 0.885338 0.000000
1.000000 0.872878 0.000000
0.000000 1.000000 0.116958
0.000231 1.000000 0.000000
0.142270 1.000000 0.000000
0.288069 1.000000 0.000000
0.436365 1.000000 0.000000
0.586546 1.000000 0.000000
0.738247 1.000000 0.000000
0.891222 1.000000 0.000000
1.000000 1.000000 0.000000
0.000000 0.000000 0.243850
0.117163 0.000000 0.243850
0.242589 0.000000 0.243850
0.371335 0.000000 0.243850
0.502287 0.000000 0.243850
0.634903 0.000000 0.243850
0.768861 0.000000 0.243850
0.903945 0.000000 0.243850
1.000000 0.000000 0.243850
0.000000 0.117324 0.243850
0.072822 0.073040 0.243850
0.242147 0.073040 0.243850
0.371335 0.028420 0.199230
0.502287 0.000000 0.165087
0.634903 0.000000 0.155206
0.768861 0.000000 0.149310
0.903945 0.000000 0.145397
1.000000 0.000000 0.143343
0.000000 0.241245 0.243850
0.072822 0.240333 0.243850
0.242147 0.240333 0.243850
0.371335 0.195713 0.199230
0.502287 0.149880 0.153397
0.634903 0.103464 0.106981
0.768861 0.056579 0.060096
0.903945 0.009300 0.012817
1.000000 0.000000 0.003433
0.000000 0.367784 0.243850
0.029445 0.367784 0.200473
0.198770 0.367784 0.200473
0.371335 0.366541 0.199230
0.502287 0.320708 0.153397
0.634903 0.274292 0.106981
0.768861 0.227407 0.060096
0.903945 0.180128 0.012817
1.000000 0.163901 0.000000
0.000000 0.496054 0.243850
0.000000 0.496054 0.165862
0.153876 0.496054 0.155578
0.327684 0.496054 0.155578
0.502287 0.493873 0.153397
0.634903 0.447457 0.106981
0.768861 0.400572 0.060096
0.903945 0.353292 0.012817
1.000000 0.333537 0.000000
0.000000 0.625627 0.243850
0.000000 0.625627 0.155879
0.108525 0.625627 0.110228
0.282333 0.625627 0.110228
0.459118 0.625627 0.110228
0.634903 0.622380 0.106981
0.768861 0.575495 0.060096
0.903945 0.528216 0.012817
1.000000 0.504896 0.000000
0.000000 0.756247 0.243850
0.000000 0.756247 0.149913
0.062808 0.756247 0.064511
0.236616 0.756247 0.064511
0.413401 0.756247 0.064511
0.592432 0.756247 0.064511
0.768861 0.751833 0.060096
0.903945 0.704553 0.012817
1.000000 0.677640 0.000000
0.000000 0.887746 0.243850
0.000000 0.887746 0.145949
0.016784 0.887746 0.018486
0.190592 0.887746 0.018486
0.367376 0.887746 0.018486
0.546408 0.887746 0.018486
0.727251 0.887746 0.018486
0.903945 0.882076 0.012817
1.000000 0.851545 0.000000
0.000000 1.000000 0.243850
0.000000 1.000000 0.143500
0.000000 1.000000 0.001665
0.168598 1.000000 0.000000
0.341780 1.000000 0.000000
0.517163 1.000000 0.000000
0.694321 1.000000 0.000000
0.872968 1.000000 0.000000
1.000000 1.000000 0.000000
0.000000 0.000000 0.374782
0.117163 0.000000 0.374782
0.242589 0.000000 0.374782
0.371335 0.000000 0.374782
0.502287 0.000000 0.374782
0.634903 0.000000 0.374782
0.768861 0.000000 0.374782
0.903945 0.000000 0.374782
1.000000 0.000000 0.374782
0.000000 0.117324 0.374782
0.026996 0.027214 0.374782
0.196321 0.027214 0.374782
0.370129 0.027214 0.374782
0.502287 0.000000 0.335923
0.634903 0.000000 0.315819
0.768861 0.000000 0.303820
0.903945 0.000000 0.295858
1.000000 0.000000 0.291679
0.000000 0.241245 0.374782
0.026996 0.194507 0.374782
0.196321 0.194507 0.374782
0.370129 0.194507 0.374782
0.502287 0.149880 0.330156
0.634903 0.103464 0.283740
0.768861 0.056579 0.236855
0.903945 0.009300 0.189575
1.000000 0.000000 0.175996
0.000000 0.367784 0.374782
0.026996 0.365334 0.374782
0.196321 0.365334 0.374782
0.370129 0.365334 0.374782
0.502287 0.320708 0.330156
0.634903 0.274292 0.283740
0.768861 0.227407 0.236855
0.903945 0.180128 0.189575
1.000000 0.146508 0.155956
0.000000 0.496054 0.374782
0.000000 0.496054 0.337282
0.153876 0.496054 0.332337
0.327684 0.496054 0.332337
0.502287 0.493873 0.330156
0.634903 0.447457 0.283740
0.768861 0.400572 0.236855
0.903945 0.353292 0.189575
1.000000 0.319673 0.155956
0.000000 0.625627 0.374782
0.000000 0.625627 0.316982
0.108525 0.625627 0.286987
0.282333 0.625627 0.286987
0.459118 0.625627 0.286987
0.634903 0.622380 0.283740
0.768861 0.575495 0.236855
0.903945 0.528216 0.189575
1.000000 0.494596 0.155956
0.000000 0.756247 0.374782
0.000000 0.756247 0.304849
0.062808 0.756247 0.241269
0.236616 0.756247 0.241269
0.413401 0.756247 0.241269
0.592432 0.756247 0.241269
0.768861 0.751833 0.236855
0.903945 0.704553 0.189575
1.000000 0.670934 0.155956
0.000000 0.887746 0.374782
0.000000 0.887746 0.296789
0.016784 0.887746 0.195245
0.190592 0.887746 0.195245
0.367376 0.887746 0.195245
0.546408 0.887746 0.195245
0.727251 0.887746 0.195245
0.903945 0.882076 0.189575
1.000000 0.848457 0.155956
0.000000 1.000000 0.374782
0.000000 1.000000 0.291809
0.000000 1.000000 0.174534
0.151303 1.000000 0.155956
0.328087 1.000000 0.155956
0.507119 1.000000 0.155956
0.687962 1.000000 0.155956
0.870325 1.000000 0.155956
1.000000 1.000000 0.155956
0.000000 0.000000 0.508410
0.117163 0.000000 0.508410
0.242589 0.000000 0.508410
0.371335 0.000000 0.508410
0.502287 0.000000 0.508410
0.634903 0.000000 0.508410
0.768861 0.000000 0.508410
0.903945 0.000000 0.508410
1.000000 0.000000 0.508410
0.000000 0.117324 0.508410
0.000000 0.000210 0.508410
0.162843 0.000000 0.508410
0.330213 0.000000 0.508410
0.500450 0.000000 0.508410
0.634903 0.000000 0.479737
0.768861 0.000000 0.461510
0.903945 0.000000 0.449416
1.000000 0.000000 0.443069
0.000000 0.241245 0.508410
0.000000 0.161240 0.508410
0.149551 0.147737 0.508410
0.323359 0.147737 0.508410
0.500144 0.147737 0.508410
0.634903 0.103464 0.464137
0.768861 0.056579 0.417252
0.903945 0.009300 0.369973
1.000000 0.000000 0.352110
0.000000 0.367784 0.508410
0.000000 0.325672 0.508410
0.149551 0.318565 0.508410
0.323359 0.318565 0.508410
0.500144 0.318565 0.508410
0.634903 0.274292 0.464137
0.768861 0.227407 0.417252
0.903945 0.180128 0.369973
1.000000 0.146508 0.336353
0.000000 0.496054 0.508410
0.000000 0.492354 0.508410
0.149551 0.491729 0.508410
0.323359 0.491729 0.508410
0.500144 0.491729 0.508410
0.634903 0.447457 0.464137
0.768861 0.400572 0.417252
0.903945 0.353292 0.369973
1.000000 0.319673 0.336353
0.000000 0.625627 0.508410
0.000000 0.625627 0.481400
0.108525 0.625627 0.467384
0.282333 0.625627 0.467384
0.459118 0.625627 0.467384
0.634903 0.622380 0.464137
0.768861 0.575495 0.417252
0.903945 0.528216 0.369973
1.000000 0.494596 0.336353
0.000000 0.756247 0.508410
0.000000 0.756247 0.462974
0.062808 0.756247 0.421667
0.236616 0.756247 0.421667
0.413401 0.756247 0.421667
0.592432 0.756247 0.421667
0.768861 0.751833 0.417252
0.903945 0.704553 0.369973
1.000000 0.670934 0.336353
0.000000 0.887746 0.508410
0.000000 0.887746 0.450734
0.016784 0.887746 0.375643
0.190592 0.887746 0.375643
0.367376 0.887746 0.375643
0.546408 0.887746 0.375643
0.727251 0.887746 0.375643
0.903945 0.882076 0.369973
1.000000 0.848457 0.336353
0.000000 1.000000 0.508410
0.000000 1.000000 0.443170
0.000000 1.000000 0.350960
0.151303 1.000000 0.336353
0.328087 1.000000 0.336353
0.507119 1.000000 0.336353
0.687962 1.000000 0.336353
0.870325 1.000000 0.336353
1.000000 1.000000 0.336353
0.000000 0.000000 0.644078
0.117163 0.000000 0.644078
0.242589 0.000000 0.644078
0.371335 0.000000 0.644078
0.502287 0.000000 0.644078
0.634903 0.000000 0.644078
0.768861 0.000000 0.644078
0.903945 0.000000 0.644078
1.000000 0.000000 0.644078
0.000000 0.117324 0.644078
0.000000 0.000197 0.644078
0.153165 0.000000 0.644078
0.310587 0.000000 0.644078
0.470706 0.000000 0.644078
0.632859 0.000000 0.644078
0.768861 0.000000 0.621608
0.903945 0.000000 0.605319
1.000000 0.000000 0.596770
0.000000 0.241245 0.644078
0.000000 0.151672 0.644078
0.102067 0.100253 0.644078
0.275875 0.100253 0.644078
0.452660 0.100253 0.644078
0.631692 0.100253 0.644078
0.768861 0.056579 0.600404
0.903945 0.009300 0.553125
1.000000 0.000000 0.530914
0.000000 0.367784 0.644078
0.000000 0.306348 0.644078
0.102067 0.271081 0.644078
0.275875 0.271081 0.644078
0.452660 0.271081 0.644078
0.631692 0.271081 0.644078
0.768861 0.227407 0.600404
0.903945 0.180128 0.553125
1.000000 0.146508 0.519506
0.000000 0.496054 0.644078
0.000000 0.463140 0.644078
0.102067 0.444246 0.644078
0.275875 0.444246 0.644078
0.452660 0.444246 0.644078
0.631692 0.444246 0.644078
0.768861 0.400572 0.600404
0.903945 0.353292 0.553125
1.000000 0.319673 0.519506
0.000000 0.625627 0.644078
0.000000 0.621524 0.644078
0.102067 0.619169 0.644078
0.275875 0.619169 0.644078
0.452660 0.619169 0.644078
0.631692 0.619169 0.644078
0.768861 0.575495 0.600404
0.903945 0.528216 0.553125
1.000000 0.494596 0.519506
0.000000 0.756247 0.644078
0.000000 0.756247 0.623515
0.062808 0.756247 0.604819
0.236616 0.756247 0.604819
0.413401 0.756247 0.604819
0.592432 0.756247 0.604819
0.768861 0.751833 0.600404
0.903945 0.704553 0.553125
1.000000 0.670934 0.519506
0.000000 0.887746 0.644078
0.000000 0.887746 0.607030
0.016784 0.887746 0.558795
0.190592 0.887746 0.558795
0.367376 0.887746 0.558795
0.546408 0.887746 0.558795
0.727251 0.887746 0.558795
0.903945 0.882076 0.553125
1.000000 0.848457 0.519506
0.000000 1.000000 0.644078
0.000000 1.000000 0.596843
0.000000 1.000000 0.530081
0.151303 1.000000 0.519506
0.328087 1.000000 0.519506
0.507119 1.000000 0.519506
0.687962 1.000000 0.519506
0.870325 1.000000 0.519506
1.000000 1.000000 0.519506
0.000000 0.000000 0.781395
0.117163 0.000000 0.781395
0.242589 0.000000 0.781395
0.371335 0.000000 0.781395
0.502287 0.000000 0.781395
0.634903 0.000000 0.781395
0.768861 0.000000 0.781395
0.903945 0.000000 0.781395
1.000000 0.000000 0.781395
0.000000 0.117324 0.781395
0.000000 0.000190 0.781395
0.147396 0.000000 0.781395
0.298888 0.000000 0.781395
0.452976 0.000000 0.781395
0.609022 0.000000 0.781395
0.766646 0.000000 0.781395
0.903945 0.000000 0.763117
1.000000 0.000000 0.752339
0.000000 0.241245 0.781395
0.000000 0.145969 0.781395
0.054006 0.052192 0.781395
0.227814 0.052192 0.781395
0.404599 0.052192 0.781395
0.583631 0.052192 0.781395
0.764474 0.052192 0.781395
0.903945 0.009300 0.738503
1.000000 0.000000 0.711890
0.000000 0.367784 0.781395
0.000000 0.294828 0.781395
0.054006 0.223020 0.781395
0.227814 0.223020 0.781395
0.404599 0.223020 0.781395
0.583631 0.223020 0.781395
0.764474 0.223020 0.781395
0.903945 0.180128 0.738503
1.000000 0.146508 0.704884
0.000000 0.496054 0.781395
0.000000 0.445723 0.781395
0.054006 0.396185 0.781395
0.227814 0.396185 0.781395
0.404599 0.396185 0.781395
0.583631 0.396185 0.781395
0.764474 0.396185 0.781395
0.903945 0.353292 0.738503
1.000000 0.319673 0.704884
0.000000 0.625627 0.781395
0.000000 0.598151 0.781395
0.054006 0.571108 0.781395
0.227814 0.571108 0.781395
0.404599 0.571108 0.781395
0.583631 0.571108 0.781395
0.764474 0.571108 0.781395
0.903945 0.528216 0.738503
1.000000 0.494596 0.704884
0.000000 0.756247 0.781395
0.000000 0.751812 0.781395
0.054006 0.747446 0.781395
0.227814 0.747446 0.781395
0.404599 0.747446 0.781395
0.583631 0.747446 0.781395
0.764474 0.747446 0.781395
0.903945 0.704553 0.738503
1.000000 0.670934 0.704884
0.000000 0.887746 0.781395
0.000000 0.887746 0.765225
0.016784 0.887746 0.744173
0.190592 0.887746 0.744173
0.367376 0.887746 0.744173
0.546408 0.887746 0.744173
0.727251 0.887746 0.744173
0.903945 0.882076 0.738503
1.000000 0.848457 0.704884
0.000000 1.000000 0.781395
0.000000 1.000000 0.752384
0.000000 1.000000 0.711379
0.151303 1.000000 0.704884
0.328087 1.000000 0.704884
0.507119 1.000000 0.704884
0.687962 1.000000 0.704884
0.870325 1.000000 0.704884
1.000000 1.000000 0.704884
0.000000 0.000000 0.920099
0.117163 0.000000 0.920099
0.242589 0.000000 0.920099
0.371335 0.000000 0.920099
0.502287 0.000000 0.920099
0.634903 0.000000 0.920099
0.768861 0.000000 0.920099
0.903945 0.000000 0.920099
1.000000 0.000000 0.920099
0.000000 0.117324 0.920099
0.000000 0.000185 0.920099
0.143572 0.000000 0.920099
0.291135 0.000000 0.920099
0.441225 0.000000 0.920099
0.593222 0.000000 0.920099
0.746758 0.000000 0.920099
0.901584 0.000000 0.920099
1.000000 0.000000 0.909478
0.000000 0.241245 0.920099
0.000000 0.142188 0.920099
0.005460 0.003646 0.920099
0.179268 0.003646 0.920099
0.356053 0.003646 0.920099
0.535084 0.003646 0.920099
0.715927 0.003646 0.920099
0.898291 0.003646 0.920099
1.000000 0.000000 0.894694
0.000000 0.367784 0.920099
0.000000 0.287191 0.920099
0.005460 0.174474 0.920099
0.179268 0.174474 0.920099
0.356053 0.174474 0.920099
0.535084 0.174474 0.920099
0.715927 0.174474 0.920099
0.898291 0.174474 0.920099
1.000000 0.146508 0.892133
0.000000 0.496054 0.920099
0.000000 0.434178 0.920099
0.005460 0.347638 0.920099
0.179268 0.347638 0.920099
0.356053 0.347638 0.920099
0.535084 0.347638 0.920099
0.715927 0.347638 0.920099
0.898291 0.347638 0.920099
1.000000 0.319673 0.892133
0.000000 0.625627 0.920099
0.000000 0.582658 0.920099
0.005460 0.522562 0.920099
0.179268 0.522562 0.920099
0.356053 0.522562 0.920099
0.535084 0.522562 0.920099
0.715927 0.522562 0.920099
0.898291 0.522562 0.920099
1.000000 0.494596 0.892133
0.000000 0.756247 0.920099
0.000000 0.732339 0.920099
0.005460 0.698899 0.920099
0.179268 0.698899 0.920099
0.356053 0.698899 0.920099
0.535084 0.698899 0.920099
0.715927 0.698899 0.920099
0.898291 0.698899 0.920099
1.000000 0.670934 0.892133
0.000000 0.887746 0.920099
0.000000 0.883025 0.920099
0.005460 0.876422 0.920099
0.179268 0.876422 0.920099
0.356053 0.876422 0.920099
0.535084 0.876422 0.920099
0.715927 0.876422 0.920099
0.898291 0.876422 0.920099
1.000000 0.848457 0.892133
0.000000 1.000000 0.920099
0.000000 1.000000 0.909495
0.000000 1.000000 0.894507
0.151303 1.000000 0.892133
0.328087 1.000000 0.892133
0.507119 1.000000 0.892133
0.687962 1.000000 0.892133
0.870325 1.000000 0.892133
1.000000 1.000000 0.892133
0.000000 0.000000 1.000000
0.117163 0.000000 1.000000
0.242589 0.000000 1.000000
0.371335 0.000000 1.000000
0.502287 0.000000 1.000000
0.634903 0.000000 1.000000
0.768861 0.000000 1.000000
0.903945 0.000000 1.000000
1.000000 0.000000 1.000000
0.000000 0.117324 1.000000
0.000000 0.000183 1.000000
0.141915 0.000000 1.000000
0.287774 0.000000 1.000000
0.436132 0.000000 1.000000
0.586375 0.000000 1.000000
0.738138 0.000000 1.000000
0.891177 0.000000 1.000000
1.000000 0.000000 1.000000
0.000000 0.241245 1.000000
0.000000 0.140549 1.000000
0.001771 0.000000 1.000000
0.171453 0.000000 1.000000
0.344040 0.000000 1.000000
0.518821 0.000000 1.000000
0.695370 0.000000 1.000000
0.873404 0.000000 1.000000
1.000000 0.000000 1.000000
0.000000 0.367784 1.000000
0.000000 0.283882 1.000000
0.000000 0.165294 1.000000
0.151303 0.146508 1.000000
0.328087 0.146508 1.000000
0.507119 0.146508 1.000000
0.687962 0.146508 1.000000
0.870325 0.146508 1.000000
1.000000 0.146508 1.000000
0.000000 0.496054 1.000000
0.000000 0.429175 1.000000
0.000000 0.334647 1.000000
0.151303 0.319673 1.000000
0.328087 0.319673 1.000000
0.507119 0.319673 1.000000
0.687962 0.319673 1.000000
0.870325 0.319673 1.000000
1.000000 0.319673 1.000000
0.000000 0.625627 1.000000
0.000000 0.575943 1.000000
0.000000 0.505720 1.000000
0.151303 0.494596 1.000000
0.328087 0.494596 1.000000
0.507119 0.494596 1.000000
0.687962 0.494596 1.000000
0.870325 0.494596 1.000000
1.000000 0.494596 1.000000
0.000000 0.756247 1.000000
0.000000 0.723899 1.000000
0.000000 0.678177 1.000000
0.151303 0.670934 1.000000
0.328087 0.670934 1.000000
0.507119 0.670934 1.000000
0.687962 0.670934 1.000000
0.870325 0.670934 1.000000
1.000000 0.670934 1.000000
0.000000 0.887746 1.000000
0.000000 0.872848 1.000000
0.000000 0.851792 1.000000
0.151303 0.848457 1.000000
0.328087 0.848457 1.000000
0.507119 0.848457 1.000000
0.687962 0.848457 1.000000
0.870325 0.848457 1.000000
1.000000 0.848457 1.000000
0.000000 1.000000 1.000000
0.000000 1.000000 1.000000
0.000000 1.000000 1.000000
0.151303 1.000000 1.000000
0.328087 1.000000 1.000000
0.507119 1.000000 1.000000
0.687962 1.000000 1.000000
0.870325 1.000000 1.000000
1.000000 1.000000 1.000000
