app/src/main/assets/luts/ektar_100.cube
TITLE "Ektar 100"
LUT_3D_SIZE 5
DOMAIN_MIN 0.0 0.0 0.0
DOMAIN_MAX 1.0 1.0 1.0
0.000000 0.000000 0.000000
0.242589 0.000000 0.000000
0.502287 0.000000 0.000000
0.768861 0.000000 0.000000
1.000000 0.000000 0.000000
0.000000 0.241245 0.000000
0.242589 0.241245 0.000000
0.502287 0.241245 0.000000
0.768861 0.241245 0.000000
1.000000 0.241245 0.000000
0.000000 0.496054 0.000000
0.242589 0.496054 0.000000
0.502287 0.496054 0.000000
0.768861 0.496054 0.000000
1.000000 0.496054 0.000000
0.000000 0.756247 0.000000
0.242589 0.756247 0.000000
0.502287 0.756247 0.000000
0.768861 0.756247 0.000000
1.000000 0.756247 0.000000
0.000000 1.000000 0.000000
0.242589 1.000000 0.000000
0.502287 1.000000 0.000000
0.768861 1.000000 0.000000
1.000000 1.000000 0.000000
0.000000 0.000000 0.243850
0.242589 0.000000 0.243850
0.502287 0.000000 0.243850
0.768861 0.000000 0.243850
1.000000 0.000000 0.243850
0.000000 0.241245 0.243850
0.242147 0.240333 0.243850
0.502287 0.149880 0.153397
0.768861 0.056579 0.060096
1.000000 0.000000 0.003433
0.000000 0.496054 0.243850
0.153876 0.496054 0.155578
0.502287 0.493873 0.153397
0.768861 0.400572 0.060096
1.000000 0.333537 0.000000
0.000000 0.756247 0.243850
0.062808 0.756247 0.064511
0.413401 0.756247 0.064511
0.768861 0.751833 0.060096
1.000000 0.677640 0.000000
0.000000 1.000000 0.243850
0.000000 1.000000 0.001665
0.341780 1.000000 0.000000
0.694321 1.000000 0.000000
1.000000 1.000000 0.000000
0.000000 0.000000 0.508410
0.242589 0.000000 0.508410
0.502287 0.000000 0.508410
0.768861 0.000000 0.508410
1.000000 0.000000 0.508410
0.000000 0.241245 0.508410
0.149551 0.147737 0.508410
0.500144 0.147737 0.508410
0.768861 0.056579 0.417252
1.000000 0.000000 0.352110
0.000000 0.496054 0.508410
0.149551 0.491729 0.508410
0.500144 0.491729 0.508410
0.768861 0.400572 0.417252
1.000000 0.319673 0.336353
0.000000 0.756247 0.508410
0.062808 0.756247 0.421667
0.413401 0.756247 0.421667
0.768861 0.751833 0.417252
1.000000 0.670934 0.336353
0.000000 1.000000 0.508410
0.000000 1.000000 0.350960
0.328087 1.000000 0.336353
0.687962 1.000000 0.336353
1.000000 1.000000 0.336353
0.000000 0.000000 0.781395
0.242589 0.000000 0.781395
0.502287 0.000000 0.781395
0.768861 0.000000 0.781395
1.000000 0.000000 0.781395
0.000000 0.241245 0.781395
0.054006 0.052192 0.781395
0.404599 0.052192 0.781395
0.764474 0.052192 0.781395
1.000000 0.000000 0.711890
0.000000 0.496054 0.781395
0.054006 0.396185 0.781395
0.404599 0.396185 0.781395
0.764474 0.396185 0.781395
1.000000 0.319673 0.704884
0.000000 0.756247 0.781395
0.054006 0.747446 0.781395
0.404599 0.747446 0.781395
0.764474 0.747446 0.781395
1.000000 0.670934 0.704884
0.000000 1.000000 0.781395
0.000000 1.000000 0.711379
0.328087 1.000000 0.704884
0.687962 1.000000 0.704884
1.000000 1.000000 0.704884
0.000000 0.000000 1.000000
0.242589 0.000000 1.000000
0.502287 0.000000 1.000000
0.768861 0.000000 1.000000
1.000000 0.000000 1.000000
0.000000 0.241245 1.000000
0.001771 0.000000 1.000000
0.344040 0.000000 1.000000
0.695370 0.000000 1.000000
1.000000 0.000000 1.000000
0.000000 0.496054 1.000000
0.000000 0.334647 1.000000
0.328087 0.319673 1.000000
0.687962 0.319673 1.000000
1.000000 0.319673 1.000000
0.000000 0.756247 1.000000
0.000000 0.678177 1.000000
0.328087 0.670934 1.000000
0.687962 0.670934 1.000000
1.000000 0.670934 1.000000
0.000000 1.000000 1.000000
0.000000 1.000000 1.000000
0.328087 1.000000 1.000000
0.687962 1.000000 1.000000
1.000000 1.000000 1.000000
