app/src/main/assets/luts/faded_warm.cube
TITLE "Faded Warm"
LUT_3D_SIZE 5
DOMAIN_MIN 0.0 0.0 0.0
DOMAIN_MAX 1.0 1.0 1.0
0.080000 0.050000 0.030000
0.313648 0.050000 0.030000
0.528260 0.050000 0.030000
0.736230 0.050000 0.030000
0.940000 0.050000 0.030000
0.080000 0.276185 0.030000
0.313648 0.276185 0.030000
0.528260 0.276185 0.030000
0.736230 0.276185 0.030000
0.940000 0.276185 0.030000
0.080000 0.496142 0.030000
0.313648 0.496142 0.030000
0.528260 0.496142 0.030000
0.736230 0.496142 0.030000
0.940000 0.496142 0.030000
0.080000 0.713808 0.030000
0.313648 0.713808 0.030000
0.528260 0.713808 0.030000
0.736230 0.713808 0.030000
0.940000 0.713808 0.030000
0.080000 0.930000 0.030000
0.313648 0.930000 0.030000
0.528260 0.930000 0.030000
0.736230 0.930000 0.030000
0.940000 0.930000 0.030000
0.080000 0.050000 0.228270
0.313648 0.050000 0.228270
0.528260 0.050000 0.228270
0.736230 0.050000 0.228270
0.940000 0.050000 0.228270
0.080000 0.276185 0.228270
0.313648 0.276185 0.228270
0.528260 0.276185 0.228270
0.736230 0.276185 0.228270
0.940000 0.276185 0.228270
0.080000 0.496142 0.228270
0.313648 0.496142 0.228270
0.528260 0.496142 0.228270
0.736230 0.496142 0.228270
0.940000 0.496142 0.228270
0.080000 0.713808 0.228270
0.313648 0.713808 0.228270
0.528260 0.713808 0.228270
0.736230 0.713808 0.228270
0.940000 0.713808 0.228270
0.080000 0.930000 0.228270
0.313648 0.930000 0.228270
0.528260 0.930000 0.228270
0.736230 0.930000 0.228270
0.940000 0.930000 0.228270
0.080000 0.050000 0.440523
0.313648 0.050000 0.440523
0.528260 0.050000 0.440523
0.736230 0.050000 0.440523
0.940000 0.050000 0.440523
0.080000 0.276185 0.440523
0.313648 0.276185 0.440523
0.528260 0.276185 0.440523
0.736230 0.276185 0.440523
0.940000 0.276185 0.440523
0.080000 0.496142 0.440523
0.313648 0.496142 0.440523
0.528260 0.496142 0.440523
0.736230 0.496142 0.440523
0.940000 0.496142 0.440523
0.080000 0.713808 0.440523
0.313648 0.713808 0.440523
0.528260 0.713808 0.440523
0.736230 0.713808 0.440523
0.940000 0.713808 0.440523
0.080000 0.930000 0.440523
0.313648 0.930000 0.440523
0.528260 0.930000 0.440523
0.736230 0.930000 0.440523
0.940000 0.930000 0.440523
0.080000 0.050000 0.658396
0.313648 0.050000 0.658396
0.528260 0.050000 0.658396
0.736230 0.050000 0.658396
0.940000 0.050000 0.658396
0.080000 0.276185 0.658396
0.313648 0.276185 0.658396
0.528260 0.276185 0.658396
0.736230 0.276185 0.658396
0.940000 0.276185 0.658396
0.080000 0.496142 0.658396
0.313648 0.496142 0.658396
0.528260 0.496142 0.658396
0.736230 0.496142 0.658396
0.940000 0.496142 0.658396
0.080000 0.713808 0.658396
0.313648 0.713808 0.658396
0.528260 0.713808 0.658396
0.736230 0.713808 0.658396
0.940000 0.713808 0.658396
0.080000 0.930000 0.658396
0.313648 0.930000 0.658396
0.528260 0.930000 0.658396
0.736230 0.930000 0.658396
0.940000 0.930000 0.658396
0.080000 0.050000 0.880000
0.313648 0.050000 0.880000
0.528260 0.050000 0.880000
0.736230 0.050000 0.880000
0.940000 0.050000 0.880000
0.080000 0.276185 0.880000
0.313648 0.276185 0.880000
0.528260 0.276185 0.880000
0.736230 0.276185 0.880000
0.940000 0.276185 0.880000
0.080000 0.496142 0.880000
0.313648 0.496142 0.880000
0.528260 0.496142 0.880000
0.736230 0.496142 0.880000
0.940000 0.496142 0.880000
0.080000 0.713808 0.880000
0.313648 0.713808 0.880000
0.528260 0.713808 0.880000
0.736230 0.713808 0.880000
0.940000 0.713808 0.880000
0.080000 0.930000 0.880000
0.313648 0.930000 0.880000
0.528260 0.930000 0.880000
0.736230 0.930000 0.880000
0.940000 0.930000 0.880000
