app/src/main/assets/luts/fade_cool.cube
# Generated 3D LUT
TITLE "Fade Cool"
LUT_3D_SIZE 5
DOMAIN_MIN 0.000000 0.000000 0.000000
DOMAIN_MAX 0.903226 0.903226 0.903226
0.068000 0.076500 0.119000
0.241273 0.086627 0.129127
0.414545 0.096755 0.139255
0.587818 0.106882 0.149382
0.761090 0.117010 0.159510
0.087882 0.278721 0.138882
0.261155 0.288848 0.149010
0.434427 0.298976 0.159137
0.607700 0.309103 0.169265
0.780973 0.319231 0.179392
0.107765 0.480942 0.158765
0.281037 0.491069 0.168892
0.454310 0.501197 0.179019
0.627582 0.511324 0.189147
0.800855 0.521452 0.199274
0.127647 0.683163 0.178647
0.300919 0.693290 0.188774
0.474192 0.703418 0.198902
0.647465 0.713545 0.209029
0.820737 0.723673 0.219156
0.147529 0.885384 0.198529
0.320802 0.895511 0.208656
0.494074 0.905639 0.218784
0.667347 0.915766 0.228911
0.840619 0.925894 0.239039
0.071861 0.080361 0.324394
0.245134 0.090489 0.334521
0.418406 0.100616 0.344648
0.591679 0.110744 0.354776
0.764952 0.120871 0.364903
0.091744 0.282582 0.344276
0.265016 0.292710 0.354403
0.438289 0.302837 0.364531
0.611561 0.312965 0.374658
0.784834 0.323092 0.384785
0.111626 0.484803 0.364158
0.284898 0.494931 0.374285
0.458171 0.505058 0.384413
0.631444 0.515185 0.394540
0.804716 0.525313 0.404668
0.131508 0.687024 0.384040
0.304781 0.697152 0.394168
0.478053 0.707279 0.404295
0.651326 0.717406 0.414423
0.824598 0.727534 0.424550
0.151390 0.889245 0.403923
0.324663 0.899373 0.414050
0.497935 0.909500 0.424177
0.671208 0.919627 0.434305
0.844481 0.929755 0.444432
0.075723 0.084223 0.529787
0.248995 0.094350 0.539915
0.422268 0.104477 0.550042
0.595540 0.114605 0.560169
0.768813 0.124732 0.570297
0.095605 0.286444 0.549669
0.268877 0.296571 0.559797
0.442150 0.306698 0.569924
0.615423 0.316826 0.580052
0.788695 0.326953 0.590179
0.115487 0.488665 0.569552
0.288760 0.498792 0.579679
0.462032 0.508919 0.589806
0.635305 0.519047 0.599934
0.808577 0.529174 0.610061
0.135369 0.690885 0.589434
0.308642 0.701013 0.599561
0.481915 0.711140 0.609689
0.655187 0.721268 0.619816
0.828460 0.731395 0.629944
0.155252 0.893106 0.609316
0.328524 0.903234 0.619444
0.501797 0.913361 0.629571
0.675069 0.923489 0.639698
0.848342 0.933616 0.649826
0.079584 0.088084 0.735181
0.252856 0.098211 0.745308
0.426129 0.108339 0.755435
0.599402 0.118466 0.765563
0.772674 0.128594 0.775690
0.099466 0.290305 0.755063
0.272739 0.300432 0.765190
0.446011 0.310560 0.775318
0.619284 0.320687 0.785445
0.792556 0.330815 0.795573
0.119348 0.492526 0.774945
0.292621 0.502653 0.785073
0.465894 0.512781 0.795200
0.639166 0.522908 0.805327
0.812439 0.533035 0.815455
0.139231 0.694747 0.794827
0.312503 0.704874 0.804955
0.485776 0.715002 0.815082
0.659048 0.725129 0.825210
0.832321 0.735256 0.835337
0.159113 0.896968 0.814710
0.332385 0.907095 0.824837
0.505658 0.917223 0.834965
0.678931 0.927350 0.845092
0.852203 0.937477 0.855219
0.083445 0.091945 0.940574
0.256718 0.102073 0.950702
0.429990 0.112200 0.960829
0.603263 0.122327 0.970956
0.776535 0.132455 0.981084
0.103327 0.294166 0.960456
0.276600 0.304294 0.970584
0.449873 0.314421 0.980711
0.623145 0.324548 0.990839
0.796418 0.334676 1.000000
0.123210 0.496387 0.980339
0.296482 0.506515 0.990466
0.469755 0.516642 1.000000
0.643027 0.526769 1.000000
0.816300 0.536897 1.000000
0.143092 0.698608 1.000000
0.316365 0.708735 1.000000
0.489637 0.718863 1.000000
0.662910 0.728990 1.000000
0.836182 0.739118 1.000000
0.162974 0.900829 1.000000
0.336247 0.910956 1.000000
0.509519 0.921084 1.000000
0.682792 0.931211 1.000000
0.856065 0.941339 1.000000
