app/src/main/assets/luts/fade_cool.cube
# Generated 3D LUT
TITLE "Fade Cool"
LUT_3D_SIZE 32
DOMAIN_MIN 0.0 0.0 0.0
DOMAIN_MAX 1.0 1.0 1.0
0.068000 0.076500 0.119000
0.092753 0.077947 0.120447
0.117506 0.079394 0.121894
0.142260 0.080840 0.123340
0.167013 0.082287 0.124787
0.191766 0.083734 0.126234
0.216519 0.085181 0.127681
0.241273 0.086627 0.129127
0.266026 0.088074 0.130574
0.290779 0.089521 0.132021
0.315532 0.090968 0.133468
0.340285 0.092415 0.134915
0.365039 0.093861 0.136361
0.389792 0.095308 0.137808
0.414545 0.096755 0.139255
0.439298 0.098202 0.140702
0.464052 0.099648 0.142148
0.488805 0.101095 0.143595
0.513558 0.102542 0.145042
0.538311 0.103989 0.146489
0.563065 0.105435 0.147935
0.587818 0.106882 0.149382
0.612571 0.108329 0.150829
0.637324 0.109776 0.152276
0.662077 0.111223 0.153723
0.686831 0.112669 0.155169
0.711584 0.114116 0.156616
0.736337 0.115563 0.158063
0.761090 0.117010 0.159510
0.785844 0.118456 0.160956
0.810597 0.119903 0.162403
0.835350 0.121350 0.163850
0.070840 0.105389 0.121840
0.095594 0.106835 0.123287
0.120347 0.108282 0.124734
0.145100 0.109729 0.126181
0.169853 0.111176 0.127627
0.194606 0.112623 0.129074
0.219360 0.114069 0.130521
0.244113 0.115516 0.131968
0.268866 0.116963 0.133415
0.293619 0.118410 0.134861
0.318373 0.119856 0.136308
0.343126 0.121303 0.137755
0.367879 0.122750 0.139202
0.392632 0.124197 0.140648
0.417385 0.125644 0.142095
0.442139 0.127090 0.143542
0.466892 0.128537 0.144989
0.491645 0.129984 0.146435
0.516398 0.131431 0.147882
0.541152 0.132877 0.149329
0.565905 0.134324 0.150776
0.590658 0.135771 0.152223
0.615411 0.137218 0.153669
0.640165 0.138665 0.155116
0.664918 0.140111 0.156563
0.689671 0.141558 0.158010
0.714424 0.143005 0.159456
0.739177 0.144452 0.160903
0.763931 0.145898 0.162350
0.788684 0.147345 0.163797
0.813437 0.148792 0.165244
0.838190 0.150239 0.166690
0.073681 0.134277 0.124681
0.098434 0.135724 0.126127
0.123187 0.137171 0.127574
0.147940 0.138618 0.129021
0.172694 0.140065 0.130468
0.197447 0.141511 0.131915
0.222200 0.142958 0.133361
0.246953 0.144405 0.134808
0.271706 0.145852 0.136255
0.296460 0.147298 0.137702
0.321213 0.148745 0.139148
0.345966 0.150192 0.140595
0.370719 0.151639 0.142042
0.395473 0.153085 0.143489
0.420226 0.154532 0.144935
0.444979 0.155979 0.146382
0.469732 0.157426 0.147829
0.494485 0.158873 0.149276
0.519239 0.160319 0.150723
0.543992 0.161766 0.152169
0.568745 0.163213 0.153616
0.593498 0.164660 0.155063
0.618252 0.166106 0.156510
0.643005 0.167553 0.157956
0.667758 0.169000 0.159403
0.692511 0.170447 0.160850
0.717265 0.171894 0.162297
0.742018 0.173340 0.163744
0.766771 0.174787 0.165190
0.791524 0.176234 0.166637
0.816277 0.177681 0.168084
0.841031 0.179127 0.169531
0.076521 0.163166 0.127521
0.101274 0.164613 0.128968
0.126027 0.166060 0.130415
0.150781 0.167506 0.131861
0.175534 0.168953 0.133308
0.200287 0.170400 0.134755
0.225040 0.171847 0.136202
0.249794 0.173294 0.137648
0.274547 0.174740 0.139095
0.299300 0.176187 0.140542
0.324053 0.177634 0.141989
0.348806 0.179081 0.143435
0.373560 0.180527 0.144882
0.398313 0.181974 0.146329
0.423066 0.183421 0.147776
0.447819 0.184868 0.149223
0.472573 0.186315 0.150669
0.497326 0.187761 0.152116
0.522079 0.189208 0.153563
0.546832 0.190655 0.155010
0.571585 0.192102 0.156456
0.596339 0.193548 0.157903
0.621092 0.194995 0.159350
0.645845 0.196442 0.160797
0.670598 0.197889 0.162244
0.695352 0.199335 0.163690
0.720105 0.200782 0.165137
0.744858 0.202229 0.166584
0.769611 0.203676 0.168031
0.794365 0.205123 0.169477
0.819118 0.206569 0.170924
0.843871 0.208016 0.172371
0.079361 0.192055 0.130361
0.104115 0.193502 0.131808
0.128868 0.194948 0.133255
0.153621 0.196395 0.134702
0.178374 0.197842 0.136148
0.203127 0.199289 0.137595
0.227881 0.200735 0.139042
0.252634 0.202182 0.140489
0.277387 0.203629 0.141935
0.302140 0.205076 0.143382
0.326894 0.206523 0.144829
0.351647 0.207969 0.146276
0.376400 0.209416 0.147723
0.401153 0.210863 0.149169
0.425906 0.212310 0.150616
0.450660 0.213756 0.152063
0.475413 0.215203 0.153510
0.500166 0.216650 0.154956
0.524919 0.218097 0.156403
0.549673 0.219544 0.157850
0.574426 0.220990 0.159297
0.599179 0.222437 0.160744
0.623932 0.223884 0.162190
0.648685 0.225331 0.163637
0.673439 0.226777 0.165084
0.698192 0.228224 0.166531
0.722945 0.229671 0.167977
0.747698 0.231118 0.169424
0.772452 0.232565 0.170871
0.797205 0.234011 0.172318
0.821958 0.235458 0.173765
0.846711 0.236905 0.175211
0.082202 0.220944 0.133202
0.106955 0.222390 0.134648
0.131708 0.223837 0.136095
0.156461 0.225284 0.137542
0.181215 0.226731 0.138989
0.205968 0.228177 0.140435
0.230721 0.229624 0.141882
0.255474 0.231071 0.143329
0.280227 0.232518 0.144776
0.304981 0.233965 0.146223
0.329734 0.235411 0.147669
0.354487 0.236858 0.149116
0.379240 0.238305 0.150563
0.403994 0.239752 0.152010
0.428747 0.241198 0.153456
0.453500 0.242645 0.154903
0.478253 0.244092 0.156350
0.503006 0.245539 0.157797
0.527760 0.246985 0.159244
0.552513 0.248432 0.160690
0.577266 0.249879 0.162137
0.602019 0.251326 0.163584
0.626773 0.252773 0.165031
0.651526 0.254219 0.166477
0.676279 0.255666 0.167924
0.701032 0.257113 0.169371
0.725785 0.258560 0.170818
0.750539 0.260006 0.172265
0.775292 0.261453 0.173711
0.800045 0.262900 0.175158
0.824798 0.264347 0.176605
0.849552 0.265794 0.178052
0.085042 0.249832 0.136042
0.109795 0.251279 0.137489
0.134548 0.252726 0.138935
0.159302 0.254173 0.140382
0.184055 0.255619 0.141829
0.208808 0.257066 0.143276
0.233561 0.258513 0.144723
0.258315 0.259960 0.146169
0.283068 0.261406 0.147616
0.307821 0.262853 0.149063
0.332574 0.264300 0.150510
0.357327 0.265747 0.151956
0.382081 0.267194 0.153403
0.406834 0.268640 0.154850
0.431587 0.270087 0.156297
0.456340 0.271534 0.157744
0.481094 0.272981 0.159190
0.505847 0.274427 0.160637
0.530600 0.275874 0.162084
0.555353 0.277321 0.163531
0.580106 0.278768 0.164977
0.604860 0.280215 0.166424
0.629613 0.281661 0.167871
0.654366 0.283108 0.169318
0.679119 0.284555 0.170765
0.703873 0.286002 0.172211
0.728626 0.287448 0.173658
0.753379 0.288895 0.175105
0.778132 0.290342 0.176552
0.802885 0.291789 0.177998
0.827639 0.293235 0.179445
0.852392 0.294682 0.180892
0.087882 0.278721 0.138882
0.112635 0.280168 0.140329
0.137389 0.281615 0.141776
0.162142 0.283061 0.143223
0.186895 0.284508 0.144669
0.211648 0.285955 0.146116
0.236402 0.287402 0.147563
0.261155 0.288848 0.149010
0.285908 0.290295 0.150456
0.310661 0.291742 0.151903
0.335415 0.293189 0.153350
0.360168 0.294635 0.154797
0.384921 0.296082 0.156244
0.409674 0.297529 0.157690
0.434427 0.298976 0.159137
0.459181 0.300423 0.160584
0.483934 0.301869 0.162031
0.508687 0.303316 0.163477
0.533440 0.304763 0.164924
0.558194 0.306210 0.166371
0.582947 0.307656 0.167818
0.607700 0.309103 0.169265
0.632453 0.310550 0.170711
0.657206 0.311997 0.172158
0.681960 0.313444 0.173605
0.706713 0.314890 0.175052
0.731466 0.316337 0.176498
0.756219 0.317784 0.177945
0.780973 0.319231 0.179392
0.805726 0.320677 0.180839
0.830479 0.322124 0.182285
0.855232 0.323571 0.183732
0.090723 0.307610 0.141723
0.115476 0.309056 0.143169
0.140229 0.310503 0.144616
0.164982 0.311950 0.146063
0.189735 0.313397 0.147510
0.214489 0.314844 0.148956
0.239242 0.316290 0.150403
0.263995 0.317737 0.151850
0.288748 0.319184 0.153297
0.313502 0.320631 0.154744
0.338255 0.322077 0.156190
0.363008 0.323524 0.157637
0.387761 0.324971 0.159084
0.412515 0.326418 0.160531
0.437268 0.327865 0.161977
0.462021 0.329311 0.163424
0.486774 0.330758 0.164871
0.511527 0.332205 0.166318
0.536281 0.333652 0.167765
0.561034 0.335098 0.169211
0.585787 0.336545 0.170658
0.610540 0.337992 0.172105
0.635294 0.339439 0.173552
0.660047 0.340885 0.174998
0.684800 0.342332 0.176445
0.709553 0.343779 0.177892
0.734306 0.345226 0.179339
0.759060 0.346673 0.180785
0.783813 0.348119 0.182232
0.808566 0.349566 0.183679
0.833319 0.351013 0.185126
0.858073 0.352460 0.186573
0.093563 0.336498 0.144563
0.118316 0.337945 0.146010
0.143069 0.339392 0.147456
0.167823 0.340839 0.148903
0.192576 0.342285 0.150350
0.217329 0.343732 0.151797
0.242082 0.345179 0.153244
0.266835 0.346626 0.154690
0.291589 0.348073 0.156137
0.316342 0.349519 0.157584
0.341095 0.350966 0.159031
0.365848 0.352413 0.160477
0.390602 0.353860 0.161924
0.415355 0.355306 0.163371
0.440108 0.356753 0.164818
0.464861 0.358200 0.166265
0.489615 0.359647 0.167711
0.514368 0.361094 0.169158
0.539121 0.362540 0.170605
0.563874 0.363987 0.172052
0.588627 0.365434 0.173498
0.613381 0.366881 0.174945
0.638134 0.368327 0.176392
0.662887 0.369774 0.177839
0.687640 0.371221 0.179285
0.712394 0.372668 0.180732
0.737147 0.374115 0.182179
0.761900 0.375561 0.183626
0.786653 0.377008 0.185073
0.811406 0.378455 0.186519
0.836160 0.379902 0.187966
0.860913 0.381348 0.189413
0.096403 0.365387 0.147403
0.121156 0.366834 0.148850
0.145910 0.368281 0.150297
0.170663 0.369727 0.151744
0.195416 0.371174 0.153190
0.220169 0.372621 0.154637
0.244923 0.374068 0.156084
0.269676 0.375515 0.157531
0.294429 0.376961 0.158977
0.319182 0.378408 0.160424
0.343935 0.379855 0.161871
0.368689 0.381302 0.163318
0.393442 0.382748 0.164765
0.418195 0.384195 0.166211
0.442948 0.385642 0.167658
0.467702 0.387089 0.169105
0.492455 0.388535 0.170552
0.517208 0.389982 0.171998
0.541961 0.391429 0.173445
0.566715 0.392876 0.174892
0.591468 0.394323 0.176339
0.616221 0.395769 0.177785
0.640974 0.397216 0.179232
0.665727 0.398663 0.180679
0.690481 0.400110 0.182126
0.715234 0.401556 0.183573
0.739987 0.403003 0.185019
0.764740 0.404450 0.186466
0.789494 0.405897 0.187913
0.814247 0.407344 0.189360
0.839000 0.408790 0.190806
0.863753 0.410237 0.192253
0.099244 0.394276 0.150244
0.123997 0.395723 0.151690
0.148750 0.397169 0.153137
0.173503 0.398616 0.154584
0.198256 0.400063 0.156031
0.223010 0.401510 0.157477
0.247763 0.402956 0.158924
0.272516 0.404403 0.160371
0.297269 0.405850 0.161818
0.322023 0.407297 0.163265
0.346776 0.408744 0.164711
0.371529 0.410190 0.166158
0.396282 0.411637 0.167605
0.421035 0.413084 0.169052
0.445789 0.414531 0.170498
0.470542 0.415977 0.171945
0.495295 0.417424 0.173392
0.520048 0.418871 0.174839
0.544802 0.420318 0.176285
0.569555 0.421765 0.177732
0.594308 0.423211 0.179179
0.619061 0.424658 0.180626
0.643815 0.426105 0.182073
0.668568 0.427552 0.183519
0.693321 0.428998 0.184966
0.718074 0.430445 0.186413
0.742827 0.431892 0.187860
0.767581 0.433339 0.189306
0.792334 0.434785 0.190753
0.817087 0.436232 0.192200
0.841840 0.437679 0.193647
0.866594 0.439126 0.195094
0.102084 0.423165 0.153084
0.126837 0.424611 0.154531
0.151590 0.426058 0.155977
0.176344 0.427505 0.157424
0.201097 0.428952 0.158871
0.225850 0.430398 0.160318
0.250603 0.431845 0.161765
0.275356 0.433292 0.163211
0.300110 0.434739 0.164658
0.324863 0.436185 0.166105
0.349616 0.437632 0.167552
0.374369 0.439079 0.168998
0.399123 0.440526 0.170445
0.423876 0.441973 0.171892
0.448629 0.443419 0.173339
0.473382 0.444866 0.174785
0.498135 0.446313 0.176232
0.522889 0.447760 0.177679
0.547642 0.449206 0.179126
0.572395 0.450653 0.180573
0.597148 0.452100 0.182019
0.621902 0.453547 0.183466
0.646655 0.454994 0.184913
0.671408 0.456440 0.186360
0.696161 0.457887 0.187806
0.720915 0.459334 0.189253
0.745668 0.460781 0.190700
0.770421 0.462227 0.192147
0.795174 0.463674 0.193594
0.819927 0.465121 0.195040
0.844681 0.466568 0.196487
0.869434 0.468015 0.197934
0.104924 0.452053 0.155924
0.129677 0.453500 0.157371
0.154431 0.454947 0.158818
0.179184 0.456394 0.160265
0.203937 0.457840 0.161711
0.228690 0.459287 0.163158
0.253444 0.460734 0.164605
0.278197 0.462181 0.166052
0.302950 0.463627 0.167498
0.327703 0.465074 0.168945
0.352456 0.466521 0.170392
0.377210 0.467968 0.171839
0.401963 0.469415 0.173285
0.426716 0.470861 0.174732
0.451469 0.472308 0.176179
0.476223 0.473755 0.177626
0.500976 0.475202 0.179073
0.525729 0.476648 0.180519
0.550482 0.478095 0.181966
0.575235 0.479542 0.183413
0.599989 0.480989 0.184860
0.624742 0.482435 0.186306
0.649495 0.483882 0.187753
0.674248 0.485329 0.189200
0.699002 0.486776 0.190647
0.723755 0.488223 0.192094
0.748508 0.489669 0.193540
0.773261 0.491116 0.194987
0.798015 0.492563 0.196434
0.822768 0.494010 0.197881
0.847521 0.495456 0.199327
0.872274 0.496903 0.200774
0.107765 0.480942 0.158765
0.132518 0.482389 0.160211
0.157271 0.483835 0.161658
0.182024 0.485282 0.163105
0.206777 0.486729 0.164552
0.231531 0.488176 0.165998
0.256284 0.489623 0.167445
0.281037 0.491069 0.168892
0.305790 0.492516 0.170339
0.330544 0.493963 0.171785
0.355297 0.495410 0.173232
0.380050 0.496856 0.174679
0.404803 0.498303 0.176126
0.429556 0.499750 0.177573
0.454310 0.501197 0.179019
0.479063 0.502644 0.180466
0.503816 0.504090 0.181913
0.528569 0.505537 0.183360
0.553323 0.506984 0.184806
0.578076 0.508431 0.186253
0.602829 0.509877 0.187700
0.627582 0.511324 0.189147
0.652335 0.512771 0.190594
0.677089 0.514218 0.192040
0.701842 0.515665 0.193487
0.726595 0.517111 0.194934
0.751348 0.518558 0.196381
0.776102 0.520005 0.197827
0.800855 0.521452 0.199274
0.825608 0.522898 0.200721
0.850361 0.524345 0.202168
0.875115 0.525792 0.203615
0.110605 0.509831 0.161605
0.135358 0.511277 0.163052
0.160111 0.512724 0.164498
0.184865 0.514171 0.165945
0.209618 0.515618 0.167392
0.234371 0.517065 0.168839
0.259124 0.518511 0.170285
0.283877 0.519958 0.171732
0.308631 0.521405 0.173179
0.333384 0.522852 0.174626
0.358137 0.524298 0.176073
0.382890 0.525745 0.177519
0.407644 0.527192 0.178966
0.432397 0.528639 0.180413
0.457150 0.530085 0.181860
0.481903 0.531532 0.183306
0.506656 0.532979 0.184753
0.531410 0.534426 0.186200
0.556163 0.535873 0.187647
0.580916 0.537319 0.189094
0.605669 0.538766 0.190540
0.630423 0.540213 0.191987
0.655176 0.541660 0.193434
0.679929 0.543106 0.194881
0.704682 0.544553 0.196327
0.729435 0.546000 0.197774
0.754189 0.547447 0.199221
0.778942 0.548894 0.200668
0.803695 0.550340 0.202115
0.828448 0.551787 0.203561
0.853202 0.553234 0.205008
0.877955 0.554681 0.206455
0.113445 0.538719 0.164445
0.138198 0.540166 0.165892
0.162952 0.541613 0.167339
0.187705 0.543060 0.168785
0.212458 0.544506 0.170232
0.237211 0.545953 0.171679
0.261965 0.547400 0.173126
0.286718 0.548847 0.174573
0.311471 0.550294 0.176019
0.336224 0.551740 0.177466
0.360977 0.553187 0.178913
0.385731 0.554634 0.180360
0.410484 0.556081 0.181806
0.435237 0.557527 0.183253
0.459990 0.558974 0.184700
0.484744 0.560421 0.186147
0.509497 0.561868 0.187594
0.534250 0.563315 0.189040
0.559003 0.564761 0.190487
0.583756 0.566208 0.191934
0.608510 0.567655 0.193381
0.633263 0.569102 0.194827
0.658016 0.570548 0.196274
0.682769 0.571995 0.197721
0.707523 0.573442 0.199168
0.732276 0.574889 0.200615
0.757029 0.576335 0.202061
0.781782 0.577782 0.203508
0.806535 0.579229 0.204955
0.831289 0.580676 0.206402
0.856042 0.582123 0.207848
0.880795 0.583569 0.209295
0.116285 0.567608 0.167285
0.141039 0.569055 0.168732
0.165792 0.570502 0.170179
0.190545 0.571948 0.171626
0.215298 0.573395 0.173073
0.240052 0.574842 0.174519
0.264805 0.576289 0.175966
0.289558 0.577735 0.177413
0.314311 0.579182 0.178860
0.339065 0.580629 0.180306
0.363818 0.582076 0.181753
0.388571 0.583523 0.183200
0.413324 0.584969 0.184647
0.438077 0.586416 0.186094
0.462831 0.587863 0.187540
0.487584 0.589310 0.188987
0.512337 0.590756 0.190434
0.537090 0.592203 0.191881
0.561844 0.593650 0.193327
0.586597 0.595097 0.194774
0.611350 0.596544 0.196221
0.636103 0.597990 0.197668
0.660856 0.599437 0.199115
0.685610 0.600884 0.200561
0.710363 0.602331 0.202008
0.735116 0.603777 0.203455
0.759869 0.605224 0.204902
0.784623 0.606671 0.206348
0.809376 0.608118 0.207795
0.834129 0.609565 0.209242
0.858882 0.611011 0.210689
0.883635 0.612458 0.212135
0.119126 0.596497 0.170126
0.143879 0.597944 0.171573
0.168632 0.599390 0.173019
0.193385 0.600837 0.174466
0.218139 0.602284 0.175913
0.242892 0.603731 0.177360
0.267645 0.605177 0.178806
0.292398 0.606624 0.180253
0.317152 0.608071 0.181700
0.341905 0.609518 0.183147
0.366658 0.610965 0.184594
0.391411 0.612411 0.186040
0.416165 0.613858 0.187487
0.440918 0.615305 0.188934
0.465671 0.616752 0.190381
0.490424 0.618198 0.191827
0.515177 0.619645 0.193274
0.539931 0.621092 0.194721
0.564684 0.622539 0.196168
0.589437 0.623985 0.197615
0.614190 0.625432 0.199061
0.638944 0.626879 0.200508
0.663697 0.628326 0.201955
0.688450 0.629773 0.203402
0.713203 0.631219 0.204848
0.737956 0.632666 0.206295
0.762710 0.634113 0.207742
0.787463 0.635560 0.209189
0.812216 0.637006 0.210635
0.836969 0.638453 0.212082
0.861723 0.639900 0.213529
0.886476 0.641347 0.214976
0.121966 0.625385 0.172966
0.146719 0.626832 0.174413
0.171473 0.628279 0.175860
0.196226 0.629726 0.177306
0.220979 0.631173 0.178753
0.245732 0.632619 0.180200
0.270485 0.634066 0.181647
0.295239 0.635513 0.183094
0.319992 0.636960 0.184540
0.344745 0.638406 0.185987
0.369498 0.639853 0.187434
0.394252 0.641300 0.188881
0.419005 0.642747 0.190327
0.443758 0.644194 0.191774
0.468511 0.645640 0.193221
0.493265 0.647087 0.194668
0.518018 0.648534 0.196115
0.542771 0.649981 0.197561
0.567524 0.651427 0.199008
0.592277 0.652874 0.200455
0.617031 0.654321 0.201902
0.641784 0.655768 0.203348
0.666537 0.657215 0.204795
0.691290 0.658661 0.206242
0.716044 0.660108 0.207689
0.740797 0.661555 0.209135
0.765550 0.663002 0.210582
0.790303 0.664448 0.212029
0.815056 0.665895 0.213476
0.839810 0.667342 0.214923
0.864563 0.668789 0.216369
0.889316 0.670235 0.217816
0.124806 0.654274 0.175806
0.149560 0.655721 0.177253
0.174313 0.657168 0.178700
0.199066 0.658615 0.180147
0.223819 0.660061 0.181594
0.248573 0.661508 0.183040
0.273326 0.662955 0.184487
0.298079 0.664402 0.185934
0.322832 0.665848 0.187381
0.347585 0.667295 0.188827
0.372339 0.668742 0.190274
0.397092 0.670189 0.191721
0.421845 0.671635 0.193168
0.446598 0.673082 0.194615
0.471352 0.674529 0.196061
0.496105 0.675976 0.197508
0.520858 0.677423 0.198955
0.545611 0.678869 0.200402
0.570365 0.680316 0.201848
0.595118 0.681763 0.203295
0.619871 0.683210 0.204742
0.644624 0.684656 0.206189
0.669377 0.686103 0.207635
0.694131 0.687550 0.209082
0.718884 0.688997 0.210529
0.743637 0.690444 0.211976
0.768390 0.691890 0.213423
0.793144 0.693337 0.214869
0.817897 0.694784 0.216316
0.842650 0.696231 0.217763
0.867403 0.697677 0.219210
0.892156 0.699124 0.220656
0.127647 0.683163 0.178647
0.152400 0.684610 0.180094
0.177153 0.686056 0.181540
0.201906 0.687503 0.182987
0.226660 0.688950 0.184434
0.251413 0.690397 0.185881
0.276166 0.691844 0.187327
0.300919 0.693290 0.188774
0.325673 0.694737 0.190221
0.350426 0.696184 0.191668
0.375179 0.697631 0.193115
0.399932 0.699077 0.194561
0.424685 0.700524 0.196008
0.449439 0.701971 0.197455
0.474192 0.703418 0.198902
0.498945 0.704865 0.200348
0.523698 0.706311 0.201795
0.548452 0.707758 0.203242
0.573205 0.709205 0.204689
0.597958 0.710652 0.206135
0.622711 0.712098 0.207582
0.647465 0.713545 0.209029
0.672218 0.714992 0.210476
0.696971 0.716439 0.211923
0.721724 0.717885 0.213369
0.746477 0.719332 0.214816
0.771231 0.720779 0.216263
0.795984 0.722226 0.217710
0.820737 0.723673 0.219156
0.845490 0.725119 0.220603
0.870244 0.726566 0.222050
0.894997 0.728013 0.223497
0.130487 0.712052 0.181487
0.155240 0.713498 0.182934
0.179994 0.714945 0.184381
0.204747 0.716392 0.185827
0.229500 0.717839 0.187274
0.254253 0.719285 0.188721
0.279006 0.720732 0.190168
0.303760 0.722179 0.191615
0.328513 0.723626 0.193061
0.353266 0.725073 0.194508
0.378019 0.726519 0.195955
0.402773 0.727966 0.197402
0.427526 0.729413 0.198848
0.452279 0.730860 0.200295
0.477032 0.732306 0.201742
0.501785 0.733753 0.203189
0.526539 0.735200 0.204635
0.551292 0.736647 0.206082
0.576045 0.738094 0.207529
0.600798 0.739540 0.208976
0.625552 0.740987 0.210423
0.650305 0.742434 0.211869
0.675058 0.743881 0.213316
0.699811 0.745327 0.214763
0.724565 0.746774 0.216210
0.749318 0.748221 0.217656
0.774071 0.749668 0.219103
0.798824 0.751115 0.220550
0.823577 0.752561 0.221997
0.848331 0.754008 0.223444
0.873084 0.755455 0.224890
0.897837 0.756902 0.226337
0.133327 0.740940 0.184327
0.158081 0.742387 0.185774
0.182834 0.743834 0.187221
0.207587 0.745281 0.188668
0.232340 0.746727 0.190115
0.257094 0.748174 0.191561
0.281847 0.749621 0.193008
0.306600 0.751068 0.194455
0.331353 0.752515 0.195902
0.356106 0.753961 0.197348
0.380860 0.755408 0.198795
0.405613 0.756855 0.200242
0.430366 0.758302 0.201689
0.455119 0.759748 0.203135
0.479873 0.761195 0.204582
0.504626 0.762642 0.206029
0.529379 0.764089 0.207476
0.554132 0.765535 0.208923
0.578885 0.766982 0.210369
0.603639 0.768429 0.211816
0.628392 0.769876 0.213263
0.653145 0.771323 0.214710
0.677898 0.772769 0.216156
0.702652 0.774216 0.217603
0.727405 0.775663 0.219050
0.752158 0.777110 0.220497
0.776911 0.778556 0.221944
0.801665 0.780003 0.223390
0.826418 0.781450 0.224837
0.851171 0.782897 0.226284
0.875924 0.784344 0.227731
0.900677 0.785790 0.229177
0.136168 0.769829 0.187168
0.160921 0.771276 0.188615
0.185674 0.772723 0.190061
0.210427 0.774169 0.191508
0.235181 0.775616 0.192955
0.259934 0.777063 0.194402
0.284687 0.778510 0.195848
0.309440 0.779956 0.197295
0.334194 0.781403 0.198742
0.358947 0.782850 0.200189
0.383700 0.784297 0.201635
0.408453 0.785744 0.203082
0.433206 0.787190 0.204529
0.457960 0.788637 0.205976
0.482713 0.790084 0.207423
0.507466 0.791531 0.208869
0.532219 0.792977 0.210316
0.556973 0.794424 0.211763
0.581726 0.795871 0.213210
0.606479 0.797318 0.214656
0.631232 0.798765 0.216103
0.655985 0.800211 0.217550
0.680739 0.801658 0.218997
0.705492 0.803105 0.220444
0.730245 0.804552 0.221890
0.754998 0.805998 0.223337
0.779752 0.807445 0.224784
0.804505 0.808892 0.226231
0.829258 0.810339 0.227677
0.854011 0.811785 0.229124
0.878765 0.813232 0.230571
0.903518 0.814679 0.232018
0.139008 0.798718 0.190008
0.163761 0.800165 0.191455
0.188515 0.801611 0.192902
0.213268 0.803058 0.194348
0.238021 0.804505 0.195795
0.262774 0.805952 0.197242
0.287527 0.807398 0.198689
0.312281 0.808845 0.200135
0.337034 0.810292 0.201582
0.361787 0.811739 0.203029
0.386540 0.813185 0.204476
0.411294 0.814632 0.205923
0.436047 0.816079 0.207369
0.460800 0.817526 0.208816
0.485553 0.818973 0.210263
0.510306 0.820419 0.211710
0.535060 0.821866 0.213156
0.559813 0.823313 0.214603
0.584566 0.824760 0.216050
0.609319 0.826206 0.217497
0.634073 0.827653 0.218944
0.658826 0.829100 0.220390
0.683579 0.830547 0.221837
0.708332 0.831994 0.223284
0.733085 0.833440 0.224731
0.757839 0.834887 0.226177
0.782592 0.836334 0.227624
0.807345 0.837781 0.229071
0.832098 0.839227 0.230518
0.856852 0.840674 0.231965
0.881605 0.842121 0.233411
0.906358 0.843568 0.234858
0.141848 0.827606 0.192848
0.166602 0.829053 0.194295
0.191355 0.830500 0.195742
0.216108 0.831947 0.197189
0.240861 0.833394 0.198635
0.265615 0.834840 0.200082
0.290368 0.836287 0.201529
0.315121 0.837734 0.202976
0.339874 0.839181 0.204423
0.364627 0.840627 0.205869
0.389381 0.842074 0.207316
0.414134 0.843521 0.208763
0.438887 0.844968 0.210210
0.463640 0.846415 0.211656
0.488394 0.847861 0.213103
0.513147 0.849308 0.214550
0.537900 0.850755 0.215997
0.562653 0.852202 0.217444
0.587406 0.853648 0.218890
0.612160 0.855095 0.220337
0.636913 0.856542 0.221784
0.661666 0.857989 0.223231
0.686419 0.859435 0.224677
0.711173 0.860882 0.226124
0.735926 0.862329 0.227571
0.760679 0.863776 0.229018
0.785432 0.865223 0.230465
0.810185 0.866669 0.231911
0.834939 0.868116 0.233358
0.859692 0.869563 0.234805
0.884445 0.871010 0.236252
0.909198 0.872456 0.237698
0.144689 0.856495 0.195689
0.169442 0.857942 0.197135
0.194195 0.859389 0.198582
0.218948 0.860835 0.200029
0.243702 0.862282 0.201476
0.268455 0.863729 0.202923
0.293208 0.865176 0.204369
0.317961 0.866623 0.205816
0.342715 0.868069 0.207263
0.367468 0.869516 0.208710
0.392221 0.870963 0.210156
0.416974 0.872410 0.211603
0.441727 0.873856 0.213050
0.466481 0.875303 0.214497
0.491234 0.876750 0.215944
0.515987 0.878197 0.217390
0.540740 0.879644 0.218837
0.565494 0.881090 0.220284
0.590247 0.882537 0.221731
0.615000 0.883984 0.223177
0.639753 0.885431 0.224624
