app/src/main/assets/luts/faded_warm.cube
TITLE "Faded Warm"
LUT_3D_SIZE 33
DOMAIN_MIN 0.0 0.0 0.0
DOMAIN_MAX 1.0 1.0 1.0
0.080000 0.050000 0.030000
0.113087 0.050000 0.030000
0.143478 0.050000 0.030000
0.172929 0.050000 0.030000
0.201785 0.050000 0.030000
0.230207 0.050000 0.030000
0.258287 0.050000 0.030000
0.286087 0.050000 0.030000
0.313648 0.050000 0.030000
0.341003 0.050000 0.030000
0.368176 0.050000 0.030000
0.395186 0.050000 0.030000
0.422049 0.050000 0.030000
0.448777 0.050000 0.030000
0.475383 0.050000 0.030000
0.501874 0.050000 0.030000
0.528260 0.050000 0.030000
0.554547 0.050000 0.030000
0.580742 0.050000 0.030000
0.606849 0.050000 0.030000
0.632873 0.050000 0.030000
0.658820 0.050000 0.030000
0.684693 0.050000 0.030000
0.710495 0.050000 0.030000
0.736230 0.050000 0.030000
0.761901 0.050000 0.030000
0.787510 0.050000 0.030000
0.813060 0.050000 0.030000
0.838553 0.050000 0.030000
0.863992 0.050000 0.030000
0.889378 0.050000 0.030000
0.914714 0.050000 0.030000
0.940000 0.050000 0.030000
0.080000 0.079474 0.030000
0.113087 0.079474 0.030000
0.143478 0.079474 0.030000
0.172929 0.079474 0.030000
0.201785 0.079474 0.030000
0.230207 0.079474 0.030000
0.258287 0.079474 0.030000
0.286087 0.079474 0.030000
0.313648 0.079474 0.030000
0.341003 0.079474 0.030000
0.368176 0.079474 0.030000
0.395186 0.079474 0.030000
0.422049 0.079474 0.030000
0.448777 0.079474 0.030000
0.475383 0.079474 0.030000
0.501874 0.079474 0.030000
0.528260 0.079474 0.030000
0.554547 0.079474 0.030000
0.580742 0.079474 0.030000
0.606849 0.079474 0.030000
0.632873 0.079474 0.030000
0.658820 0.079474 0.030000
0.684693 0.079474 0.030000
0.710495 0.079474 0.030000
0.736230 0.079474 0.030000
0.761901 0.079474 0.030000
0.787510 0.079474 0.030000
0.813060 0.079474 0.030000
0.838553 0.079474 0.030000
0.863992 0.079474 0.030000
0.889378 0.079474 0.030000
0.914714 0.079474 0.030000
0.940000 0.079474 0.030000
0.080000 0.108136 0.030000
0.113087 0.108136 0.030000
0.143478 0.108136 0.030000
0.172929 0.108136 0.030000
0.201785 0.108136 0.030000
0.230207 0.108136 0.030000
0.258287 0.108136 0.030000
0.286087 0.108136 0.030000
0.313648 0.108136 0.030000
0.341003 0.108136 0.030000
0.368176 0.108136 0.030000
0.395186 0.108136 0.030000
0.422049 0.108136 0.030000
0.448777 0.108136 0.030000
0.475383 0.108136 0.030000
0.501874 0.108136 0.030000
0.528260 0.108136 0.030000
0.554547 0.108136 0.030000
0.580742 0.108136 0.030000
0.606849 0.108136 0.030000
0.632873 0.108136 0.030000
0.658820 0.108136 0.030000
0.684693 0.108136 0.030000
0.710495 0.108136 0.030000
0.736230 0.108136 0.030000
0.761901 0.108136 0.030000
0.787510 0.108136 0.030000
0.813060 0.108136 0.030000
0.838553 0.108136 0.030000
0.863992 0.108136 0.030000
0.889378 0.108136 0.030000
0.914714 0.108136 0.030000
0.940000 0.108136 0.030000
0.080000 0.136500 0.030000
0.113087 0.136500 0.030000
0.143478 0.136500 0.030000
0.172929 0.136500 0.030000
0.201785 0.136500 0.030000
0.230207 0.136500 0.030000
0.258287 0.136500 0.030000
0.286087 0.136500 0.030000
0.313648 0.136500 0.030000
0.341003 0.136500 0.030000
0.368176 0.136500 0.030000
0.395186 0.136500 0.030000
0.422049 0.136500 0.030000
0.448777 0.136500 0.030000
0.475383 0.136500 0.030000
0.501874 0.136500 0.030000
0.528260 0.136500 0.030000
0.554547 0.136500 0.030000
0.580742 0.136500 0.030000
0.606849 0.136500 0.030000
0.632873 0.136500 0.030000
0.658820 0.136500 0.030000
0.684693 0.136500 0.030000
0.710495 0.136500 0.030000
0.736230 0.136500 0.030000
0.761901 0.136500 0.030000
0.787510 0.136500 0.030000
0.813060 0.136500 0.030000
0.838553 0.136500 0.030000
0.863992 0.136500 0.030000
0.889378 0.136500 0.030000
0.914714 0.136500 0.030000
0.940000 0.136500 0.030000
0.080000 0.164671 0.030000
0.113087 0.164671 0.030000
0.143478 0.164671 0.030000
0.172929 0.164671 0.030000
0.201785 0.164671 0.030000
0.230207 0.164671 0.030000
0.258287 0.164671 0.030000
0.286087 0.164671 0.030000
0.313648 0.164671 0.030000
0.341003 0.164671 0.030000
0.368176 0.164671 0.030000
0.395186 0.164671 0.030000
0.422049 0.164671 0.030000
0.448777 0.164671 0.030000
0.475383 0.164671 0.030000
0.501874 0.164671 0.030000
0.528260 0.164671 0.030000
0.554547 0.164671 0.030000
0.580742 0.164671 0.030000
0.606849 0.164671 0.030000
0.632873 0.164671 0.030000
0.658820 0.164671 0.030000
0.684693 0.164671 0.030000
0.710495 0.164671 0.030000
0.736230 0.164671 0.030000
0.761901 0.164671 0.030000
0.787510 0.164671 0.030000
0.813060 0.164671 0.030000
0.838553 0.164671 0.030000
0.863992 0.164671 0.030000
0.889378 0.164671 0.030000
0.914714 0.164671 0.030000
0.940000 0.164671 0.030000
0.080000 0.192701 0.030000
0.113087 0.192701 0.030000
0.143478 0.192701 0.030000
0.172929 0.192701 0.030000
0.201785 0.192701 0.030000
0.230207 0.192701 0.030000
0.258287 0.192701 0.030000
0.286087 0.192701 0.030000
0.313648 0.192701 0.030000
0.341003 0.192701 0.030000
0.368176 0.192701 0.030000
0.395186 0.192701 0.030000
0.422049 0.192701 0.030000
0.448777 0.192701 0.030000
0.475383 0.192701 0.030000
0.501874 0.192701 0.030000
0.528260 0.192701 0.030000
0.554547 0.192701 0.030000
0.580742 0.192701 0.030000
0.606849 0.192701 0.030000
0.632873 0.192701 0.030000
0.658820 0.192701 0.030000
0.684693 0.192701 0.030000
0.710495 0.192701 0.030000
0.736230 0.192701 0.030000
0.761901 0.192701 0.030000
0.787510 0.192701 0.030000
0.813060 0.192701 0.030000
0.838553 0.192701 0.030000
0.863992 0.192701 0.030000
0.889378 0.192701 0.030000
0.914714 0.192701 0.030000
0.940000 0.192701 0.030000
0.080000 0.220618 0.030000
0.113087 0.220618 0.030000
0.143478 0.220618 0.030000
0.172929 0.220618 0.030000
0.201785 0.220618 0.030000
0.230207 0.220618 0.030000
0.258287 0.220618 0.030000
0.286087 0.220618 0.030000
0.313648 0.220618 0.030000
0.341003 0.220618 0.030000
0.368176 0.220618 0.030000
0.395186 0.220618 0.030000
0.422049 0.220618 0.030000
0.448777 0.220618 0.030000
0.475383 0.220618 0.030000
0.501874 0.220618 0.030000
0.528260 0.220618 0.030000
0.554547 0.220618 0.030000
0.580742 0.220618 0.030000
0.606849 0.220618 0.030000
0.632873 0.220618 0.030000
0.658820 0.220618 0.030000
0.684693 0.220618 0.030000
0.710495 0.220618 0.030000
0.736230 0.220618 0.030000
0.761901 0.220618 0.030000
0.787510 0.220618 0.030000
0.813060 0.220618 0.030000
0.838553 0.220618 0.030000
0.863992 0.220618 0.030000
0.889378 0.220618 0.030000
0.914714 0.220618 0.030000
0.940000 0.220618 0.030000
0.080000 0.248441 0.030000
0.113087 0.248441 0.030000
0.143478 0.248441 0.030000
0.172929 0.248441 0.030000
0.201785 0.248441 0.030000
0.230207 0.248441 0.030000
0.258287 0.248441 0.030000
0.286087 0.248441 0.030000
0.313648 0.248441 0.030000
0.341003 0.248441 0.030000
0.368176 0.248441 0.030000
0.395186 0.248441 0.030000
0.422049 0.248441 0.030000
0.448777 0.248441 0.030000
0.475383 0.248441 0.030000
0.501874 0.248441 0.030000
0.528260 0.248441 0.030000
0.554547 0.248441 0.030000
0.580742 0.248441 0.030000
0.606849 0.248441 0.030000
0.632873 0.248441 0.030000
0.658820 0.248441 0.030000
0.684693 0.248441 0.030000
0.710495 0.248441 0.030000
0.736230 0.248441 0.030000
0.761901 0.248441 0.030000
0.787510 0.248441 0.030000
0.813060 0.248441 0.030000
0.838553 0.248441 0.030000
0.863992 0.248441 0.030000
0.889378 0.248441 0.030000
0.914714 0.248441 0.030000
0.940000 0.248441 0.030000
0.080000 0.276185 0.030000
0.113087 0.276185 0.030000
0.143478 0.276185 0.030000
0.172929 0.276185 0.030000
0.201785 0.276185 0.030000
0.230207 0.276185 0.030000
0.258287 0.276185 0.030000
0.286087 0.276185 0.030000
0.313648 0.276185 0.030000
0.341003 0.276185 0.030000
0.368176 0.276185 0.030000
0.395186 0.276185 0.030000
0.422049 0.276185 0.030000
0.448777 0.276185 0.030000
0.475383 0.276185 0.030000
0.501874 0.276185 0.030000
0.528260 0.276185 0.030000
0.554547 0.276185 0.030000
0.580742 0.276185 0.030000
0.606849 0.276185 0.030000
0.632873 0.276185 0.030000
0.658820 0.276185 0.030000
0.684693 0.276185 0.030000
0.710495 0.276185 0.030000
0.736230 0.276185 0.030000
0.761901 0.276185 0.030000
0.787510 0.276185 0.030000
0.813060 0.276185 0.030000
0.838553 0.276185 0.030000
0.863992 0.276185 0.030000
0.889378 0.276185 0.030000
0.914714 0.276185 0.030000
0.940000 0.276185 0.030000
0.080000 0.303859 0.030000
0.113087 0.303859 0.030000
0.143478 0.303859 0.030000
0.172929 0.303859 0.030000
0.201785 0.303859 0.030000
0.230207 0.303859 0.030000
0.258287 0.303859 0.030000
0.286087 0.303859 0.030000
0.313648 0.303859 0.030000
0.341003 0.303859 0.030000
0.368176 0.303859 0.030000
0.395186 0.303859 0.030000
0.422049 0.303859 0.030000
0.448777 0.303859 0.030000
0.475383 0.303859 0.030000
0.501874 0.303859 0.030000
0.528260 0.303859 0.030000
0.554547 0.303859 0.030000
0.580742 0.303859 0.030000
0.606849 0.303859 0.030000
0.632873 0.303859 0.030000
0.658820 0.303859 0.030000
0.684693 0.303859 0.030000
0.710495 0.303859 0.030000
0.736230 0.303859 0.030000
0.761901 0.303859 0.030000
0.787510 0.303859 0.030000
0.813060 0.303859 0.030000
0.838553 0.303859 0.030000
0.863992 0.303859 0.030000
0.889378 0.303859 0.030000
0.914714 0.303859 0.030000
0.940000 0.303859 0.030000
0.080000 0.331472 0.030000
0.113087 0.331472 0.030000
0.143478 0.331472 0.030000
0.172929 0.331472 0.030000
0.201785 0.331472 0.030000
0.230207 0.331472 0.030000
0.258287 0.331472 0.030000
0.286087 0.331472 0.030000
0.313648 0.331472 0.030000
0.341003 0.331472 0.030000
0.368176 0.331472 0.030000
0.395186 0.331472 0.030000
0.422049 0.331472 0.030000
0.448777 0.331472 0.030000
0.475383 0.331472 0.030000
0.501874 0.331472 0.030000
0.528260 0.331472 0.030000
0.554547 0.331472 0.030000
0.580742 0.331472 0.030000
0.606849 0.331472 0.030000
0.632873 0.331472 0.030000
0.658820 0.331472 0.030000
0.684693 0.331472 0.030000
0.710495 0.331472 0.030000
0.736230 0.331472 0.030000
0.761901 0.331472 0.030000
0.787510 0.331472 0.030000
0.813060 0.331472 0.030000
0.838553 0.331472 0.030000
0.863992 0.331472 0.030000
0.889378 0.331472 0.030000
0.914714 0.331472 0.030000
0.940000 0.331472 0.030000
0.080000 0.359030 0.030000
0.113087 0.359030 0.030000
0.143478 0.359030 0.030000
0.172929 0.359030 0.030000
0.201785 0.359030 0.030000
0.230207 0.359030 0.030000
0.258287 0.359030 0.030000
0.286087 0.359030 0.030000
0.313648 0.359030 0.030000
0.341003 0.359030 0.030000
0.368176 0.359030 0.030000
0.395186 0.359030 0.030000
0.422049 0.359030 0.030000
0.448777 0.359030 0.030000
0.475383 0.359030 0.030000
0.501874 0.359030 0.030000
0.528260 0.359030 0.030000
0.554547 0.359030 0.030000
0.580742 0.359030 0.030000
0.606849 0.359030 0.030000
0.632873 0.359030 0.030000
0.658820 0.359030 0.030000
0.684693 0.359030 0.030000
0.710495 0.359030 0.030000
0.736230 0.359030 0.030000
0.761901 0.359030 0.030000
0.787510 0.359030 0.030000
0.813060 0.359030 0.030000
0.838553 0.359030 0.030000
0.863992 0.359030 0.030000
0.889378 0.359030 0.030000
0.914714 0.359030 0.030000
0.940000 0.359030 0.030000
0.080000 0.386537 0.030000
0.113087 0.386537 0.030000
0.143478 0.386537 0.030000
0.172929 0.386537 0.030000
0.201785 0.386537 0.030000
0.230207 0.386537 0.030000
0.258287 0.386537 0.030000
0.286087 0.386537 0.030000
0.313648 0.386537 0.030000
0.341003 0.386537 0.030000
0.368176 0.386537 0.030000
0.395186 0.386537 0.030000
0.422049 0.386537 0.030000
0.448777 0.386537 0.030000
0.475383 0.386537 0.030000
0.501874 0.386537 0.030000
0.528260 0.386537 0.030000
0.554547 0.386537 0.030000
0.580742 0.386537 0.030000
0.606849 0.386537 0.030000
0.632873 0.386537 0.030000
0.658820 0.386537 0.030000
0.684693 0.386537 0.030000
0.710495 0.386537 0.030000
0.736230 0.386537 0.030000
0.761901 0.386537 0.030000
0.787510 0.386537 0.030000
0.813060 0.386537 0.030000
0.838553 0.386537 0.030000
0.863992 0.386537 0.030000
0.889378 0.386537 0.030000
0.914714 0.386537 0.030000
0.940000 0.386537 0.030000
0.080000 0.413999 0.030000
0.113087 0.413999 0.030000
0.143478 0.413999 0.030000
0.172929 0.413999 0.030000
0.201785 0.413999 0.030000
0.230207 0.413999 0.030000
0.258287 0.413999 0.030000
0.286087 0.413999 0.030000
0.313648 0.413999 0.030000
0.341003 0.413999 0.030000
0.368176 0.413999 0.030000
0.395186 0.413999 0.030000
0.422049 0.413999 0.030000
0.448777 0.413999 0.030000
0.475383 0.413999 0.030000
0.501874 0.413999 0.030000
0.528260 0.413999 0.030000
0.554547 0.413999 0.030000
0.580742 0.413999 0.030000
0.606849 0.413999 0.030000
0.632873 0.413999 0.030000
0.658820 0.413999 0.030000
0.684693 0.413999 0.030000
0.710495 0.413999 0.030000
0.736230 0.413999 0.030000
0.761901 0.413999 0.030000
0.787510 0.413999 0.030000
0.813060 0.413999 0.030000
0.838553 0.413999 0.030000
0.863992 0.413999 0.030000
0.889378 0.413999 0.030000
0.914714 0.413999 0.030000
0.940000 0.413999 0.030000
0.080000 0.441418 0.030000
0.113087 0.441418 0.030000
0.143478 0.441418 0.030000
0.172929 0.441418 0.030000
0.201785 0.441418 0.030000
0.230207 0.441418 0.030000
0.258287 0.441418 0.030000
0.286087 0.441418 0.030000
0.313648 0.441418 0.030000
0.341003 0.441418 0.030000
0.368176 0.441418 0.030000
0.395186 0.441418 0.030000
0.422049 0.441418 0.030000
0.448777 0.441418 0.030000
0.475383 0.441418 0.030000
0.501874 0.441418 0.030000
0.528260 0.441418 0.030000
0.554547 0.441418 0.030000
0.580742 0.441418 0.030000
0.606849 0.441418 0.030000
0.632873 0.441418 0.030000
0.658820 0.441418 0.030000
0.684693 0.441418 0.030000
0.710495 0.441418 0.030000
0.736230 0.441418 0.030000
0.761901 0.441418 0.030000
0.787510 0.441418 0.030000
0.813060 0.441418 0.030000
0.838553 0.441418 0.030000
0.863992 0.441418 0.030000
0.889378 0.441418 0.030000
0.914714 0.441418 0.030000
0.940000 0.441418 0.030000
0.080000 0.468799 0.030000
0.113087 0.468799 0.030000
0.143478 0.468799 0.030000
0.172929 0.468799 0.030000
0.201785 0.468799 0.030000
0.230207 0.468799 0.030000
0.258287 0.468799 0.030000
0.286087 0.468799 0.030000
0.313648 0.468799 0.030000
0.341003 0.468799 0.030000
0.368176 0.468799 0.030000
0.395186 0.468799 0.030000
0.422049 0.468799 0.030000
0.448777 0.468799 0.030000
0.475383 0.468799 0.030000
0.501874 0.468799 0.030000
0.528260 0.468799 0.030000
0.554547 0.468799 0.030000
0.580742 0.468799 0.030000
0.606849 0.468799 0.030000
0.632873 0.468799 0.030000
0.658820 0.468799 0.030000
0.684693 0.468799 0.030000
0.710495 0.468799 0.030000
0.736230 0.468799 0.030000
0.761901 0.468799 0.030000
0.787510 0.468799 0.030000
0.813060 0.468799 0.030000
0.838553 0.468799 0.030000
0.863992 0.468799 0.030000
0.889378 0.468799 0.030000
0.914714 0.468799 0.030000
0.940000 0.468799 0.030000
0.080000 0.496142 0.030000
0.113087 0.496142 0.030000
0.143478 0.496142 0.030000
0.172929 0.496142 0.030000
0.201785 0.496142 0.030000
0.230207 0.496142 0.030000
0.258287 0.496142 0.030000
0.286087 0.496142 0.030000
0.313648 0.496142 0.030000
0.341003 0.496142 0.030000
0.368176 0.496142 0.030000
0.395186 0.496142 0.030000
0.422049 0.496142 0.030000
0.448777 0.496142 0.030000
0.475383 0.496142 0.030000
0.501874 0.496142 0.030000
0.528260 0.496142 0.030000
0.554547 0.496142 0.030000
0.580742 0.496142 0.030000
0.606849 0.496142 0.030000
0.632873 0.496142 0.030000
0.658820 0.496142 0.030000
0.684693 0.496142 0.030000
0.710495 0.496142 0.030000
0.736230 0.496142 0.030000
0.761901 0.496142 0.030000
0.787510 0.496142 0.030000
0.813060 0.496142 0.030000
0.838553 0.496142 0.030000
0.863992 0.496142 0.030000
0.889378 0.496142 0.030000
0.914714 0.496142 0.030000
0.940000 0.496142 0.030000
0.080000 0.523452 0.030000
0.113087 0.523452 0.030000
0.143478 0.523452 0.030000
0.172929 0.523452 0.030000
0.201785 0.523452 0.030000
0.230207 0.523452 0.030000
0.258287 0.523452 0.030000
0.286087 0.523452 0.030000
0.313648 0.523452 0.030000
0.341003 0.523452 0.030000
0.368176 0.523452 0.030000
0.395186 0.523452 0.030000
0.422049 0.523452 0.030000
0.448777 0.523452 0.030000
0.475383 0.523452 0.030000
0.501874 0.523452 0.030000
0.528260 0.523452 0.030000
0.554547 0.523452 0.030000
0.580742 0.523452 0.030000
0.606849 0.523452 0.030000
0.632873 0.523452 0.030000
0.658820 0.523452 0.030000
0.684693 0.523452 0.030000
0.710495 0.523452 0.030000
0.736230 0.523452 0.030000
0.761901 0.523452 0.030000
0.787510 0.523452 0.030000
0.813060 0.523452 0.030000
0.838553 0.523452 0.030000
0.863992 0.523452 0.030000
0.889378 0.523452 0.030000
0.914714 0.523452 0.030000
0.940000 0.523452 0.030000
0.080000 0.550729 0.030000
0.113087 0.550729 0.030000
0.143478 0.550729 0.030000
0.172929 0.550729 0.030000
0.201785 0.550729 0.030000
0.230207 0.550729 0.030000
0.258287 0.550729 0.030000
0.286087 0.550729 0.030000
0.313648 0.550729 0.030000
0.341003 0.550729 0.030000
0.368176 0.550729 0.030000
0.395186 0.550729 0.030000
0.422049 0.550729 0.030000
0.448777 0.550729 0.030000
0.475383 0.550729 0.030000
0.501874 0.550729 0.030000
0.528260 0.550729 0.030000
0.554547 0.550729 0.030000
0.580742 0.550729 0.030000
0.606849 0.550729 0.030000
0.632873 0.550729 0.030000
0.658820 0.550729 0.030000
0.684693 0.550729 0.030000
0.710495 0.550729 0.030000
0.736230 0.550729 0.030000
0.761901 0.550729 0.030000
0.787510 0.550729 0.030000
0.813060 0.550729 0.030000
0.838553 0.550729 0.030000
0.863992 0.550729 0.030000
0.889378 0.550729 0.030000
0.914714 0.550729 0.030000
0.940000 0.550729 0.030000
0.080000 0.577976 0.030000
0.113087 0.577976 0.030000
0.143478 0.577976 0.030000
0.172929 0.577976 0.030000
0.201785 0.577976 0.030000
0.230207 0.577976 0.030000
0.258287 0.577976 0.030000
0.286087 0.577976 0.030000
0.313648 0.577976 0.030000
0.341003 0.577976 0.030000
0.368176 0.577976 0.030000
0.395186 0.577976 0.030000
0.422049 0.577976 0.030000
0.448777 0.577976 0.030000
0.475383 0.577976 0.030000
0.501874 0.577976 0.030000
0.528260 0.577976 0.030000
0.554547 0.577976 0.030000
0.580742 0.577976 0.030000
0.606849 0.577976 0.030000
0.632873 0.577976 0.030000
0.658820 0.577976 0.030000
0.684693 0.577976 0.030000
0.710495 0.577976 0.030000
0.736230 0.577976 0.030000
0.761901 0.577976 0.030000
0.787510 0.577976 0.030000
0.813060 0.577976 0.030000
0.838553 0.577976 0.030000
0.863992 0.577976 0.030000
0.889378 0.577976 0.030000
0.914714 0.577976 0.030000
0.940000 0.577976 0.030000
0.080000 0.605194 0.030000
0.113087 0.605194 0.030000
0.143478 0.605194 0.030000
0.172929 0.605194 0.030000
0.201785 0.605194 0.030000
0.230207 0.605194 0.030000
0.258287 0.605194 0.030000
0.286087 0.605194 0.030000
0.313648 0.605194 0.030000
0.341003 0.605194 0.030000
0.368176 0.605194 0.030000
0.395186 0.605194 0.030000
0.422049 0.605194 0.030000
0.448777 0.605194 0.030000
0.475383 0.605194 0.030000
0.501874 0.605194 0.030000
0.528260 0.605194 0.030000
0.554547 0.605194 0.030000
0.580742 0.605194 0.030000
0.606849 0.605194 0.030000
0.632873 0.605194 0.030000
0.658820 0.605194 0.030000
0.684693 0.605194 0.030000
0.710495 0.605194 0.030000
0.736230 0.605194 0.030000
0.761901 0.605194 0.030000
0.787510 0.605194 0.030000
0.813060 0.605194 0.030000
0.838553 0.605194 0.030000
0.863992 0.605194 0.030000
0.889378 0.605194 0.030000
0.914714 0.605194 0.030000
0.940000 0.605194 0.030000
0.080000 0.632386 0.030000
0.113087 0.632386 0.030000
0.143478 0.632386 0.030000
0.172929 0.632386 0.030000
0.201785 0.632386 0.030000
0.230207 0.632386 0.030000
0.258287 0.632386 0.030000
0.286087 0.632386 0.030000
0.313648 0.632386 0.030000
0.341003 0.632386 0.030000
0.368176 0.632386 0.030000
0.395186 0.632386 0.030000
0.422049 0.632386 0.030000
0.448777 0.632386 0.030000
0.475383 0.632386 0.030000
0.501874 0.632386 0.030000
0.528260 0.632386 0.030000
0.554547 0.632386 0.030000
0.580742 0.632386 0.030000
0.606849 0.632386 0.030000
0.632873 0.632386 0.030000
0.658820 0.632386 0.030000
0.684693 0.632386 0.030000
0.710495 0.632386 0.030000
0.736230 0.632386 0.030000
0.761901 0.632386 0.030000
0.787510 0.632386 0.030000
0.813060 0.632386 0.030000
0.838553 0.632386 0.030000
0.863992 0.632386 0.030000
0.889378 0.632386 0.030000
0.914714 0.632386 0.030000
0.940000 0.632386 0.030000
0.080000 0.659551 0.030000
0.113087 0.659551 0.030000
0.143478 0.659551 0.030000
0.172929 0.659551 0.030000
0.201785 0.659551 0.030000
0.230207 0.659551 0.030000
0.258287 0.659551 0.030000
0.286087 0.659551 0.030000
0.313648 0.659551 0.030000
0.341003 0.659551 0.030000
0.368176 0.659551 0.030000
0.395186 0.659551 0.030000
0.422049 0.659551 0.030000
0.448777 0.659551 0.030000
0.475383 0.659551 0.030000
0.501874 0.659551 0.030000
0.528260 0.659551 0.030000
0.554547 0.659551 0.030000
0.580742 0.659551 0.030000
0.606849 0.659551 0.030000
0.632873 0.659551 0.030000
0.658820 0.659551 0.030000
0.684693 0.659551 0.030000
0.710495 0.659551 0.030000
0.736230 0.659551 0.030000
0.761901 0.659551 0.030000
0.787510 0.659551 0.030000
0.813060 0.659551 0.030000
0.838553 0.659551 0.030000
0.863992 0.659551 0.030000
0.889378 0.659551 0.030000
0.914714 0.659551 0.030000
0.940000 0.659551 0.030000
0.080000 0.686691 0.030000
0.113087 0.686691 0.030000
0.143478 0.686691 0.030000
0.172929 0.686691 0.030000
0.201785 0.686691 0.030000
0.230207 0.686691 0.030000
0.258287 0.686691 0.030000
0.286087 0.686691 0.030000
0.313648 0.686691 0.030000
0.341003 0.686691 0.030000
0.368176 0.686691 0.030000
0.395186 0.686691 0.030000
0.422049 0.686691 0.030000
0.448777 0.686691 0.030000
0.475383 0.686691 0.030000
0.501874 0.686691 0.030000
0.528260 0.686691 0.030000
0.554547 0.686691 0.030000
0.580742 0.686691 0.030000
0.606849 0.686691 0.030000
0.632873 0.686691 0.030000
0.658820 0.686691 0.030000
0.684693 0.686691 0.030000
0.710495 0.686691 0.030000
0.736230 0.686691 0.030000
0.761901 0.686691 0.030000
0.787510 0.686691 0.030000
0.813060 0.686691 0.030000
0.838553 0.686691 0.030000
0.863992 0.686691 0.030000
0.889378 0.686691 0.030000
0.914714 0.686691 0.030000
0.940000 0.686691 0.030000
0.080000 0.713808 0.030000
0.113087 0.713808 0.030000
0.143478 0.713808 0.030000
0.172929 0.713808 0.030000
0.201785 0.713808 0.030000
0.230207 0.713808 0.030000
0.258287 0.713808 0.030000
0.286087 0.713808 0.030000
0.313648 0.713808 0.030000
0.341003 0.713808 0.030000
0.368176 0.713808 0.030000
0.395186 0.713808 0.030000
0.422049 0.713808 0.030000
0.448777 0.713808 0.030000
0.475383 0.713808 0.030000
0.501874 0.713808 0.030000
0.528260 0.713808 0.030000
0.554547 0.713808 0.030000
0.580742 0.713808 0.030000
0.606849 0.713808 0.030000
0.632873 0.713808 0.030000
0.658820 0.713808 0.030000
0.684693 0.713808 0.030000
0.710495 0.713808 0.030000
0.736230 0.713808 0.030000
0.761901 0.713808 0.030000
0.787510 0.713808 0.030000
0.813060 0.713808 0.030000
0.838553 0.713808 0.030000
0.863992 0.713808 0.030000
0.889378 0.713808 0.030000
0.914714 0.713808 0.030000
0.940000 0.713808 0.030000
0.080000 0.740903 0.030000
0.113087 0.740903 0.030000
0.143478 0.740903 0.030000
0.172929 0.740903 0.030000
0.201785 0.740903 0.030000
0.230207 0.740903 0.030000
0.258287 0.740903 0.030000
0.286087 0.740903 0.030000
0.313648 0.740903 0.030000
0.341003 0.740903 0.030000
0.368176 0.740903 0.030000
0.395186 0.740903 0.030000
0.422049 0.740903 0.030000
0.448777 0.740903 0.030000
0.475383 0.740903 0.030000
0.501874 0.740903 0.030000
0.528260 0.740903 0.030000
0.554547 0.740903 0.030000
0.580742 0.740903 0.030000
0.606849 0.740903 0.030000
0.632873 0.740903 0.030000
0.658820 0.740903 0.030000
0.684693 0.740903 0.030000
0.710495 0.740903 0.030000
0.736230 0.740903 0.030000
0.761901 0.740903 0.030000
0.787510 0.740903 0.030000
0.813060 0.740903 0.030000
0.838553 0.740903 0.030000
0.863992 0.740903 0.030000
0.889378 0.740903 0.030000
0.914714 0.740903 0.030000
0.940000 0.740903 0.030000
0.080000 0.767975 0.030000
0.113087 0.767975 0.030000
0.143478 0.767975 0.030000
0.172929 0.767975 0.030000
0.201785 0.767975 0.030000
0.230207 0.767975 0.030000
0.258287 0.767975 0.030000
0.286087 0.767975 0.030000
0.313648 0.767975 0.030000
0.341003 0.767975 0.030000
0.368176 0.767975 0.030000
0.395186 0.767975 0.030000
0.422049 0.767975 0.030000
0.448777 0.767975 0.030000
0.475383 0.767975 0.030000
0.501874 0.767975 0.030000
0.528260 0.767975 0.030000
0.554547 0.767975 0.030000
0.580742 0.767975 0.030000
0.606849 0.767975 0.030000
0.632873 0.767975 0.030000
0.658820 0.767975 0.030000
0.684693 0.767975 0.030000
0.710495 0.767975 0.030000
0.736230 0.767975 0.030000
0.761901 0.767975 0.030000
0.787510 0.767975 0.030000
