app/src/main/assets/luts/faded_warm.cube
TITLE "Faded Warm"
LUT_3D_SIZE 9
DOMAIN_MIN 0.0 0.0 0.0
DOMAIN_MAX 1.0 1.0 1.0
0.080000 0.050000 0.030000
0.201785 0.050000 0.030000
0.313648 0.050000 0.030000
0.422049 0.050000 0.030000
0.528260 0.050000 0.030000
0.632873 0.050000 0.030000
0.736230 0.050000 0.030000
0.838553 0.050000 0.030000
0.940000 0.050000 0.030000
0.080000 0.164671 0.030000
0.201785 0.164671 0.030000
0.313648 0.164671 0.030000
0.422049 0.164671 0.030000
0.528260 0.164671 0.030000
0.632873 0.164671 0.030000
0.736230 0.164671 0.030000
0.838553 0.164671 0.030000
0.940000 0.164671 0.030000
0.080000 0.276185 0.030000
0.201785 0.276185 0.030000
0.313648 0.276185 0.030000
0.422049 0.276185 0.030000
0.528260 0.276185 0.030000
0.632873 0.276185 0.030000
0.736230 0.276185 0.030000
0.838553 0.276185 0.030000
0.940000 0.276185 0.030000
0.080000 0.386537 0.030000
0.201785 0.386537 0.030000
0.313648 0.386537 0.030000
0.422049 0.386537 0.030000
0.528260 0.386537 0.030000
0.632873 0.386537 0.030000
0.736230 0.386537 0.030000
0.838553 0.386537 0.030000
0.940000 0.386537 0.030000
0.080000 0.496142 0.030000
0.201785 0.496142 0.030000
0.313648 0.496142 0.030000
0.422049 0.496142 0.030000
0.528260 0.496142 0.030000
0.632873 0.496142 0.030000
0.736230 0.496142 0.030000
0.838553 0.496142 0.030000
0.940000 0.496142 0.030000
0.080000 0.605194 0.030000
0.201785 0.605194 0.030000
0.313648 0.605194 0.030000
0.422049 0.605194 0.030000
0.528260 0.605194 0.030000
0.632873 0.605194 0.030000
0.736230 0.605194 0.030000
0.838553 0.605194 0.030000
0.940000 0.605194 0.030000
0.080000 0.713808 0.030000
0.201785 0.713808 0.030000
0.313648 0.713808 0.030000
0.422049 0.713808 0.030000
0.528260 0.713808 0.030000
0.632873 0.713808 0.030000
0.736230 0.713808 0.030000
0.838553 0.713808 0.030000
0.940000 0.713808 0.030000
0.080000 0.822059 0.030000
0.201785 0.822059 0.030000
0.313648 0.822059 0.030000
0.422049 0.822059 0.030000
0.528260 0.822059 0.030000
0.632873 0.822059 0.030000
0.736230 0.822059 0.030000
0.838553 0.822059 0.030000
0.940000 0.822059 0.030000
0.080000 0.930000 0.030000
0.201785 0.930000 0.030000
0.313648 0.930000 0.030000
0.422049 0.930000 0.030000
0.528260 0.930000 0.030000
0.632873 0.930000 0.030000
0.736230 0.930000 0.030000
0.838553 0.930000 0.030000
0.940000 0.930000 0.030000
0.080000 0.050000 0.125758
0.201785 0.050000 0.125758
0.313648 0.050000 0.125758
0.422049 0.050000 0.125758
0.528260 0.050000 0.125758
0.632873 0.050000 0.125758
0.736230 0.050000 0.125758
0.838553 0.050000 0.125758
0.940000 0.050000 0.125758
0.080000 0.164671 0.125758
0.201785 0.164671 0.125758
0.313648 0.164671 0.125758
0.422049 0.164671 0.125758
0.528260 0.164671 0.125758
0.632873 0.164671 0.125758
0.736230 0.164671 0.125758
0.838553 0.164671 0.125758
0.940000 0.164671 0.125758
0.080000 0.276185 0.125758
0.201785 0.276185 0.125758
0.313648 0.276185 0.125758
0.422049 0.276185 0.125758
0.528260 0.276185 0.125758
0.632873 0.276185 0.125758
0.736230 0.276185 0.125758
0.838553 0.276185 0.125758
0.940000 0.276185 0.125758
0.080000 0.386537 0.125758
0.201785 0.386537 0.125758
0.313648 0.386537 0.125758
0.422049 0.386537 0.125758
0.528260 0.386537 0.125758
0.632873 0.386537 0.125758
0.736230 0.386537 0.125758
0.838553 0.386537 0.125758
0.940000 0.386537 0.125758
0.080000 0.496142 0.125758
0.201785 0.496142 0.125758
0.313648 0.496142 0.125758
0.422049 0.496142 0.125758
0.528260 0.496142 0.125758
0.632873 0.496142 0.125758
0.736230 0.496142 0.125758
0.838553 0.496142 0.125758
0.940000 0.496142 0.125758
0.080000 0.605194 0.125758
0.201785 0.605194 0.125758
0.313648 0.605194 0.125758
0.422049 0.605194 0.125758
0.528260 0.605194 0.125758
0.632873 0.605194 0.125758
0.736230 0.605194 0.125758
0.838553 0.605194 0.125758
0.940000 0.605194 0.125758
0.080000 0.713808 0.125758
0.201785 0.713808 0.125758
0.313648 0.713808 0.125758
0.422049 0.713808 0.125758
0.528260 0.713808 0.125758
0.632873 0.713808 0.125758
0.736230 0.713808 0.125758
0.838553 0.713808 0.125758
0.940000 0.713808 0.125758
0.080000 0.822059 0.125758
0.201785 0.822059 0.125758
0.313648 0.822059 0.125758
0.422049 0.822059 0.125758
0.528260 0.822059 0.125758
0.632873 0.822059 0.125758
0.736230 0.822059 0.125758
0.838553 0.822059 0.125758
0.940000 0.822059 0.125758
0.080000 0.930000 0.125758
0.201785 0.930000 0.125758
0.313648 0.930000 0.125758
0.422049 0.930000 0.125758
0.528260 0.930000 0.125758
0.632873 0.930000 0.125758
0.736230 0.930000 0.125758
0.838553 0.930000 0.125758
0.940000 0.930000 0.125758
0.080000 0.050000 0.228270
0.201785 0.050000 0.228270
0.313648 0.050000 0.228270
0.422049 0.050000 0.228270
0.528260 0.050000 0.228270
0.632873 0.050000 0.228270
0.736230 0.050000 0.228270
0.838553 0.050000 0.228270
0.940000 0.050000 0.228270
0.080000 0.164671 0.228270
0.201785 0.164671 0.228270
0.313648 0.164671 0.228270
0.422049 0.164671 0.228270
0.528260 0.164671 0.228270
0.632873 0.164671 0.228270
0.736230 0.164671 0.228270
0.838553 0.164671 0.228270
0.940000 0.164671 0.228270
0.080000 0.276185 0.228270
0.201785 0.276185 0.228270
0.313648 0.276185 0.228270
0.422049 0.276185 0.228270
0.528260 0.276185 0.228270
0.632873 0.276185 0.228270
0.736230 0.276185 0.228270
0.838553 0.276185 0.228270
0.940000 0.276185 0.228270
0.080000 0.386537 0.228270
0.201785 0.386537 0.228270
0.313648 0.386537 0.228270
0.422049 0.386537 0.228270
0.528260 0.386537 0.228270
0.632873 0.386537 0.228270
0.736230 0.386537 0.228270
0.838553 0.386537 0.228270
0.940000 0.386537 0.228270
0.080000 0.496142 0.228270
0.201785 0.496142 0.228270
0.313648 0.496142 0.228270
0.422049 0.496142 0.228270
0.528260 0.496142 0.228270
0.632873 0.496142 0.228270
0.736230 0.496142 0.228270
0.838553 0.496142 0.228270
0.940000 0.496142 0.228270
0.080000 0.605194 0.228270
0.201785 0.605194 0.228270
0.313648 0.605194 0.228270
0.422049 0.605194 0.228270
0.528260 0.605194 0.228270
0.632873 0.605194 0.228270
0.736230 0.605194 0.228270
0.838553 0.605194 0.228270
0.940000 0.605194 0.228270
0.080000 0.713808 0.228270
0.201785 0.713808 0.228270
0.313648 0.713808 0.228270
0.422049 0.713808 0.228270
0.528260 0.713808 0.228270
0.632873 0.713808 0.228270
0.736230 0.713808 0.228270
0.838553 0.713808 0.228270
0.940000 0.713808 0.228270
0.080000 0.822059 0.228270
0.201785 0.822059 0.228270
0.313648 0.822059 0.228270
0.422049 0.822059 0.228270
0.528260 0.822059 0.228270
0.632873 0.822059 0.228270
0.736230 0.822059 0.228270
0.838553 0.822059 0.228270
0.940000 0.822059 0.228270
0.080000 0.930000 0.228270
0.201785 0.930000 0.228270
0.313648 0.930000 0.228270
0.422049 0.930000 0.228270
0.528260 0.930000 0.228270
0.632873 0.930000 0.228270
0.736230 0.930000 0.228270
0.838553 0.930000 0.228270
0.940000 0.930000 0.228270
0.080000 0.050000 0.333495
0.201785 0.050000 0.333495
0.313648 0.050000 0.333495
0.422049 0.050000 0.333495
0.528260 0.050000 0.333495
0.632873 0.050000 0.333495
0.736230 0.050000 0.333495
0.838553 0.050000 0.333495
0.940000 0.050000 0.333495
0.080000 0.164671 0.333495
0.201785 0.164671 0.333495
0.313648 0.164671 0.333495
0.422049 0.164671 0.333495
0.528260 0.164671 0.333495
0.632873 0.164671 0.333495
0.736230 0.164671 0.333495
0.838553 0.164671 0.333495
0.940000 0.164671 0.333495
0.080000 0.276185 0.333495
0.201785 0.276185 0.333495
0.313648 0.276185 0.333495
0.422049 0.276185 0.333495
0.528260 0.276185 0.333495
0.632873 0.276185 0.333495
0.736230 0.276185 0.333495
0.838553 0.276185 0.333495
0.940000 0.276185 0.333495
0.080000 0.386537 0.333495
0.201785 0.386537 0.333495
0.313648 0.386537 0.333495
0.422049 0.386537 0.333495
0.528260 0.386537 0.333495
0.632873 0.386537 0.333495
0.736230 0.386537 0.333495
0.838553 0.386537 0.333495
0.940000 0.386537 0.333495
0.080000 0.496142 0.333495
0.201785 0.496142 0.333495
0.313648 0.496142 0.333495
0.422049 0.496142 0.333495
0.528260 0.496142 0.333495
0.632873 0.496142 0.333495
0.736230 0.496142 0.333495
0.838553 0.496142 0.333495
0.940000 0.496142 0.333495
0.080000 0.605194 0.333495
0.201785 0.605194 0.333495
0.313648 0.605194 0.333495
0.422049 0.605194 0.333495
0.528260 0.605194 0.333495
0.632873 0.605194 0.333495
0.736230 0.605194 0.333495
0.838553 0.605194 0.333495
0.940000 0.605194 0.333495
0.080000 0.713808 0.333495
0.201785 0.713808 0.333495
0.313648 0.713808 0.333495
0.422049 0.713808 0.333495
0.528260 0.713808 0.333495
0.632873 0.713808 0.333495
0.736230 0.713808 0.333495
0.838553 0.713808 0.333495
0.940000 0.713808 0.333495
0.080000 0.822059 0.333495
0.201785 0.822059 0.333495
0.313648 0.822059 0.333495
0.422049 0.822059 0.333495
0.528260 0.822059 0.333495
0.632873 0.822059 0.333495
0.736230 0.822059 0.333495
0.838553 0.822059 0.333495
0.940000 0.822059 0.333495
0.080000 0.930000 0.333495
0.201785 0.930000 0.333495
0.313648 0.930000 0.333495
0.422049 0.930000 0.333495
0.528260 0.930000 0.333495
0.632873 0.930000 0.333495
0.736230 0.930000 0.333495
0.838553 0.930000 0.333495
0.940000 0.930000 0.333495
0.080000 0.050000 0.440523
0.201785 0.050000 0.440523
0.313648 0.050000 0.440523
0.422049 0.050000 0.440523
0.528260 0.050000 0.440523
0.632873 0.050000 0.440523
0.736230 0.050000 0.440523
0.838553 0.050000 0.440523
0.940000 0.050000 0.440523
0.080000 0.164671 0.440523
0.201785 0.164671 0.440523
0.313648 0.164671 0.440523
0.422049 0.164671 0.440523
0.528260 0.164671 0.440523
0.632873 0.164671 0.440523
0.736230 0.164671 0.440523
0.838553 0.164671 0.440523
0.940000 0.164671 0.440523
0.080000 0.276185 0.440523
0.201785 0.276185 0.440523
0.313648 0.276185 0.440523
0.422049 0.276185 0.440523
0.528260 0.276185 0.440523
0.632873 0.276185 0.440523
0.736230 0.276185 0.440523
0.838553 0.276185 0.440523
0.940000 0.276185 0.440523
0.080000 0.386537 0.440523
0.201785 0.386537 0.440523
0.313648 0.386537 0.440523
0.422049 0.386537 0.440523
0.528260 0.386537 0.440523
0.632873 0.386537 0.440523
0.736230 0.386537 0.440523
0.838553 0.386537 0.440523
0.940000 0.386537 0.440523
0.080000 0.496142 0.440523
0.201785 0.496142 0.440523
0.313648 0.496142 0.440523
0.422049 0.496142 0.440523
0.528260 0.496142 0.440523
0.632873 0.496142 0.440523
0.736230 0.496142 0.440523
0.838553 0.496142 0.440523
0.940000 0.496142 0.440523
0.080000 0.605194 0.440523
0.201785 0.605194 0.440523
0.313648 0.605194 0.440523
0.422049 0.605194 0.440523
0.528260 0.605194 0.440523
0.632873 0.605194 0.440523
0.736230 0.605194 0.440523
0.838553 0.605194 0.440523
0.940000 0.605194 0.440523
0.080000 0.713808 0.440523
0.201785 0.713808 0.440523
0.313648 0.713808 0.440523
0.422049 0.713808 0.440523
0.528260 0.713808 0.440523
0.632873 0.713808 0.440523
0.736230 0.713808 0.440523
0.838553 0.713808 0.440523
0.940000 0.713808 0.440523
0.080000 0.822059 0.440523
0.201785 0.822059 0.440523
0.313648 0.822059 0.440523
0.422049 0.822059 0.440523
0.528260 0.822059 0.440523
0.632873 0.822059 0.440523
0.736230 0.822059 0.440523
0.838553 0.822059 0.440523
0.940000 0.822059 0.440523
0.080000 0.930000 0.440523
0.201785 0.930000 0.440523
0.313648 0.930000 0.440523
0.422049 0.930000 0.440523
0.528260 0.930000 0.440523
0.632873 0.930000 0.440523
0.736230 0.930000 0.440523
0.838553 0.930000 0.440523
0.940000 0.930000 0.440523
0.080000 0.050000 0.548911
0.201785 0.050000 0.548911
0.313648 0.050000 0.548911
0.422049 0.050000 0.548911
0.528260 0.050000 0.548911
0.632873 0.050000 0.548911
0.736230 0.050000 0.548911
0.838553 0.050000 0.548911
0.940000 0.050000 0.548911
0.080000 0.164671 0.548911
0.201785 0.164671 0.548911
0.313648 0.164671 0.548911
0.422049 0.164671 0.548911
0.528260 0.164671 0.548911
0.632873 0.164671 0.548911
0.736230 0.164671 0.548911
0.838553 0.164671 0.548911
0.940000 0.164671 0.548911
0.080000 0.276185 0.548911
0.201785 0.276185 0.548911
0.313648 0.276185 0.548911
0.422049 0.276185 0.548911
0.528260 0.276185 0.548911
0.632873 0.276185 0.548911
0.736230 0.276185 0.548911
0.838553 0.276185 0.548911
0.940000 0.276185 0.548911
0.080000 0.386537 0.548911
0.201785 0.386537 0.548911
0.313648 0.386537 0.548911
0.422049 0.386537 0.548911
0.528260 0.386537 0.548911
0.632873 0.386537 0.548911
0.736230 0.386537 0.548911
0.838553 0.386537 0.548911
0.940000 0.386537 0.548911
0.080000 0.496142 0.548911
0.201785 0.496142 0.548911
0.313648 0.496142 0.548911
0.422049 0.496142 0.548911
0.528260 0.496142 0.548911
0.632873 0.496142 0.548911
0.736230 0.496142 0.548911
0.838553 0.496142 0.548911
0.940000 0.496142 0.548911
0.080000 0.605194 0.548911
0.201785 0.605194 0.548911
0.313648 0.605194 0.548911
0.422049 0.605194 0.548911
0.528260 0.605194 0.548911
0.632873 0.605194 0.548911
0.736230 0.605194 0.548911
0.838553 0.605194 0.548911
0.940000 0.605194 0.548911
0.080000 0.713808 0.548911
0.201785 0.713808 0.548911
0.313648 0.713808 0.548911
0.422049 0.713808 0.548911
0.528260 0.713808 0.548911
0.632873 0.713808 0.548911
0.736230 0.713808 0.548911
0.838553 0.713808 0.548911
0.940000 0.713808 0.548911
0.080000 0.822059 0.548911
0.201785 0.822059 0.548911
0.313648 0.822059 0.548911
0.422049 0.822059 0.548911
0.528260 0.822059 0.548911
0.632873 0.822059 0.548911
0.736230 0.822059 0.548911
0.838553 0.822059 0.548911
0.940000 0.822059 0.548911
0.080000 0.930000 0.548911
0.201785 0.930000 0.548911
0.313648 0.930000 0.548911
0.422049 0.930000 0.548911
0.528260 0.930000 0.548911
0.632873 0.930000 0.548911
0.736230 0.930000 0.548911
0.838553 0.930000 0.548911
0.940000 0.930000 0.548911
0.080000 0.050000 0.658396
0.201785 0.050000 0.658396
0.313648 0.050000 0.658396
0.422049 0.050000 0.658396
0.528260 0.050000 0.658396
0.632873 0.050000 0.658396
0.736230 0.050000 0.658396
0.838553 0.050000 0.658396
0.940000 0.050000 0.658396
0.080000 0.164671 0.658396
0.201785 0.164671 0.658396
0.313648 0.164671 0.658396
0.422049 0.164671 0.658396
0.528260 0.164671 0.658396
0.632873 0.164671 0.658396
0.736230 0.164671 0.658396
0.838553 0.164671 0.658396
0.940000 0.164671 0.658396
0.080000 0.276185 0.658396
0.201785 0.276185 0.658396
0.313648 0.276185 0.658396
0.422049 0.276185 0.658396
0.528260 0.276185 0.658396
0.632873 0.276185 0.658396
0.736230 0.276185 0.658396
0.838553 0.276185 0.658396
0.940000 0.276185 0.658396
0.080000 0.386537 0.658396
0.201785 0.386537 0.658396
0.313648 0.386537 0.658396
0.422049 0.386537 0.658396
0.528260 0.386537 0.658396
0.632873 0.386537 0.658396
0.736230 0.386537 0.658396
0.838553 0.386537 0.658396
0.940000 0.386537 0.658396
0.080000 0.496142 0.658396
0.201785 0.496142 0.658396
0.313648 0.496142 0.658396
0.422049 0.496142 0.658396
0.528260 0.496142 0.658396
0.632873 0.496142 0.658396
0.736230 0.496142 0.658396
0.838553 0.496142 0.658396
0.940000 0.496142 0.658396
0.080000 0.605194 0.658396
0.201785 0.605194 0.658396
0.313648 0.605194 0.658396
0.422049 0.605194 0.658396
0.528260 0.605194 0.658396
0.632873 0.605194 0.658396
0.736230 0.605194 0.658396
0.838553 0.605194 0.658396
0.940000 0.605194 0.658396
0.080000 0.713808 0.658396
0.201785 0.713808 0.658396
0.313648 0.713808 0.658396
0.422049 0.713808 0.658396
0.528260 0.713808 0.658396
0.632873 0.713808 0.658396
0.736230 0.713808 0.658396
0.838553 0.713808 0.658396
0.940000 0.713808 0.658396
0.080000 0.822059 0.658396
0.201785 0.822059 0.658396
0.313648 0.822059 0.658396
0.422049 0.822059 0.658396
0.528260 0.822059 0.658396
0.632873 0.822059 0.658396
0.736230 0.822059 0.658396
0.838553 0.822059 0.658396
0.940000 0.822059 0.658396
0.080000 0.930000 0.658396
0.201785 0.930000 0.658396
0.313648 0.930000 0.658396
0.422049 0.930000 0.658396
0.528260 0.930000 0.658396
0.632873 0.930000 0.658396
0.736230 0.930000 0.658396
0.838553 0.930000 0.658396
0.940000 0.930000 0.658396
0.080000 0.050000 0.768801
0.201785 0.050000 0.768801
0.313648 0.050000 0.768801
0.422049 0.050000 0.768801
0.528260 0.050000 0.768801
0.632873 0.050000 0.768801
0.736230 0.050000 0.768801
0.838553 0.050000 0.768801
0.940000 0.050000 0.768801
0.080000 0.164671 0.768801
0.201785 0.164671 0.768801
0.313648 0.164671 0.768801
0.422049 0.164671 0.768801
0.528260 0.164671 0.768801
0.632873 0.164671 0.768801
0.736230 0.164671 0.768801
0.838553 0.164671 0.768801
0.940000 0.164671 0.768801
0.080000 0.276185 0.768801
0.201785 0.276185 0.768801
0.313648 0.276185 0.768801
0.422049 0.276185 0.768801
0.528260 0.276185 0.768801
0.632873 0.276185 0.768801
0.736230 0.276185 0.768801
0.838553 0.276185 0.768801
0.940000 0.276185 0.768801
0.080000 0.386537 0.768801
0.201785 0.386537 0.768801
0.313648 0.386537 0.768801
0.422049 0.386537 0.768801
0.528260 0.386537 0.768801
0.632873 0.386537 0.768801
0.736230 0.386537 0.768801
0.838553 0.386537 0.768801
0.940000 0.386537 0.768801
0.080000 0.496142 0.768801
0.201785 0.496142 0.768801
0.313648 0.496142 0.768801
0.422049 0.496142 0.768801
0.528260 0.496142 0.768801
0.632873 0.496142 0.768801
0.736230 0.496142 0.768801
0.838553 0.496142 0.768801
0.940000 0.496142 0.768801
0.080000 0.605194 0.768801
0.201785 0.605194 0.768801
0.313648 0.605194 0.768801
0.422049 0.605194 0.768801
0.528260 0.605194 0.768801
0.632873 0.605194 0.768801
0.736230 0.605194 0.768801
0.838553 0.605194 0.768801
0.940000 0.605194 0.768801
0.080000 0.713808 0.768801
0.201785 0.713808 0.768801
0.313648 0.713808 0.768801
0.422049 0.713808 0.768801
0.528260 0.713808 0.768801
0.632873 0.713808 0.768801
0.736230 0.713808 0.768801
0.838553 0.713808 0.768801
0.940000 0.713808 0.768801
0.080000 0.822059 0.768801
0.201785 0.822059 0.768801
0.313648 0.822059 0.768801
0.422049 0.822059 0.768801
0.528260 0.822059 0.768801
0.632873 0.822059 0.768801
0.736230 0.822059 0.768801
0.838553 0.822059 0.768801
0.940000 0.822059 0.768801
0.080000 0.930000 0.768801
0.201785 0.930000 0.768801
0.313648 0.930000 0.768801
0.422049 0.930000 0.768801
0.528260 0.930000 0.768801
0.632873 0.930000 0.768801
0.736230 0.930000 0.768801
0.838553 0.930000 0.768801
0.940000 0.930000 0.768801
0.080000 0.050000 0.880000
0.201785 0.050000 0.880000
0.313648 0.050000 0.880000
0.422049 0.050000 0.880000
0.528260 0.050000 0.880000
0.632873 0.050000 0.880000
0.736230 0.050000 0.880000
0.838553 0.050000 0.880000
0.940000 0.050000 0.880000
0.080000 0.164671 0.880000
0.201785 0.164671 0.880000
0.313648 0.164671 0.880000
0.422049 0.164671 0.880000
0.528260 0.164671 0.880000
0.632873 0.164671 0.880000
0.736230 0.164671 0.880000
0.838553 0.164671 0.880000
0.940000 0.164671 0.880000
0.080000 0.276185 0.880000
0.201785 0.276185 0.880000
0.313648 0.276185 0.880000
0.422049 0.276185 0.880000
0.528260 0.276185 0.880000
0.632873 0.276185 0.880000
0.736230 0.276185 0.880000
0.838553 0.276185 0.880000
0.940000 0.276185 0.880000
0.080000 0.386537 0.880000
0.201785 0.386537 0.880000
0.313648 0.386537 0.880000
0.422049 0.386537 0.880000
0.528260 0.386537 0.880000
0.632873 0.386537 0.880000
0.736230 0.386537 0.880000
0.838553 0.386537 0.880000
0.940000 0.386537 0.880000
0.080000 0.496142 0.880000
0.201785 0.496142 0.880000
0.313648 0.496142 0.880000
0.422049 0.496142 0.880000
0.528260 0.496142 0.880000
0.632873 0.496142 0.880000
0.736230 0.496142 0.880000
0.838553 0.496142 0.880000
0.940000 0.496142 0.880000
0.080000 0.605194 0.880000
0.201785 0.605194 0.880000
0.313648 0.605194 0.880000
0.422049 0.605194 0.880000
0.528260 0.605194 0.880000
0.632873 0.605194 0.880000
0.736230 0.605194 0.880000
0.838553 0.605194 0.880000
0.940000 0.605194 0.880000
0.080000 0.713808 0.880000
0.201785 0.713808 0.880000
0.313648 0.713808 0.880000
0.422049 0.713808 0.880000
0.528260 0.713808 0.880000
0.632873 0.713808 0.880000
0.736230 0.713808 0.880000
0.838553 0.713808 0.880000
0.940000 0.713808 0.880000
0.080000 0.822059 0.880000
0.201785 0.822059 0.880000
0.313648 0.822059 0.880000
0.422049 0.822059 0.880000
0.528260 0.822059 0.880000
0.632873 0.822059 0.880000
0.736230 0.822059 0.880000
0.838553 0.822059 0.880000
0.940000 0.822059 0.880000
0.080000 0.930000 0.880000
0.201785 0.930000 0.880000
0.313648 0.930000 0.880000
0.422049 0.930000 0.880000
0.528260 0.930000 0.880000
0.632873 0.930000 0.880000
0.736230 0.930000 0.880000
0.838553 0.930000 0.880000
0.940000 0.930000 0.880000
