app/src/main/assets/luts/fade_cool.cube
# Generated 3D LUT
TITLE "Fade Cool"
LUT_3D_SIZE 8
DOMAIN_MIN 0.000000 0.000000 0.000000
DOMAIN_MAX 0.903226 0.903226 0.903226
0.068000 0.076500 0.119000
0.167013 0.082287 0.124787
0.266026 0.088074 0.130574
0.365039 0.093861 0.136361
0.464052 0.099648 0.142148
0.563065 0.105435 0.147935
0.662077 0.111223 0.153723
0.761090 0.117010 0.159510
0.079361 0.192055 0.130361
0.178374 0.197842 0.136148
0.277387 0.203629 0.141935
0.376400 0.209416 0.147723
0.475413 0.215203 0.153510
0.574426 0.220990 0.159297
0.673439 0.226777 0.165084
0.772452 0.232565 0.170871
0.090723 0.307610 0.141723
0.189735 0.313397 0.147510
0.288748 0.319184 0.153297
0.387761 0.324971 0.159084
0.486774 0.330758 0.164871
0.585787 0.336545 0.170658
0.684800 0.342332 0.176445
0.783813 0.348119 0.182232
0.102084 0.423165 0.153084
0.201097 0.428952 0.158871
0.300110 0.434739 0.164658
0.399123 0.440526 0.170445
0.498135 0.446313 0.176232
0.597148 0.452100 0.182019
0.696161 0.457887 0.187806
0.795174 0.463674 0.193594
0.113445 0.538719 0.164445
0.212458 0.544506 0.170232
0.311471 0.550294 0.176019
0.410484 0.556081 0.181806
0.509497 0.561868 0.187594
0.608510 0.567655 0.193381
0.707523 0.573442 0.199168
0.806535 0.579229 0.204955
0.124806 0.654274 0.175806
0.223819 0.660061 0.181594
0.322832 0.665848 0.187381
0.421845 0.671635 0.193168
0.520858 0.677423 0.198955
0.619871 0.683210 0.204742
0.718884 0.688997 0.210529
0.817897 0.694784 0.216316
0.136168 0.769829 0.187168
0.235181 0.775616 0.192955
0.334194 0.781403 0.198742
0.433206 0.787190 0.204529
0.532219 0.792977 0.210316
0.631232 0.798765 0.216103
0.730245 0.804552 0.221890
0.829258 0.810339 0.227677
0.147529 0.885384 0.198529
0.246542 0.891171 0.204316
0.345555 0.896958 0.210103
0.444568 0.902745 0.215890
0.543581 0.908532 0.221677
0.642594 0.914319 0.227465
0.741606 0.920106 0.233252
0.840619 0.925894 0.239039
0.070206 0.078706 0.236368
0.169219 0.084494 0.242155
0.268232 0.090281 0.247942
0.367245 0.096068 0.253729
0.466258 0.101855 0.259516
0.565271 0.107642 0.265303
0.664284 0.113429 0.271090
0.763297 0.119216 0.276877
0.081568 0.194261 0.247729
0.180581 0.200048 0.253516
0.279594 0.205835 0.259303
0.378606 0.211623 0.265090
0.477619 0.217410 0.270877
0.576632 0.223197 0.276665
0.675645 0.228984 0.282452
0.774658 0.234771 0.288239
0.092929 0.309816 0.259090
0.191942 0.315603 0.264877
0.290955 0.321390 0.270665
0.389968 0.327177 0.276452
0.488981 0.332965 0.282239
0.587994 0.338752 0.288026
0.687006 0.344539 0.293813
0.786019 0.350326 0.299600
0.104290 0.425371 0.270452
0.203303 0.431158 0.276239
0.302316 0.436945 0.282026
0.401329 0.442732 0.287813
0.500342 0.448519 0.293600
0.599355 0.454306 0.299387
0.698368 0.460094 0.305174
0.797381 0.465881 0.310961
0.115652 0.540926 0.281813
0.214665 0.546713 0.287600
0.313677 0.552500 0.293387
0.412690 0.558287 0.299174
0.511703 0.564074 0.304961
0.610716 0.569861 0.310748
0.709729 0.575648 0.316535
0.808742 0.581435 0.322323
0.127013 0.656481 0.293174
0.226026 0.662268 0.298961
0.325039 0.668055 0.304748
0.424052 0.673842 0.310535
0.523065 0.679629 0.316323
0.622077 0.685416 0.322110
0.721090 0.691203 0.327897
0.820103 0.696990 0.333684
0.138374 0.772035 0.304535
0.237387 0.777823 0.310323
0.336400 0.783610 0.316110
0.435413 0.789397 0.321897
0.534426 0.795184 0.327684
0.633439 0.800971 0.333471
0.732452 0.806758 0.339258
0.831465 0.812545 0.345045
0.149735 0.887590 0.315897
0.248748 0.893377 0.321684
0.347761 0.899165 0.327471
0.446774 0.904952 0.333258
0.545787 0.910739 0.339045
0.644800 0.916526 0.344832
0.743813 0.922313 0.350619
0.842826 0.928100 0.356406
0.072413 0.080913 0.353735
0.171426 0.086700 0.359523
0.270439 0.092487 0.365310
0.369452 0.098274 0.371097
0.468465 0.104061 0.376884
0.567477 0.109848 0.382671
0.666490 0.115635 0.388458
0.765503 0.121423 0.394245
0.083774 0.196468 0.365097
0.182787 0.202255 0.370884
0.281800 0.208042 0.376671
0.380813 0.213829 0.382458
0.479826 0.219616 0.388245
0.578839 0.225403 0.394032
0.677852 0.231190 0.399819
0.776865 0.236977 0.405606
0.095135 0.312023 0.376458
0.194148 0.317810 0.382245
0.293161 0.323597 0.388032
0.392174 0.329384 0.393819
0.491187 0.335171 0.399606
0.590200 0.340958 0.405394
0.689213 0.346745 0.411181
0.788226 0.352532 0.416968
0.106497 0.427577 0.387819
0.205510 0.433365 0.393606
0.304523 0.439152 0.399394
0.403535 0.444939 0.405181
0.502548 0.450726 0.410968
0.601561 0.456513 0.416755
0.700574 0.462300 0.422542
0.799587 0.468087 0.428329
0.117858 0.543132 0.399181
0.216871 0.548919 0.404968
0.315884 0.554706 0.410755
0.414897 0.560494 0.416542
0.513910 0.566281 0.422329
0.612923 0.572068 0.428116
0.711935 0.577855 0.433903
0.810948 0.583642 0.439690
0.129219 0.658687 0.410542
0.228232 0.664474 0.416329
0.327245 0.670261 0.422116
0.426258 0.676048 0.427903
0.525271 0.681835 0.433690
0.624284 0.687623 0.439477
0.723297 0.693410 0.445265
0.822310 0.699197 0.451052
0.140581 0.774242 0.421903
0.239594 0.780029 0.427690
0.338606 0.785816 0.433477
0.437619 0.791603 0.439265
0.536632 0.797390 0.445052
0.635645 0.803177 0.450839
0.734658 0.808965 0.456626
0.833671 0.814752 0.462413
0.151942 0.889797 0.433265
0.250955 0.895584 0.439052
0.349968 0.901371 0.444839
0.448981 0.907158 0.450626
0.547994 0.912945 0.456413
0.647006 0.918732 0.462200
0.746019 0.924519 0.467987
0.845032 0.930306 0.473774
0.074619 0.083119 0.471103
0.173632 0.088906 0.476890
0.272645 0.094694 0.482677
0.371658 0.100481 0.488465
0.470671 0.106268 0.494252
0.569684 0.112055 0.500039
0.668697 0.117842 0.505826
0.767710 0.123629 0.511613
0.085981 0.198674 0.482465
0.184994 0.204461 0.488252
0.284006 0.210248 0.494039
0.383019 0.216035 0.499826
0.482032 0.221823 0.505613
0.581045 0.227610 0.511400
0.680058 0.233397 0.517187
0.779071 0.239184 0.522974
0.097342 0.314229 0.493826
0.196355 0.320016 0.499613
0.295368 0.325803 0.505400
0.394381 0.331590 0.511187
0.493394 0.337377 0.516974
0.592406 0.343165 0.522761
0.691419 0.348952 0.528548
0.790432 0.354739 0.534335
0.108703 0.429784 0.505187
0.207716 0.435571 0.510974
0.306729 0.441358 0.516761
0.405742 0.447145 0.522548
0.504755 0.452932 0.528335
0.603768 0.458719 0.534123
0.702781 0.464506 0.539910
0.801794 0.470294 0.545697
0.120065 0.545339 0.516548
0.219077 0.551126 0.522335
0.318090 0.556913 0.528123
0.417103 0.562700 0.533910
0.516116 0.568487 0.539697
0.615129 0.574274 0.545484
0.714142 0.580061 0.551271
0.813155 0.585848 0.557058
0.131426 0.660894 0.527910
0.230439 0.666681 0.533697
0.329452 0.672468 0.539484
0.428465 0.678255 0.545271
0.527477 0.684042 0.551058
0.626490 0.689829 0.556845
0.725503 0.695616 0.562632
0.824516 0.701403 0.568419
0.142787 0.776448 0.539271
0.241800 0.782235 0.545058
0.340813 0.788023 0.550845
0.439826 0.793810 0.556632
0.538839 0.799597 0.562419
0.637852 0.805384 0.568206
0.736865 0.811171 0.573994
0.835877 0.816958 0.579781
0.154148 0.892003 0.550632
0.253161 0.897790 0.556419
0.352174 0.903577 0.562206
0.451187 0.909365 0.567994
0.550200 0.915152 0.573781
0.649213 0.920939 0.579568
0.748226 0.926726 0.585355
0.847239 0.932513 0.591142
0.076826 0.085326 0.588471
0.175839 0.091113 0.594258
0.274852 0.096900 0.600045
0.373865 0.102687 0.605832
0.472877 0.108474 0.611619
0.571890 0.114261 0.617406
0.670903 0.120048 0.623194
0.769916 0.125835 0.628981
0.088187 0.200881 0.599832
0.187200 0.206668 0.605619
0.286213 0.212455 0.611406
0.385226 0.218242 0.617194
0.484239 0.224029 0.622981
0.583252 0.229816 0.628768
0.682265 0.235603 0.634555
0.781277 0.241390 0.640342
0.099548 0.316435 0.611194
0.198561 0.322223 0.616981
0.297574 0.328010 0.622768
0.396587 0.333797 0.628555
0.495600 0.339584 0.634342
0.594613 0.345371 0.640129
0.693626 0.351158 0.645916
0.792639 0.356945 0.651703
0.110910 0.431990 0.622555
0.209923 0.437777 0.628342
0.308935 0.443565 0.634129
0.407948 0.449352 0.639916
0.506961 0.455139 0.645703
0.605974 0.460926 0.651490
0.704987 0.466713 0.657277
0.804000 0.472500 0.663065
0.122271 0.547545 0.633916
0.221284 0.553332 0.639703
0.320297 0.559119 0.645490
0.419310 0.564906 0.651277
0.518323 0.570694 0.657065
0.617335 0.576481 0.662852
0.716348 0.582268 0.668639
0.815361 0.588055 0.674426
0.133632 0.663100 0.645277
0.232645 0.668887 0.651065
0.331658 0.674674 0.656852
0.430671 0.680461 0.662639
0.529684 0.686248 0.668426
0.628697 0.692035 0.674213
0.727710 0.697823 0.680000
0.826723 0.703610 0.685787
0.144994 0.778655 0.656639
0.244006 0.784442 0.662426
0.343019 0.790229 0.668213
0.442032 0.796016 0.674000
0.541045 0.801803 0.679787
0.640058 0.807590 0.685574
0.739071 0.813377 0.691361
0.838084 0.819165 0.697148
0.156355 0.894210 0.668000
0.255368 0.899997 0.673787
0.354381 0.905784 0.679574
0.453394 0.911571 0.685361
0.552406 0.917358 0.691148
0.651419 0.923145 0.696935
0.750432 0.928932 0.702723
0.849445 0.934719 0.708510
0.079032 0.087532 0.705839
0.178045 0.093319 0.711626
0.277058 0.099106 0.717413
0.376071 0.104894 0.723200
0.475084 0.110681 0.728987
0.574097 0.116468 0.734774
0.673110 0.122255 0.740561
0.772123 0.128042 0.746348
0.090394 0.203087 0.717200
0.189406 0.208874 0.722987
0.288419 0.214661 0.728774
0.387432 0.220448 0.734561
0.486445 0.226235 0.740348
0.585458 0.232023 0.746135
0.684471 0.237810 0.751923
0.783484 0.243597 0.757710
0.101755 0.318642 0.728561
0.200768 0.324429 0.734348
0.299781 0.330216 0.740135
0.398794 0.336003 0.745923
0.497806 0.341790 0.751710
0.596819 0.347577 0.757497
0.695832 0.353365 0.763284
0.794845 0.359152 0.769071
0.113116 0.434197 0.739923
0.212129 0.439984 0.745710
0.311142 0.445771 0.751497
0.410155 0.451558 0.757284
0.509168 0.457345 0.763071
0.608181 0.463132 0.768858
0.707194 0.468919 0.774645
0.806206 0.474706 0.780432
0.124477 0.549752 0.751284
0.223490 0.555539 0.757071
0.322503 0.561326 0.762858
0.421516 0.567113 0.768645
0.520529 0.572900 0.774432
0.619542 0.578687 0.780219
0.718555 0.584474 0.786006
0.817568 0.590261 0.791794
0.135839 0.665306 0.762645
0.234852 0.671094 0.768432
0.333865 0.676881 0.774219
0.432877 0.682668 0.780006
0.531890 0.688455 0.785794
0.630903 0.694242 0.791581
0.729916 0.700029 0.797368
0.828929 0.705816 0.803155
0.147200 0.780861 0.774006
0.246213 0.786648 0.779794
0.345226 0.792435 0.785581
0.444239 0.798223 0.791368
0.543252 0.804010 0.797155
0.642265 0.809797 0.802942
0.741277 0.815584 0.808729
0.840290 0.821371 0.814516
0.158561 0.896416 0.785368
0.257574 0.902203 0.791155
0.356587 0.907990 0.796942
0.455600 0.913777 0.802729
0.554613 0.919565 0.808516
0.653626 0.925352 0.814303
0.752639 0.931139 0.820090
0.851652 0.936926 0.825877
0.081239 0.089739 0.823206
0.180252 0.095526 0.828994
0.279265 0.101313 0.834781
0.378277 0.107100 0.840568
0.477290 0.112887 0.846355
0.576303 0.118674 0.852142
0.675316 0.124461 0.857929
0.774329 0.130248 0.863716
0.092600 0.205294 0.834568
0.191613 0.211081 0.840355
0.290626 0.216868 0.846142
0.389639 0.222655 0.851929
0.488652 0.228442 0.857716
0.587665 0.234229 0.863503
0.686677 0.240016 0.869290
0.785690 0.245803 0.875077
0.103961 0.320848 0.845929
0.202974 0.326635 0.851716
0.301987 0.332423 0.857503
0.401000 0.338210 0.863290
0.500013 0.343997 0.869077
0.599026 0.349784 0.874865
0.698039 0.355571 0.880652
0.797052 0.361358 0.886439
0.115323 0.436403 0.857290
0.214335 0.442190 0.863077
0.313348 0.447977 0.868865
0.412361 0.453765 0.874652
0.511374 0.459552 0.880439
0.610387 0.465339 0.886226
0.709400 0.471126 0.892013
0.808413 0.476913 0.897800
0.126684 0.551958 0.868652
0.225697 0.557745 0.874439
0.324710 0.563532 0.880226
0.423723 0.569319 0.886013
0.522735 0.575106 0.891800
0.621748 0.580894 0.897587
0.720761 0.586681 0.903374
0.819774 0.592468 0.909161
0.138045 0.667513 0.880013
0.237058 0.673300 0.885800
0.336071 0.679087 0.891587
0.435084 0.684874 0.897374
0.534097 0.690661 0.903161
0.633110 0.696448 0.908948
0.732123 0.702235 0.914735
0.831135 0.708023 0.920523
0.149406 0.783068 0.891374
0.248419 0.788855 0.897161
0.347432 0.794642 0.902948
0.446445 0.800429 0.908735
0.545458 0.806216 0.914523
0.644471 0.812003 0.920310
0.743484 0.817790 0.926097
0.842497 0.823577 0.931884
0.160768 0.898623 0.902735
0.259781 0.904410 0.908523
0.358794 0.910197 0.914310
0.457806 0.915984 0.920097
0.556819 0.921771 0.925884
0.655832 0.927558 0.931671
0.754845 0.933345 0.937458
0.853858 0.939132 0.943245
0.083445 0.091945 0.940574
0.182458 0.097732 0.946361
0.281471 0.103519 0.952148
0.380484 0.109306 0.957935
0.479497 0.115094 0.963723
0.578510 0.120881 0.969510
0.677523 0.126668 0.975297
0.776535 0.132455 0.981084
0.094806 0.207500 0.951935
0.193819 0.213287 0.957723
0.292832 0.219074 0.963510
0.391845 0.224861 0.969297
0.490858 0.230648 0.975084
0.589871 0.236435 0.980871
0.688884 0.242223 0.986658
0.787897 0.248010 0.992445
0.106168 0.323055 0.963297
0.205181 0.328842 0.969084
0.304194 0.334629 0.974871
0.403206 0.340416 0.980658
0.502219 0.346203 0.986445
0.601232 0.351990 0.992232
0.700245 0.357777 0.998019
0.799258 0.363565 1.000000
0.117529 0.438610 0.974658
0.216542 0.444397 0.980445
0.315555 0.450184 0.986232
0.414568 0.455971 0.992019
0.513581 0.461758 0.997806
0.612594 0.467545 1.000000
0.711606 0.473332 1.000000
0.810619 0.479119 1.000000
0.128890 0.554165 0.986019
0.227903 0.559952 0.991806
0.326916 0.565739 0.997594
0.425929 0.571526 1.000000
0.524942 0.577313 1.000000
0.623955 0.583100 1.000000
0.722968 0.588887 1.000000
0.821981 0.594674 1.000000
0.140252 0.669719 0.997381
0.239265 0.675506 1.000000
0.338277 0.681294 1.000000
0.437290 0.687081 1.000000
0.536303 0.692868 1.000000
0.635316 0.698655 1.000000
0.734329 0.704442 1.000000
0.833342 0.710229 1.000000
0.151613 0.785274 1.000000
0.250626 0.791061 1.000000
0.349639 0.796848 1.000000
0.448652 0.802635 1.000000
0.547665 0.808423 1.000000
0.646677 0.814210 1.000000
0.745690 0.819997 1.000000
0.844703 0.825784 1.000000
0.162974 0.900829 1.000000
0.261987 0.906616 1.000000
0.361000 0.912403 1.000000
0.460013 0.918190 1.000000
0.559026 0.923977 1.000000
0.658039 0.929765 1.000000
0.757052 0.935552 1.000000
0.856065 0.941339 1.000000
