app/src/main/assets/luts/film_warm.cube
# Generated 3D LUT
TITLE "Film Warm"
LUT_3D_SIZE 8
DOMAIN_MIN 0.000000 0.000000 0.000000
DOMAIN_MAX 0.903226 0.903226 0.903226
0.000987 0.000247 0.000000
0.087364 0.000247 0.000000
0.257938 0.000247 0.000000
0.468113 0.000247 0.000000
0.677521 0.000247 0.000000
0.851313 0.000247 0.000000
0.963608 0.000247 0.000000
0.999926 0.000247 0.000000
0.000987 0.058708 0.000000
0.087364 0.058708 0.000000
0.257938 0.058708 0.000000
0.468113 0.058708 0.000000
0.677521 0.058708 0.000000
0.851313 0.058708 0.000000
0.963608 0.058708 0.000000
0.999926 0.058708 0.000000
0.000987 0.195625 0.000000
0.087364 0.195625 0.000000
0.257938 0.195625 0.000000
0.468113 0.195625 0.000000
0.677521 0.195625 0.000000
0.851313 0.195625 0.000000
0.963608 0.195625 0.000000
0.999926 0.195625 0.000000
0.000987 0.381792 0.000000
0.087364 0.381792 0.000000
0.257938 0.381792 0.000000
0.468113 0.381792 0.000000
0.677521 0.381792 0.000000
0.851313 0.381792 0.000000
0.963608 0.381792 0.000000
0.999926 0.381792 0.000000
0.000987 0.584653 0.000000
0.087364 0.584653 0.000000
0.257938 0.584653 0.000000
0.468113 0.584653 0.000000
0.677521 0.584653 0.000000
0.851313 0.584653 0.000000
0.963608 0.584653 0.000000
0.999926 0.584653 0.000000
0.000987 0.771410 0.000000
0.087364 0.771410 0.000000
0.257938 0.771410 0.000000
0.468113 0.771410 0.000000
0.677521 0.771410 0.000000
0.851313 0.771410 0.000000
0.963608 0.771410 0.000000
0.999926 0.771410 0.000000
0.000987 0.913406 0.000000
0.087364 0.913406 0.000000
0.257938 0.913406 0.000000
0.468113 0.913406 0.000000
0.677521 0.913406 0.000000
0.851313 0.913406 0.000000
0.963608 0.913406 0.000000
0.999926 0.913406 0.000000
0.000987 0.989925 0.000000
0.087364 0.989925 0.000000
0.257938 0.989925 0.000000
0.468113 0.989925 0.000000
0.677521 0.989925 0.000000
0.851313 0.989925 0.000000
0.963608 0.989925 0.000000
0.999926 0.989925 0.000000
0.000987 0.000247 0.020974
0.087364 0.000247 0.020974
0.257938 0.000247 0.020974
0.468113 0.000247 0.020974
0.677521 0.000247 0.020974
0.851313 0.000247 0.020974
0.963608 0.000247 0.020974
0.999926 0.000247 0.020974
0.000987 0.058708 0.020974
0.087364 0.058708 0.020974
0.257938 0.058708 0.020974
0.468113 0.058708 0.020974
0.677521 0.058708 0.020974
0.851313 0.058708 0.020974
0.963608 0.058708 0.020974
0.999926 0.058708 0.020974
0.000987 0.195625 0.020974
0.087364 0.195625 0.020974
0.257938 0.195625 0.020974
0.468113 0.195625 0.020974
0.677521 0.195625 0.020974
0.851313 0.195625 0.020974
0.963608 0.195625 0.020974
0.999926 0.195625 0.020974
0.000987 0.381792 0.020974
0.087364 0.381792 0.020974
0.257938 0.381792 0.020974
0.468113 0.381792 0.020974
0.677521 0.381792 0.020974
0.851313 0.381792 0.020974
0.963608 0.381792 0.020974
0.999926 0.381792 0.020974
0.000987 0.584653 0.020974
0.087364 0.584653 0.020974
0.257938 0.584653 0.020974
0.468113 0.584653 0.020974
0.677521 0.584653 0.020974
0.851313 0.584653 0.020974
0.963608 0.584653 0.020974
0.999926 0.584653 0.020974
0.000987 0.771410 0.020974
0.087364 0.771410 0.020974
0.257938 0.771410 0.020974
0.468113 0.771410 0.020974
0.677521 0.771410 0.020974
0.851313 0.771410 0.020974
0.963608 0.771410 0.020974
0.999926 0.771410 0.020974
0.000987 0.913406 0.020974
0.087364 0.913406 0.020974
0.257938 0.913406 0.020974
0.468113 0.913406 0.020974
0.677521 0.913406 0.020974
0.851313 0.913406 0.020974
0.963608 0.913406 0.020974
0.999926 0.913406 0.020974
0.000987 0.989925 0.020974
0.087364 0.989925 0.020974
0.257938 0.989925 0.020974
0.468113 0.989925 0.020974
0.677521 0.989925 0.020974
0.851313 0.989925 0.020974
0.963608 0.989925 0.020974
0.999926 0.989925 0.020974
0.000987 0.000247 0.093953
0.087364 0.000247 0.093953
0.257938 0.000247 0.093953
0.468113 0.000247 0.093953
0.677521 0.000247 0.093953
0.851313 0.000247 0.093953
0.963608 0.000247 0.093953
0.999926 0.000247 0.093953
0.000987 0.058708 0.093953
0.087364 0.058708 0.093953
0.257938 0.058708 0.093953
0.468113 0.058708 0.093953
0.677521 0.058708 0.093953
0.851313 0.058708 0.093953
0.963608 0.058708 0.093953
0.999926 0.058708 0.093953
0.000987 0.195625 0.093953
0.087364 0.195625 0.093953
0.257938 0.195625 0.093953
0.468113 0.195625 0.093953
0.677521 0.195625 0.093953
0.851313 0.195625 0.093953
0.963608 0.195625 0.093953
0.999926 0.195625 0.093953
0.000987 0.381792 0.093953
0.087364 0.381792 0.093953
0.257938 0.381792 0.093953
0.468113 0.381792 0.093953
0.677521 0.381792 0.093953
0.851313 0.381792 0.093953
0.963608 0.381792 0.093953
0.999926 0.381792 0.093953
0.000987 0.584653 0.093953
0.087364 0.584653 0.093953
0.257938 0.584653 0.093953
0.468113 0.584653 0.093953
0.677521 0.584653 0.093953
0.851313 0.584653 0.093953
0.963608 0.584653 0.093953
0.999926 0.584653 0.093953
0.000987 0.771410 0.093953
0.087364 0.771410 0.093953
0.257938 0.771410 0.093953
0.468113 0.771410 0.093953
0.677521 0.771410 0.093953
0.851313 0.771410 0.093953
0.963608 0.771410 0.093953
0.999926 0.771410 0.093953
0.000987 0.913406 0.093953
0.087364 0.913406 0.093953
0.257938 0.913406 0.093953
0.468113 0.913406 0.093953
0.677521 0.913406 0.093953
0.851313 0.913406 0.093953
0.963608 0.913406 0.093953
0.999926 0.913406 0.093953
0.000987 0.989925 0.093953
0.087364 0.989925 0.093953
0.257938 0.989925 0.093953
0.468113 0.989925 0.093953
0.677521 0.989925 0.093953
0.851313 0.989925 0.093953
0.963608 0.989925 0.093953
0.999926 0.989925 0.093953
0.000987 0.000247 0.218701
0.087364 0.000247 0.218701
0.257938 0.000247 0.218701
0.468113 0.000247 0.218701
0.677521 0.000247 0.218701
0.851313 0.000247 0.218701
0.963608 0.000247 0.218701
0.999926 0.000247 0.218701
0.000987 0.058708 0.218701
0.087364 0.058708 0.218701
0.257938 0.058708 0.218701
0.468113 0.058708 0.218701
0.677521 0.058708 0.218701
0.851313 0.058708 0.218701
0.963608 0.058708 0.218701
0.999926 0.058708 0.218701
0.000987 0.195625 0.218701
0.087364 0.195625 0.218701
0.257938 0.195625 0.218701
0.468113 0.195625 0.218701
0.677521 0.195625 0.218701
0.851313 0.195625 0.218701
0.963608 0.195625 0.218701
0.999926 0.195625 0.218701
0.000987 0.381792 0.218701
0.087364 0.381792 0.218701
0.257938 0.381792 0.218701
0.468113 0.381792 0.218701
0.677521 0.381792 0.218701
0.851313 0.381792 0.218701
0.963608 0.381792 0.218701
0.999926 0.381792 0.218701
0.000987 0.584653 0.218701
0.087364 0.584653 0.218701
0.257938 0.584653 0.218701
0.468113 0.584653 0.218701
0.677521 0.584653 0.218701
0.851313 0.584653 0.218701
0.963608 0.584653 0.218701
0.999926 0.584653 0.218701
0.000987 0.771410 0.218701
0.087364 0.771410 0.218701
0.257938 0.771410 0.218701
0.468113 0.771410 0.218701
0.677521 0.771410 0.218701
0.851313 0.771410 0.218701
0.963608 0.771410 0.218701
0.999926 0.771410 0.218701
0.000987 0.913406 0.218701
0.087364 0.913406 0.218701
0.257938 0.913406 0.218701
0.468113 0.913406 0.218701
0.677521 0.913406 0.218701
0.851313 0.913406 0.218701
0.963608 0.913406 0.218701
0.999926 0.913406 0.218701
0.000987 0.989925 0.218701
0.087364 0.989925 0.218701
0.257938 0.989925 0.218701
0.468113 0.989925 0.218701
0.677521 0.989925 0.218701
0.851313 0.989925 0.218701
0.963608 0.989925 0.218701
0.999926 0.989925 0.218701
0.000987 0.000247 0.383468
0.087364 0.000247 0.383468
0.257938 0.000247 0.383468
0.468113 0.000247 0.383468
0.677521 0.000247 0.383468
0.851313 0.000247 0.383468
0.963608 0.000247 0.383468
0.999926 0.000247 0.383468
0.000987 0.058708 0.383468
0.087364 0.058708 0.383468
0.257938 0.058708 0.383468
0.468113 0.058708 0.383468
0.677521 0.058708 0.383468
0.851313 0.058708 0.383468
0.963608 0.058708 0.383468
0.999926 0.058708 0.383468
0.000987 0.195625 0.383468
0.087364 0.195625 0.383468
0.257938 0.195625 0.383468
0.468113 0.195625 0.383468
0.677521 0.195625 0.383468
0.851313 0.195625 0.383468
0.963608 0.195625 0.383468
0.999926 0.195625 0.383468
0.000987 0.381792 0.383468
0.087364 0.381792 0.383468
0.257938 0.381792 0.383468
0.468113 0.381792 0.383468
0.677521 0.381792 0.383468
0.851313 0.381792 0.383468
0.963608 0.381792 0.383468
0.999926 0.381792 0.383468
0.000987 0.584653 0.383468
0.087364 0.584653 0.383468
0.257938 0.584653 0.383468
0.468113 0.584653 0.383468
0.677521 0.584653 0.383468
0.851313 0.584653 0.383468
0.963608 0.584653 0.383468
0.999926 0.584653 0.383468
0.000987 0.771410 0.383468
0.087364 0.771410 0.383468
0.257938 0.771410 0.383468
0.468113 0.771410 0.383468
0.677521 0.771410 0.383468
0.851313 0.771410 0.383468
0.963608 0.771410 0.383468
0.999926 0.771410 0.383468
0.000987 0.913406 0.383468
0.087364 0.913406 0.383468
0.257938 0.913406 0.383468
0.468113 0.913406 0.383468
0.677521 0.913406 0.383468
0.851313 0.913406 0.383468
0.963608 0.913406 0.383468
0.999926 0.913406 0.383468
0.000987 0.989925 0.383468
0.087364 0.989925 0.383468
0.257938 0.989925 0.383468
0.468113 0.989925 0.383468
0.677521 0.989925 0.383468
0.851313 0.989925 0.383468
0.963608 0.989925 0.383468
0.999926 0.989925 0.383468
0.000987 0.000247 0.567958
0.087364 0.000247 0.567958
0.257938 0.000247 0.567958
0.468113 0.000247 0.567958
0.677521 0.000247 0.567958
0.851313 0.000247 0.567958
0.963608 0.000247 0.567958
0.999926 0.000247 0.567958
0.000987 0.058708 0.567958
0.087364 0.058708 0.567958
0.257938 0.058708 0.567958
0.468113 0.058708 0.567958
0.677521 0.058708 0.567958
0.851313 0.058708 0.567958
0.963608 0.058708 0.567958
0.999926 0.058708 0.567958
0.000987 0.195625 0.567958
0.087364 0.195625 0.567958
0.257938 0.195625 0.567958
0.468113 0.195625 0.567958
0.677521 0.195625 0.567958
0.851313 0.195625 0.567958
0.963608 0.195625 0.567958
0.999926 0.195625 0.567958
0.000987 0.381792 0.567958
0.087364 0.381792 0.567958
0.257938 0.381792 0.567958
0.468113 0.381792 0.567958
0.677521 0.381792 0.567958
0.851313 0.381792 0.567958
0.963608 0.381792 0.567958
0.999926 0.381792 0.567958
0.000987 0.584653 0.567958
0.087364 0.584653 0.567958
0.257938 0.584653 0.567958
0.468113 0.584653 0.567958
0.677521 0.584653 0.567958
0.851313 0.584653 0.567958
0.963608 0.584653 0.567958
0.999926 0.584653 0.567958
0.000987 0.771410 0.567958
0.087364 0.771410 0.567958
0.257938 0.771410 0.567958
0.468113 0.771410 0.567958
0.677521 0.771410 0.567958
0.851313 0.771410 0.567958
0.963608 0.771410 0.567958
0.999926 0.771410 0.567958
0.000987 0.913406 0.567958
0.087364 0.913406 0.567958
0.257938 0.913406 0.567958
0.468113 0.913406 0.567958
0.677521 0.913406 0.567958
0.851313 0.913406 0.567958
0.963608 0.913406 0.567958
0.999926 0.913406 0.567958
0.000987 0.989925 0.567958
0.087364 0.989925 0.567958
0.257938 0.989925 0.567958
0.468113 0.989925 0.567958
0.677521 0.989925 0.567958
0.851313 0.989925 0.567958
0.963608 0.989925 0.567958
0.999926 0.989925 0.567958
0.000987 0.000247 0.746466
0.087364 0.000247 0.746466
0.257938 0.000247 0.746466
0.468113 0.000247 0.746466
0.677521 0.000247 0.746466
0.851313 0.000247 0.746466
0.963608 0.000247 0.746466
0.999926 0.000247 0.746466
0.000987 0.058708 0.746466
0.087364 0.058708 0.746466
0.257938 0.058708 0.746466
0.468113 0.058708 0.746466
0.677521 0.058708 0.746466
0.851313 0.058708 0.746466
0.963608 0.058708 0.746466
0.999926 0.058708 0.746466
0.000987 0.195625 0.746466
0.087364 0.195625 0.746466
0.257938 0.195625 0.746466
0.468113 0.195625 0.746466
0.677521 0.195625 0.746466
0.851313 0.195625 0.746466
0.963608 0.195625 0.746466
0.999926 0.195625 0.746466
0.000987 0.381792 0.746466
0.087364 0.381792 0.746466
0.257938 0.381792 0.746466
0.468113 0.381792 0.746466
0.677521 0.381792 0.746466
0.851313 0.381792 0.746466
0.963608 0.381792 0.746466
0.999926 0.381792 0.746466
0.000987 0.584653 0.746466
0.087364 0.584653 0.746466
0.257938 0.584653 0.746466
0.468113 0.584653 0.746466
0.677521 0.584653 0.746466
0.851313 0.584653 0.746466
0.963608 0.584653 0.746466
0.999926 0.584653 0.746466
0.000987 0.771410 0.746466
0.087364 0.771410 0.746466
0.257938 0.771410 0.746466
0.468113 0.771410 0.746466
0.677521 0.771410 0.746466
0.851313 0.771410 0.746466
0.963608 0.771410 0.746466
0.999926 0.771410 0.746466
0.000987 0.913406 0.746466
0.087364 0.913406 0.746466
0.257938 0.913406 0.746466
0.468113 0.913406 0.746466
0.677521 0.913406 0.746466
0.851313 0.913406 0.746466
0.963608 0.913406 0.746466
0.999926 0.913406 0.746466
0.000987 0.989925 0.746466
0.087364 0.989925 0.746466
0.257938 0.989925 0.746466
0.468113 0.989925 0.746466
0.677521 0.989925 0.746466
0.851313 0.989925 0.746466
0.963608 0.989925 0.746466
0.999926 0.989925 0.746466
0.000987 0.000247 0.891967
0.087364 0.000247 0.891967
0.257938 0.000247 0.891967
0.468113 0.000247 0.891967
0.677521 0.000247 0.891967
0.851313 0.000247 0.891967
0.963608 0.000247 0.891967
0.999926 0.000247 0.891967
0.000987 0.058708 0.891967
0.087364 0.058708 0.891967
0.257938 0.058708 0.891967
0.468113 0.058708 0.891967
0.677521 0.058708 0.891967
0.851313 0.058708 0.891967
0.963608 0.058708 0.891967
0.999926 0.058708 0.891967
0.000987 0.195625 0.891967
0.087364 0.195625 0.891967
0.257938 0.195625 0.891967
0.468113 0.195625 0.891967
0.677521 0.195625 0.891967
0.851313 0.195625 0.891967
0.963608 0.195625 0.891967
0.999926 0.195625 0.891967
0.000987 0.381792 0.891967
0.087364 0.381792 0.891967
0.257938 0.381792 0.891967
0.468113 0.381792 0.891967
0.677521 0.381792 0.891967
0.851313 0.381792 0.891967
0.963608 0.381792 0.891967
0.999926 0.381792 0.891967
0.000987 0.584653 0.891967
0.087364 0.584653 0.891967
0.257938 0.584653 0.891967
0.468113 0.584653 0.891967
0.677521 0.584653 0.891967
0.851313 0.584653 0.891967
0.963608 0.584653 0.891967
0.999926 0.584653 0.891967
0.000987 0.771410 0.891967
0.087364 0.771410 0.891967
0.257938 0.771410 0.891967
0.468113 0.771410 0.891967
0.677521 0.771410 0.891967
0.851313 0.771410 0.891967
0.963608 0.771410 0.891967
0.999926 0.771410 0.891967
0.000987 0.913406 0.891967
0.087364 0.913406 0.891967
0.257938 0.913406 0.891967
0.468113 0.913406 0.891967
0.677521 0.913406 0.891967
0.851313 0.913406 0.891967
0.963608 0.913406 0.891967
0.999926 0.913406 0.891967
0.000987 0.989925 0.891967
0.087364 0.989925 0.891967
0.257938 0.989925 0.891967
0.468113 0.989925 0.891967
0.677521 0.989925 0.891967
0.851313 0.989925 0.891967
0.963608 0.989925 0.891967
0.999926 0.989925 0.891967
