app/src/main/assets/luts/film_warm.cube
# Generated 3D LUT
TITLE "Film Warm"
LUT_3D_SIZE 5
DOMAIN_MIN 0.000000 0.000000 0.000000
DOMAIN_MAX 0.903226 0.903226 0.903226
0.000987 0.000247 0.000000
0.209933 0.000247 0.000000
0.575263 0.000247 0.000000
0.885925 0.000247 0.000000
0.999926 0.000247 0.000000
0.000987 0.155572 0.000000
0.209933 0.155572 0.000000
0.575263 0.155572 0.000000
0.885925 0.155572 0.000000
0.999926 0.155572 0.000000
0.000987 0.483232 0.000000
0.209933 0.483232 0.000000
0.575263 0.483232 0.000000
0.885925 0.483232 0.000000
0.999926 0.483232 0.000000
0.000987 0.812075 0.000000
0.209933 0.812075 0.000000
0.575263 0.812075 0.000000
0.885925 0.812075 0.000000
0.999926 0.812075 0.000000
0.000987 0.989925 0.000000
0.209933 0.989925 0.000000
0.575263 0.989925 0.000000
0.885925 0.989925 0.000000
0.999926 0.989925 0.000000
0.000987 0.000247 0.070620
0.209933 0.000247 0.070620
0.575263 0.000247 0.070620
0.885925 0.000247 0.070620
0.999926 0.000247 0.070620
0.000987 0.155572 0.070620
0.209933 0.155572 0.070620
0.575263 0.155572 0.070620
0.885925 0.155572 0.070620
0.999926 0.155572 0.070620
0.000987 0.483232 0.070620
0.209933 0.483232 0.070620
0.575263 0.483232 0.070620
0.885925 0.483232 0.070620
0.999926 0.483232 0.070620
0.000987 0.812075 0.070620
0.209933 0.812075 0.070620
0.575263 0.812075 0.070620
0.885925 0.812075 0.070620
0.999926 0.812075 0.070620
0.000987 0.989925 0.070620
0.209933 0.989925 0.070620
0.575263 0.989925 0.070620
0.885925 0.989925 0.070620
0.999926 0.989925 0.070620
0.000987 0.000247 0.297182
0.209933 0.000247 0.297182
0.575263 0.000247 0.297182
0.885925 0.000247 0.297182
0.999926 0.000247 0.297182
0.000987 0.155572 0.297182
0.209933 0.155572 0.297182
0.575263 0.155572 0.297182
0.885925 0.155572 0.297182
0.999926 0.155572 0.297182
0.000987 0.483232 0.297182
0.209933 0.483232 0.297182
0.575263 0.483232 0.297182
0.885925 0.483232 0.297182
0.999926 0.483232 0.297182
0.000987 0.812075 0.297182
0.209933 0.812075 0.297182
0.575263 0.812075 0.297182
0.885925 0.812075 0.297182
0.999926 0.812075 0.297182
0.000987 0.989925 0.297182
0.209933 0.989925 0.297182
0.575263 0.989925 0.297182
0.885925 0.989925 0.297182
0.999926 0.989925 0.297182
0.000987 0.000247 0.614213
0.209933 0.000247 0.614213
0.575263 0.000247 0.614213
0.885925 0.000247 0.614213
0.999926 0.000247 0.614213
0.000987 0.155572 0.614213
0.209933 0.155572 0.614213
0.575263 0.155572 0.614213
0.885925 0.155572 0.614213
0.999926 0.155572 0.614213
0.000987 0.483232 0.614213
0.209933 0.483232 0.614213
0.575263 0.483232 0.614213
0.885925 0.483232 0.614213
0.999926 0.483232 0.614213
0.000987 0.812075 0.614213
0.209933 0.812075 0.614213
0.575263 0.812075 0.614213
0.885925 0.812075 0.614213
0.999926 0.812075 0.614213
0.000987 0.989925 0.614213
0.209933 0.989925 0.614213
0.575263 0.989925 0.614213
0.885925 0.989925 0.614213
0.999926 0.989925 0.614213
0.000987 0.000247 0.891967
0.209933 0.000247 0.891967
0.575263 0.000247 0.891967
0.885925 0.000247 0.891967
0.999926 0.000247 0.891967
0.000987 0.155572 0.891967
0.209933 0.155572 0.891967
0.575263 0.155572 0.891967
0.885925 0.155572 0.891967
0.999926 0.155572 0.891967
0.000987 0.483232 0.891967
0.209933 0.483232 0.891967
0.575263 0.483232 0.891967
0.885925 0.483232 0.891967
0.999926 0.483232 0.891967
0.000987 0.812075 0.891967
0.209933 0.812075 0.891967
0.575263 0.812075 0.891967
0.885925 0.812075 0.891967
0.999926 0.812075 0.891967
0.000987 0.989925 0.891967
0.209933 0.989925 0.891967
0.575263 0.989925 0.891967
0.885925 0.989925 0.891967
0.999926 0.989925 0.891967
