app/src/main/assets/luts/film_warm.cube
# Generated 3D LUT
TITLE "Film Warm"
LUT_3D_SIZE 32
DOMAIN_MIN 0.0 0.0 0.0
DOMAIN_MAX 1.0 1.0 1.0
0.000987 0.000247 0.000000
0.011740 0.000247 0.000000
0.030443 0.000247 0.000000
0.055939 0.000247 0.000000
0.087364 0.000247 0.000000
0.123970 0.000247 0.000000
0.165053 0.000247 0.000000
0.209933 0.000247 0.000000
0.257938 0.000247 0.000000
0.308407 0.000247 0.000000
0.360685 0.000247 0.000000
0.414130 0.000247 0.000000
0.468113 0.000247 0.000000
0.522020 0.000247 0.000000
0.575263 0.000247 0.000000
0.627275 0.000247 0.000000
0.677521 0.000247 0.000000
0.725496 0.000247 0.000000
0.770733 0.000247 0.000000
0.812801 0.000247 0.000000
0.851313 0.000247 0.000000
0.885925 0.000247 0.000000
0.916338 0.000247 0.000000
0.942300 0.000247 0.000000
0.963608 0.000247 0.000000
0.980106 0.000247 0.000000
0.991688 0.000247 0.000000
0.998298 0.000247 0.000000
0.999926 0.000247 0.000000
0.996611 0.000247 0.000000
0.988435 0.000247 0.000000
0.975528 0.000247 0.000000
0.000987 0.005929 0.000000
0.011740 0.005929 0.000000
0.030443 0.005929 0.000000
0.055939 0.005929 0.000000
0.087364 0.005929 0.000000
0.123970 0.005929 0.000000
0.165053 0.005929 0.000000
0.209933 0.005929 0.000000
0.257938 0.005929 0.000000
0.308407 0.005929 0.000000
0.360685 0.005929 0.000000
0.414130 0.005929 0.000000
0.468113 0.005929 0.000000
0.522020 0.005929 0.000000
0.575263 0.005929 0.000000
0.627275 0.005929 0.000000
0.677521 0.005929 0.000000
0.725496 0.005929 0.000000
0.770733 0.005929 0.000000
0.812801 0.005929 0.000000
0.851313 0.005929 0.000000
0.885925 0.005929 0.000000
0.916338 0.005929 0.000000
0.942300 0.005929 0.000000
0.963608 0.005929 0.000000
0.980106 0.005929 0.000000
0.991688 0.005929 0.000000
0.998298 0.005929 0.000000
0.999926 0.005929 0.000000
0.996611 0.005929 0.000000
0.988435 0.005929 0.000000
0.975528 0.005929 0.000000
0.000987 0.017917 0.000000
0.011740 0.017917 0.000000
0.030443 0.017917 0.000000
0.055939 0.017917 0.000000
0.087364 0.017917 0.000000
0.123970 0.017917 0.000000
0.165053 0.017917 0.000000
0.209933 0.017917 0.000000
0.257938 0.017917 0.000000
0.308407 0.017917 0.000000
0.360685 0.017917 0.000000
0.414130 0.017917 0.000000
0.468113 0.017917 0.000000
0.522020 0.017917 0.000000
0.575263 0.017917 0.000000
0.627275 0.017917 0.000000
0.677521 0.017917 0.000000
0.725496 0.017917 0.000000
0.770733 0.017917 0.000000
0.812801 0.017917 0.000000
0.851313 0.017917 0.000000
0.885925 0.017917 0.000000
0.916338 0.017917 0.000000
0.942300 0.017917 0.000000
0.963608 0.017917 0.000000
0.980106 0.017917 0.000000
0.991688 0.017917 0.000000
0.998298 0.017917 0.000000
0.999926 0.017917 0.000000
0.996611 0.017917 0.000000
0.988435 0.017917 0.000000
0.975528 0.017917 0.000000
0.000987 0.035655 0.000000
0.011740 0.035655 0.000000
0.030443 0.035655 0.000000
0.055939 0.035655 0.000000
0.087364 0.035655 0.000000
0.123970 0.035655 0.000000
0.165053 0.035655 0.000000
0.209933 0.035655 0.000000
0.257938 0.035655 0.000000
0.308407 0.035655 0.000000
0.360685 0.035655 0.000000
0.414130 0.035655 0.000000
0.468113 0.035655 0.000000
0.522020 0.035655 0.000000
0.575263 0.035655 0.000000
0.627275 0.035655 0.000000
0.677521 0.035655 0.000000
0.725496 0.035655 0.000000
0.770733 0.035655 0.000000
0.812801 0.035655 0.000000
0.851313 0.035655 0.000000
0.885925 0.035655 0.000000
0.916338 0.035655 0.000000
0.942300 0.035655 0.000000
0.963608 0.035655 0.000000
0.980106 0.035655 0.000000
0.991688 0.035655 0.000000
0.998298 0.035655 0.000000
0.999926 0.035655 0.000000
0.996611 0.035655 0.000000
0.988435 0.035655 0.000000
0.975528 0.035655 0.000000
0.000987 0.058708 0.000000
0.011740 0.058708 0.000000
0.030443 0.058708 0.000000
0.055939 0.058708 0.000000
0.087364 0.058708 0.000000
0.123970 0.058708 0.000000
0.165053 0.058708 0.000000
0.209933 0.058708 0.000000
0.257938 0.058708 0.000000
0.308407 0.058708 0.000000
0.360685 0.058708 0.000000
0.414130 0.058708 0.000000
0.468113 0.058708 0.000000
0.522020 0.058708 0.000000
0.575263 0.058708 0.000000
0.627275 0.058708 0.000000
0.677521 0.058708 0.000000
0.725496 0.058708 0.000000
0.770733 0.058708 0.000000
0.812801 0.058708 0.000000
0.851313 0.058708 0.000000
0.885925 0.058708 0.000000
0.916338 0.058708 0.000000
0.942300 0.058708 0.000000
0.963608 0.058708 0.000000
0.980106 0.058708 0.000000
0.991688 0.058708 0.000000
0.998298 0.058708 0.000000
0.999926 0.058708 0.000000
0.996611 0.058708 0.000000
0.988435 0.058708 0.000000
0.975528 0.058708 0.000000
0.000987 0.086663 0.000000
0.011740 0.086663 0.000000
0.030443 0.086663 0.000000
0.055939 0.086663 0.000000
0.087364 0.086663 0.000000
0.123970 0.086663 0.000000
0.165053 0.086663 0.000000
0.209933 0.086663 0.000000
0.257938 0.086663 0.000000
0.308407 0.086663 0.000000
0.360685 0.086663 0.000000
0.414130 0.086663 0.000000
0.468113 0.086663 0.000000
0.522020 0.086663 0.000000
0.575263 0.086663 0.000000
0.627275 0.086663 0.000000
0.677521 0.086663 0.000000
0.725496 0.086663 0.000000
0.770733 0.086663 0.000000
0.812801 0.086663 0.000000
0.851313 0.086663 0.000000
0.885925 0.086663 0.000000
0.916338 0.086663 0.000000
0.942300 0.086663 0.000000
0.963608 0.086663 0.000000
0.980106 0.086663 0.000000
0.991688 0.086663 0.000000
0.998298 0.086663 0.000000
0.999926 0.086663 0.000000
0.996611 0.086663 0.000000
0.988435 0.086663 0.000000
0.975528 0.086663 0.000000
0.000987 0.119098 0.000000
0.011740 0.119098 0.000000
0.030443 0.119098 0.000000
0.055939 0.119098 0.000000
0.087364 0.119098 0.000000
0.123970 0.119098 0.000000
0.165053 0.119098 0.000000
0.209933 0.119098 0.000000
0.257938 0.119098 0.000000
0.308407 0.119098 0.000000
0.360685 0.119098 0.000000
0.414130 0.119098 0.000000
0.468113 0.119098 0.000000
0.522020 0.119098 0.000000
0.575263 0.119098 0.000000
0.627275 0.119098 0.000000
0.677521 0.119098 0.000000
0.725496 0.119098 0.000000
0.770733 0.119098 0.000000
0.812801 0.119098 0.000000
0.851313 0.119098 0.000000
0.885925 0.119098 0.000000
0.916338 0.119098 0.000000
0.942300 0.119098 0.000000
0.963608 0.119098 0.000000
0.980106 0.119098 0.000000
0.991688 0.119098 0.000000
0.998298 0.119098 0.000000
0.999926 0.119098 0.000000
0.996611 0.119098 0.000000
0.988435 0.119098 0.000000
0.975528 0.119098 0.000000
0.000987 0.155572 0.000000
0.011740 0.155572 0.000000
0.030443 0.155572 0.000000
0.055939 0.155572 0.000000
0.087364 0.155572 0.000000
0.123970 0.155572 0.000000
0.165053 0.155572 0.000000
0.209933 0.155572 0.000000
0.257938 0.155572 0.000000
0.308407 0.155572 0.000000
0.360685 0.155572 0.000000
0.414130 0.155572 0.000000
0.468113 0.155572 0.000000
0.522020 0.155572 0.000000
0.575263 0.155572 0.000000
0.627275 0.155572 0.000000
0.677521 0.155572 0.000000
0.725496 0.155572 0.000000
0.770733 0.155572 0.000000
0.812801 0.155572 0.000000
0.851313 0.155572 0.000000
0.885925 0.155572 0.000000
0.916338 0.155572 0.000000
0.942300 0.155572 0.000000
0.963608 0.155572 0.000000
0.980106 0.155572 0.000000
0.991688 0.155572 0.000000
0.998298 0.155572 0.000000
0.999926 0.155572 0.000000
0.996611 0.155572 0.000000
0.988435 0.155572 0.000000
0.975528 0.155572 0.000000
0.000987 0.195625 0.000000
0.011740 0.195625 0.000000
0.030443 0.195625 0.000000
0.055939 0.195625 0.000000
0.087364 0.195625 0.000000
0.123970 0.195625 0.000000
0.165053 0.195625 0.000000
0.209933 0.195625 0.000000
0.257938 0.195625 0.000000
0.308407 0.195625 0.000000
0.360685 0.195625 0.000000
0.414130 0.195625 0.000000
0.468113 0.195625 0.000000
0.522020 0.195625 0.000000
0.575263 0.195625 0.000000
0.627275 0.195625 0.000000
0.677521 0.195625 0.000000
0.725496 0.195625 0.000000
0.770733 0.195625 0.000000
0.812801 0.195625 0.000000
0.851313 0.195625 0.000000
0.885925 0.195625 0.000000
0.916338 0.195625 0.000000
0.942300 0.195625 0.000000
0.963608 0.195625 0.000000
0.980106 0.195625 0.000000
0.991688 0.195625 0.000000
0.998298 0.195625 0.000000
0.999926 0.195625 0.000000
0.996611 0.195625 0.000000
0.988435 0.195625 0.000000
0.975528 0.195625 0.000000
0.000987 0.238776 0.000000
0.011740 0.238776 0.000000
0.030443 0.238776 0.000000
0.055939 0.238776 0.000000
0.087364 0.238776 0.000000
0.123970 0.238776 0.000000
0.165053 0.238776 0.000000
0.209933 0.238776 0.000000
0.257938 0.238776 0.000000
0.308407 0.238776 0.000000
0.360685 0.238776 0.000000
0.414130 0.238776 0.000000
0.468113 0.238776 0.000000
0.522020 0.238776 0.000000
0.575263 0.238776 0.000000
0.627275 0.238776 0.000000
0.677521 0.238776 0.000000
0.725496 0.238776 0.000000
0.770733 0.238776 0.000000
0.812801 0.238776 0.000000
0.851313 0.238776 0.000000
0.885925 0.238776 0.000000
0.916338 0.238776 0.000000
0.942300 0.238776 0.000000
0.963608 0.238776 0.000000
0.980106 0.238776 0.000000
0.991688 0.238776 0.000000
0.998298 0.238776 0.000000
0.999926 0.238776 0.000000
0.996611 0.238776 0.000000
0.988435 0.238776 0.000000
0.975528 0.238776 0.000000
0.000987 0.284530 0.000000
0.011740 0.284530 0.000000
0.030443 0.284530 0.000000
0.055939 0.284530 0.000000
0.087364 0.284530 0.000000
0.123970 0.284530 0.000000
0.165053 0.284530 0.000000
0.209933 0.284530 0.000000
0.257938 0.284530 0.000000
0.308407 0.284530 0.000000
0.360685 0.284530 0.000000
0.414130 0.284530 0.000000
0.468113 0.284530 0.000000
0.522020 0.284530 0.000000
0.575263 0.284530 0.000000
0.627275 0.284530 0.000000
0.677521 0.284530 0.000000
0.725496 0.284530 0.000000
0.770733 0.284530 0.000000
0.812801 0.284530 0.000000
0.851313 0.284530 0.000000
0.885925 0.284530 0.000000
0.916338 0.284530 0.000000
0.942300 0.284530 0.000000
0.963608 0.284530 0.000000
0.980106 0.284530 0.000000
0.991688 0.284530 0.000000
0.998298 0.284530 0.000000
0.999926 0.284530 0.000000
0.996611 0.284530 0.000000
0.988435 0.284530 0.000000
0.975528 0.284530 0.000000
0.000987 0.332376 0.000000
0.011740 0.332376 0.000000
0.030443 0.332376 0.000000
0.055939 0.332376 0.000000
0.087364 0.332376 0.000000
0.123970 0.332376 0.000000
0.165053 0.332376 0.000000
0.209933 0.332376 0.000000
0.257938 0.332376 0.000000
0.308407 0.332376 0.000000
0.360685 0.332376 0.000000
0.414130 0.332376 0.000000
0.468113 0.332376 0.000000
0.522020 0.332376 0.000000
0.575263 0.332376 0.000000
0.627275 0.332376 0.000000
0.677521 0.332376 0.000000
0.725496 0.332376 0.000000
0.770733 0.332376 0.000000
0.812801 0.332376 0.000000
0.851313 0.332376 0.000000
0.885925 0.332376 0.000000
0.916338 0.332376 0.000000
0.942300 0.332376 0.000000
0.963608 0.332376 0.000000
0.980106 0.332376 0.000000
0.991688 0.332376 0.000000
0.998298 0.332376 0.000000
0.999926 0.332376 0.000000
0.996611 0.332376 0.000000
0.988435 0.332376 0.000000
0.975528 0.332376 0.000000
0.000987 0.381792 0.000000
0.011740 0.381792 0.000000
0.030443 0.381792 0.000000
0.055939 0.381792 0.000000
0.087364 0.381792 0.000000
0.123970 0.381792 0.000000
0.165053 0.381792 0.000000
0.209933 0.381792 0.000000
0.257938 0.381792 0.000000
0.308407 0.381792 0.000000
0.360685 0.381792 0.000000
0.414130 0.381792 0.000000
0.468113 0.381792 0.000000
0.522020 0.381792 0.000000
0.575263 0.381792 0.000000
0.627275 0.381792 0.000000
0.677521 0.381792 0.000000
0.725496 0.381792 0.000000
0.770733 0.381792 0.000000
0.812801 0.381792 0.000000
0.851313 0.381792 0.000000
0.885925 0.381792 0.000000
0.916338 0.381792 0.000000
0.942300 0.381792 0.000000
0.963608 0.381792 0.000000
0.980106 0.381792 0.000000
0.991688 0.381792 0.000000
0.998298 0.381792 0.000000
0.999926 0.381792 0.000000
0.996611 0.381792 0.000000
0.988435 0.381792 0.000000
0.975528 0.381792 0.000000
0.000987 0.432253 0.000000
0.011740 0.432253 0.000000
0.030443 0.432253 0.000000
0.055939 0.432253 0.000000
0.087364 0.432253 0.000000
0.123970 0.432253 0.000000
0.165053 0.432253 0.000000
0.209933 0.432253 0.000000
0.257938 0.432253 0.000000
0.308407 0.432253 0.000000
0.360685 0.432253 0.000000
0.414130 0.432253 0.000000
0.468113 0.432253 0.000000
0.522020 0.432253 0.000000
0.575263 0.432253 0.000000
0.627275 0.432253 0.000000
0.677521 0.432253 0.000000
0.725496 0.432253 0.000000
0.770733 0.432253 0.000000
0.812801 0.432253 0.000000
0.851313 0.432253 0.000000
0.885925 0.432253 0.000000
0.916338 0.432253 0.000000
0.942300 0.432253 0.000000
0.963608 0.432253 0.000000
0.980106 0.432253 0.000000
0.991688 0.432253 0.000000
0.998298 0.432253 0.000000
0.999926 0.432253 0.000000
0.996611 0.432253 0.000000
0.988435 0.432253 0.000000
0.975528 0.432253 0.000000
0.000987 0.483232 0.000000
0.011740 0.483232 0.000000
0.030443 0.483232 0.000000
0.055939 0.483232 0.000000
0.087364 0.483232 0.000000
0.123970 0.483232 0.000000
0.165053 0.483232 0.000000
0.209933 0.483232 0.000000
0.257938 0.483232 0.000000
0.308407 0.483232 0.000000
0.360685 0.483232 0.000000
0.414130 0.483232 0.000000
0.468113 0.483232 0.000000
0.522020 0.483232 0.000000
0.575263 0.483232 0.000000
0.627275 0.483232 0.000000
0.677521 0.483232 0.000000
0.725496 0.483232 0.000000
0.770733 0.483232 0.000000
0.812801 0.483232 0.000000
0.851313 0.483232 0.000000
0.885925 0.483232 0.000000
0.916338 0.483232 0.000000
0.942300 0.483232 0.000000
0.963608 0.483232 0.000000
0.980106 0.483232 0.000000
0.991688 0.483232 0.000000
0.998298 0.483232 0.000000
0.999926 0.483232 0.000000
0.996611 0.483232 0.000000
0.988435 0.483232 0.000000
0.975528 0.483232 0.000000
0.000987 0.534204 0.000000
0.011740 0.534204 0.000000
0.030443 0.534204 0.000000
0.055939 0.534204 0.000000
0.087364 0.534204 0.000000
0.123970 0.534204 0.000000
0.165053 0.534204 0.000000
0.209933 0.534204 0.000000
0.257938 0.534204 0.000000
0.308407 0.534204 0.000000
0.360685 0.534204 0.000000
0.414130 0.534204 0.000000
0.468113 0.534204 0.000000
0.522020 0.534204 0.000000
0.575263 0.534204 0.000000
0.627275 0.534204 0.000000
0.677521 0.534204 0.000000
0.725496 0.534204 0.000000
0.770733 0.534204 0.000000
0.812801 0.534204 0.000000
0.851313 0.534204 0.000000
0.885925 0.534204 0.000000
0.916338 0.534204 0.000000
0.942300 0.534204 0.000000
0.963608 0.534204 0.000000
0.980106 0.534204 0.000000
0.991688 0.534204 0.000000
0.998298 0.534204 0.000000
0.999926 0.534204 0.000000
0.996611 0.534204 0.000000
0.988435 0.534204 0.000000
0.975528 0.534204 0.000000
0.000987 0.584653 0.000000
0.011740 0.584653 0.000000
0.030443 0.584653 0.000000
0.055939 0.584653 0.000000
0.087364 0.584653 0.000000
0.123970 0.584653 0.000000
0.165053 0.584653 0.000000
0.209933 0.584653 0.000000
0.257938 0.584653 0.000000
0.308407 0.584653 0.000000
0.360685 0.584653 0.000000
0.414130 0.584653 0.000000
0.468113 0.584653 0.000000
0.522020 0.584653 0.000000
0.575263 0.584653 0.000000
0.627275 0.584653 0.000000
0.677521 0.584653 0.000000
0.725496 0.584653 0.000000
0.770733 0.584653 0.000000
0.812801 0.584653 0.000000
0.851313 0.584653 0.000000
0.885925 0.584653 0.000000
0.916338 0.584653 0.000000
0.942300 0.584653 0.000000
0.963608 0.584653 0.000000
0.980106 0.584653 0.000000
0.991688 0.584653 0.000000
0.998298 0.584653 0.000000
0.999926 0.584653 0.000000
0.996611 0.584653 0.000000
0.988435 0.584653 0.000000
0.975528 0.584653 0.000000
0.000987 0.634075 0.000000
0.011740 0.634075 0.000000
0.030443 0.634075 0.000000
0.055939 0.634075 0.000000
0.087364 0.634075 0.000000
0.123970 0.634075 0.000000
0.165053 0.634075 0.000000
0.209933 0.634075 0.000000
0.257938 0.634075 0.000000
0.308407 0.634075 0.000000
0.360685 0.634075 0.000000
0.414130 0.634075 0.000000
0.468113 0.634075 0.000000
0.522020 0.634075 0.000000
0.575263 0.634075 0.000000
0.627275 0.634075 0.000000
0.677521 0.634075 0.000000
0.725496 0.634075 0.000000
0.770733 0.634075 0.000000
0.812801 0.634075 0.000000
0.851313 0.634075 0.000000
0.885925 0.634075 0.000000
0.916338 0.634075 0.000000
0.942300 0.634075 0.000000
0.963608 0.634075 0.000000
0.980106 0.634075 0.000000
0.991688 0.634075 0.000000
0.998298 0.634075 0.000000
0.999926 0.634075 0.000000
0.996611 0.634075 0.000000
0.988435 0.634075 0.000000
0.975528 0.634075 0.000000
0.000987 0.681982 0.000000
0.011740 0.681982 0.000000
0.030443 0.681982 0.000000
0.055939 0.681982 0.000000
0.087364 0.681982 0.000000
0.123970 0.681982 0.000000
0.165053 0.681982 0.000000
0.209933 0.681982 0.000000
0.257938 0.681982 0.000000
0.308407 0.681982 0.000000
0.360685 0.681982 0.000000
0.414130 0.681982 0.000000
0.468113 0.681982 0.000000
0.522020 0.681982 0.000000
0.575263 0.681982 0.000000
0.627275 0.681982 0.000000
0.677521 0.681982 0.000000
0.725496 0.681982 0.000000
0.770733 0.681982 0.000000
0.812801 0.681982 0.000000
0.851313 0.681982 0.000000
0.885925 0.681982 0.000000
0.916338 0.681982 0.000000
0.942300 0.681982 0.000000
0.963608 0.681982 0.000000
0.980106 0.681982 0.000000
0.991688 0.681982 0.000000
0.998298 0.681982 0.000000
0.999926 0.681982 0.000000
0.996611 0.681982 0.000000
0.988435 0.681982 0.000000
0.975528 0.681982 0.000000
0.000987 0.727908 0.000000
0.011740 0.727908 0.000000
0.030443 0.727908 0.000000
0.055939 0.727908 0.000000
0.087364 0.727908 0.000000
0.123970 0.727908 0.000000
0.165053 0.727908 0.000000
0.209933 0.727908 0.000000
0.257938 0.727908 0.000000
0.308407 0.727908 0.000000
0.360685 0.727908 0.000000
0.414130 0.727908 0.000000
0.468113 0.727908 0.000000
0.522020 0.727908 0.000000
0.575263 0.727908 0.000000
0.627275 0.727908 0.000000
0.677521 0.727908 0.000000
0.725496 0.727908 0.000000
0.770733 0.727908 0.000000
0.812801 0.727908 0.000000
0.851313 0.727908 0.000000
0.885925 0.727908 0.000000
0.916338 0.727908 0.000000
0.942300 0.727908 0.000000
0.963608 0.727908 0.000000
0.980106 0.727908 0.000000
0.991688 0.727908 0.000000
0.998298 0.727908 0.000000
0.999926 0.727908 0.000000
0.996611 0.727908 0.000000
0.988435 0.727908 0.000000
0.975528 0.727908 0.000000
0.000987 0.771410 0.000000
0.011740 0.771410 0.000000
0.030443 0.771410 0.000000
0.055939 0.771410 0.000000
0.087364 0.771410 0.000000
0.123970 0.771410 0.000000
0.165053 0.771410 0.000000
0.209933 0.771410 0.000000
0.257938 0.771410 0.000000
0.308407 0.771410 0.000000
0.360685 0.771410 0.000000
0.414130 0.771410 0.000000
0.468113 0.771410 0.000000
0.522020 0.771410 0.000000
0.575263 0.771410 0.000000
0.627275 0.771410 0.000000
0.677521 0.771410 0.000000
0.725496 0.771410 0.000000
0.770733 0.771410 0.000000
0.812801 0.771410 0.000000
0.851313 0.771410 0.000000
0.885925 0.771410 0.000000
0.916338 0.771410 0.000000
0.942300 0.771410 0.000000
0.963608 0.771410 0.000000
0.980106 0.771410 0.000000
0.991688 0.771410 0.000000
0.998298 0.771410 0.000000
0.999926 0.771410 0.000000
0.996611 0.771410 0.000000
0.988435 0.771410 0.000000
0.975528 0.771410 0.000000
0.000987 0.812075 0.000000
0.011740 0.812075 0.000000
0.030443 0.812075 0.000000
0.055939 0.812075 0.000000
0.087364 0.812075 0.000000
0.123970 0.812075 0.000000
0.165053 0.812075 0.000000
0.209933 0.812075 0.000000
0.257938 0.812075 0.000000
0.308407 0.812075 0.000000
0.360685 0.812075 0.000000
0.414130 0.812075 0.000000
0.468113 0.812075 0.000000
0.522020 0.812075 0.000000
0.575263 0.812075 0.000000
0.627275 0.812075 0.000000
0.677521 0.812075 0.000000
0.725496 0.812075 0.000000
0.770733 0.812075 0.000000
0.812801 0.812075 0.000000
0.851313 0.812075 0.000000
0.885925 0.812075 0.000000
0.916338 0.812075 0.000000
0.942300 0.812075 0.000000
0.963608 0.812075 0.000000
0.980106 0.812075 0.000000
0.991688 0.812075 0.000000
0.998298 0.812075 0.000000
0.999926 0.812075 0.000000
0.996611 0.812075 0.000000
0.988435 0.812075 0.000000
0.975528 0.812075 0.000000
0.000987 0.849521 0.000000
0.011740 0.849521 0.000000
0.030443 0.849521 0.000000
0.055939 0.849521 0.000000
0.087364 0.849521 0.000000
0.123970 0.849521 0.000000
0.165053 0.849521 0.000000
0.209933 0.849521 0.000000
0.257938 0.849521 0.000000
0.308407 0.849521 0.000000
0.360685 0.849521 0.000000
0.414130 0.849521 0.000000
0.468113 0.849521 0.000000
0.522020 0.849521 0.000000
0.575263 0.849521 0.000000
0.627275 0.849521 0.000000
0.677521 0.849521 0.000000
0.725496 0.849521 0.000000
0.770733 0.849521 0.000000
0.812801 0.849521 0.000000
0.851313 0.849521 0.000000
0.885925 0.849521 0.000000
0.916338 0.849521 0.000000
0.942300 0.849521 0.000000
0.963608 0.849521 0.000000
0.980106 0.849521 0.000000
0.991688 0.849521 0.000000
0.998298 0.849521 0.000000
0.999926 0.849521 0.000000
0.996611 0.849521 0.000000
0.988435 0.849521 0.000000
0.975528 0.849521 0.000000
0.000987 0.883401 0.000000
0.011740 0.883401 0.000000
0.030443 0.883401 0.000000
0.055939 0.883401 0.000000
0.087364 0.883401 0.000000
0.123970 0.883401 0.000000
0.165053 0.883401 0.000000
0.209933 0.883401 0.000000
0.257938 0.883401 0.000000
0.308407 0.883401 0.000000
0.360685 0.883401 0.000000
0.414130 0.883401 0.000000
0.468113 0.883401 0.000000
0.522020 0.883401 0.000000
0.575263 0.883401 0.000000
0.627275 0.883401 0.000000
0.677521 0.883401 0.000000
0.725496 0.883401 0.000000
0.770733 0.883401 0.000000
0.812801 0.883401 0.000000
0.851313 0.883401 0.000000
0.885925 0.883401 0.000000
0.916338 0.883401 0.000000
0.942300 0.883401 0.000000
0.963608 0.883401 0.000000
0.980106 0.883401 0.000000
0.991688 0.883401 0.000000
0.998298 0.883401 0.000000
0.999926 0.883401 0.000000
0.996611 0.883401 0.000000
0.988435 0.883401 0.000000
0.975528 0.883401 0.000000
0.000987 0.913406 0.000000
0.011740 0.913406 0.000000
0.030443 0.913406 0.000000
0.055939 0.913406 0.000000
0.087364 0.913406 0.000000
0.123970 0.913406 0.000000
0.165053 0.913406 0.000000
0.209933 0.913406 0.000000
0.257938 0.913406 0.000000
0.308407 0.913406 0.000000
0.360685 0.913406 0.000000
0.414130 0.913406 0.000000
0.468113 0.913406 0.000000
0.522020 0.913406 0.000000
0.575263 0.913406 0.000000
0.627275 0.913406 0.000000
0.677521 0.913406 0.000000
0.725496 0.913406 0.000000
0.770733 0.913406 0.000000
0.812801 0.913406 0.000000
0.851313 0.913406 0.000000
0.885925 0.913406 0.000000
0.916338 0.913406 0.000000
0.942300 0.913406 0.000000
0.963608 0.913406 0.000000
0.980106 0.913406 0.000000
0.991688 0.913406 0.000000
0.998298 0.913406 0.000000
0.999926 0.913406 0.000000
0.996611 0.913406 0.000000
0.988435 0.913406 0.000000
0.975528 0.913406 0.000000
0.000987 0.939265 0.000000
0.011740 0.939265 0.000000
0.030443 0.939265 0.000000
0.055939 0.939265 0.000000
0.087364 0.939265 0.000000
0.123970 0.939265 0.000000
0.165053 0.939265 0.000000
0.209933 0.939265 0.000000
0.257938 0.939265 0.000000
0.308407 0.939265 0.000000
0.360685 0.939265 0.000000
0.414130 0.939265 0.000000
0.468113 0.939265 0.000000
0.522020 0.939265 0.000000
0.575263 0.939265 0.000000
0.627275 0.939265 0.000000
0.677521 0.939265 0.000000
0.725496 0.939265 0.000000
0.770733 0.939265 0.000000
0.812801 0.939265 0.000000
0.851313 0.939265 0.000000
0.885925 0.939265 0.000000
0.916338 0.939265 0.000000
0.942300 0.939265 0.000000
0.963608 0.939265 0.000000
0.980106 0.939265 0.000000
0.991688 0.939265 0.000000
0.998298 0.939265 0.000000
0.999926 0.939265 0.000000
0.996611 0.939265 0.000000
0.988435 0.939265 0.000000
0.975528 0.939265 0.000000
0.000987 0.960753 0.000000
0.011740 0.960753 0.000000
0.030443 0.960753 0.000000
0.055939 0.960753 0.000000
0.087364 0.960753 0.000000
0.123970 0.960753 0.000000
0.165053 0.960753 0.000000
0.209933 0.960753 0.000000
0.257938 0.960753 0.000000
0.308407 0.960753 0.000000
0.360685 0.960753 0.000000
0.414130 0.960753 0.000000
0.468113 0.960753 0.000000
0.522020 0.960753 0.000000
0.575263 0.960753 0.000000
0.627275 0.960753 0.000000
0.677521 0.960753 0.000000
0.725496 0.960753 0.000000
0.770733 0.960753 0.000000
0.812801 0.960753 0.000000
0.851313 0.960753 0.000000
0.885925 0.960753 0.000000
0.916338 0.960753 0.000000
0.942300 0.960753 0.000000
0.963608 0.960753 0.000000
0.980106 0.960753 0.000000
0.991688 0.960753 0.000000
0.998298 0.960753 0.000000
0.999926 0.960753 0.000000
0.996611 0.960753 0.000000
0.988435 0.960753 0.000000
0.975528 0.960753 0.000000
0.000987 0.977686 0.000000
0.011740 0.977686 0.000000
0.030443 0.977686 0.000000
0.055939 0.977686 0.000000
0.087364 0.977686 0.000000
0.123970 0.977686 0.000000
0.165053 0.977686 0.000000
0.209933 0.977686 0.000000
0.257938 0.977686 0.000000
0.308407 0.977686 0.000000
0.360685 0.977686 0.000000
0.414130 0.977686 0.000000
0.468113 0.977686 0.000000
0.522020 0.977686 0.000000
0.575263 0.977686 0.000000
0.627275 0.977686 0.000000
0.677521 0.977686 0.000000
0.725496 0.977686 0.000000
0.770733 0.977686 0.000000
0.812801 0.977686 0.000000
0.851313 0.977686 0.000000
