app/src/main/assets/luts/fuji_superia.cube
TITLE "Fuji Superia"
LUT_3D_SIZE 5
DOMAIN_MIN 0.0 0.0 0.0
DOMAIN_MAX 1.0 1.0 1.0
0.020000 0.010000 0.030000
0.258300 0.010000 0.030000
0.503254 0.010000 0.030000
0.750783 0.010000 0.030000
1.000000 0.010000 0.030000
0.000000 0.292551 0.010734
0.254387 0.292551 0.000000
0.503254 0.292551 0.030000
0.750783 0.292551 0.030000
1.000000 0.292551 0.030000
0.000000 0.552082 0.010376
0.241419 0.552082 0.000000
0.500448 0.552082 0.000000
0.750783 0.552082 0.030000
1.000000 0.552082 0.030000
0.000000 0.803580 0.010255
0.237154 0.803580 0.000000
0.491607 0.803580 0.000000
0.748736 0.803580 0.000000
1.000000 0.803580 0.030000
0.000000 1.000000 0.010204
0.235361 1.000000 0.000000
0.487891 1.000000 0.000000
0.743075 1.000000 0.000000
1.000000 1.000000 0.000000
0.020000 0.010000 0.294739
0.258300 0.010000 0.294739
0.503254 0.010000 0.294739
0.750783 0.010000 0.294739
1.000000 0.010000 0.294739
0.020000 0.292551 0.294739
0.258300 0.292551 0.294739
0.503254 0.292551 0.294739
0.750783 0.292551 0.294739
1.000000 0.292551 0.294739
0.000000 0.552082 0.285066
0.184855 0.552082 0.230404
0.491047 0.552082 0.230404
0.750783 0.552082 0.294739
1.000000 0.552082 0.294739
0.000000 0.803580 0.281752
0.121980 0.803580 0.167529
0.428172 0.803580 0.167529
0.737584 0.803580 0.167529
1.000000 0.803580 0.294739
0.000000 1.000000 0.280346
0.072876 1.000000 0.118424
0.379068 1.000000 0.118424
0.688479 1.000000 0.118424
1.000000 1.000000 0.118424
0.020000 0.010000 0.552189
0.258300 0.010000 0.552189
0.503254 0.010000 0.552189
0.750783 0.010000 0.552189
1.000000 0.010000 0.552189
0.020000 0.292551 0.552189
0.258300 0.292551 0.552189
0.503254 0.292551 0.552189
0.750783 0.292551 0.552189
1.000000 0.292551 0.552189
0.020000 0.552082 0.552189
0.258300 0.552082 0.552189
0.503254 0.552082 0.552189
0.750783 0.552082 0.552189
1.000000 0.552082 0.552189
0.000000 0.803580 0.545773
0.121980 0.803580 0.489341
0.428172 0.803580 0.489341
0.737584 0.803580 0.489341
1.000000 0.803580 0.552189
0.000000 1.000000 0.543050
0.072876 1.000000 0.440236
0.379068 1.000000 0.440236
0.688479 1.000000 0.440236
1.000000 1.000000 0.440236
0.020000 0.010000 0.806957
0.258300 0.010000 0.806957
0.503254 0.010000 0.806957
0.750783 0.010000 0.806957
1.000000 0.010000 0.806957
0.020000 0.292551 0.806957
0.258300 0.292551 0.806957
0.503254 0.292551 0.806957
0.750783 0.292551 0.806957
1.000000 0.292551 0.806957
0.020000 0.552082 0.806957
0.258300 0.552082 0.806957
0.503254 0.552082 0.806957
0.750783 0.552082 0.806957
1.000000 0.552082 0.806957
0.020000 0.803580 0.806957
0.258300 0.803580 0.806957
0.503254 0.803580 0.806957
0.750783 0.803580 0.806957
1.000000 0.803580 0.806957
0.000000 1.000000 0.803018
0.072876 1.000000 0.758697
0.379068 1.000000 0.758697
0.688479 1.000000 0.758697
1.000000 1.000000 0.758697
0.020000 0.010000 1.000000
0.258300 0.010000 1.000000
0.503254 0.010000 1.000000
0.750783 0.010000 1.000000
1.000000 0.010000 1.000000
0.020000 0.292551 1.000000
0.258300 0.292551 1.000000
0.503254 0.292551 1.000000
0.750783 0.292551 1.000000
1.000000 0.292551 1.000000
0.020000 0.552082 1.000000
0.258300 0.552082 1.000000
0.503254 0.552082 1.000000
0.750783 0.552082 1.000000
1.000000 0.552082 1.000000
0.020000 0.803580 1.000000
0.258300 0.803580 1.000000
0.503254 0.803580 1.000000
0.750783 0.803580 1.000000
1.000000 0.803580 1.000000
0.000000 1.000000 1.000000
0.072876 1.000000 1.000000
0.379068 1.000000 1.000000
0.688479 1.000000 1.000000
1.000000 1.000000 1.000000
