app/src/main/assets/luts/fuji_superia.cube
TITLE "Fuji Superia"
LUT_3D_SIZE 9
DOMAIN_MIN 0.0 0.0 0.0
DOMAIN_MAX 1.0 1.0 1.0
0.020000 0.010000 0.030000
0.137510 0.010000 0.030000
0.258300 0.010000 0.030000
0.380361 0.010000 0.030000
0.503254 0.010000 0.030000
0.626769 0.010000 0.030000
0.750783 0.010000 0.030000
0.875213 0.010000 0.030000
1.000000 0.010000 0.030000
0.000000 0.157275 0.011457
0.132851 0.157275 0.000000
0.258300 0.157275 0.030000
0.380361 0.157275 0.030000
0.503254 0.157275 0.030000
0.626769 0.157275 0.030000
0.750783 0.157275 0.030000
0.875213 0.157275 0.030000
1.000000 0.157275 0.030000
0.000000 0.292551 0.010734
0.119794 0.292551 0.000000
0.254387 0.292551 0.000000
0.380361 0.292551 0.030000
0.503254 0.292551 0.030000
0.626769 0.292551 0.030000
0.750783 0.292551 0.030000
0.875213 0.292551 0.030000
1.000000 0.292551 0.030000
0.000000 0.423640 0.010495
0.115703 0.423640 0.000000
0.245700 0.423640 0.000000
0.377063 0.423640 0.000000
0.503254 0.423640 0.030000
0.626769 0.423640 0.030000
0.750783 0.423640 0.030000
0.875213 0.423640 0.030000
1.000000 0.423640 0.030000
0.000000 0.552082 0.010376
0.113688 0.552082 0.000000
0.241419 0.552082 0.000000
0.370494 0.552082 0.000000
0.500448 0.552082 0.000000
0.626769 0.552082 0.030000
0.750783 0.552082 0.030000
0.875213 0.552082 0.030000
1.000000 0.552082 0.030000
0.000000 0.678591 0.010304
0.112483 0.678591 0.000000
0.238860 0.678591 0.000000
0.366567 0.678591 0.000000
0.495144 0.678591 0.000000
0.624372 0.678591 0.000000
0.750783 0.678591 0.030000
0.875213 0.678591 0.030000
1.000000 0.678591 0.030000
0.000000 0.803580 0.010255
0.111679 0.803580 0.000000
0.237154 0.803580 0.000000
0.363948 0.803580 0.000000
0.491607 0.803580 0.000000
0.619913 0.803580 0.000000
0.748736 0.803580 0.000000
0.875213 0.803580 0.030000
1.000000 0.803580 0.030000
0.000000 0.927320 0.010220
0.111104 0.927320 0.000000
0.235933 0.927320 0.000000
0.362075 0.927320 0.000000
0.489076 0.927320 0.000000
0.616721 0.927320 0.000000
0.744881 0.927320 0.000000
0.873471 0.927320 0.000000
1.000000 0.927320 0.030000
0.000000 1.000000 0.010204
0.110835 1.000000 0.000000
0.235361 1.000000 0.000000
0.361197 1.000000 0.000000
0.487891 1.000000 0.000000
0.615226 1.000000 0.000000
0.743075 1.000000 0.000000
0.871354 1.000000 0.000000
1.000000 1.000000 0.000000
0.020000 0.010000 0.164217
0.137510 0.010000 0.164217
0.258300 0.010000 0.164217
0.380361 0.010000 0.164217
0.503254 0.010000 0.164217
0.626769 0.010000 0.164217
0.750783 0.010000 0.164217
0.875213 0.010000 0.164217
1.000000 0.010000 0.164217
0.020000 0.157275 0.164217
0.137510 0.157275 0.164217
0.258300 0.157275 0.164217
0.380361 0.157275 0.164217
0.503254 0.157275 0.164217
0.626769 0.157275 0.164217
0.750783 0.157275 0.164217
0.875213 0.157275 0.164217
1.000000 0.157275 0.164217
0.000000 0.292551 0.154800
0.098750 0.292551 0.132134
0.249738 0.292551 0.132134
0.380361 0.292551 0.164217
0.503254 0.292551 0.164217
0.626769 0.292551 0.164217
0.750783 0.292551 0.164217
0.875213 0.292551 0.164217
1.000000 0.292551 0.164217
0.000000 0.423640 0.151363
0.065977 0.423640 0.099362
0.216966 0.423640 0.099362
0.369541 0.423640 0.099362
0.503254 0.423640 0.164217
0.626769 0.423640 0.164217
0.750783 0.423640 0.164217
0.875213 0.423640 0.164217
1.000000 0.423640 0.164217
0.000000 0.552082 0.149638
0.033867 0.552082 0.067251
0.184855 0.552082 0.067251
0.337431 0.552082 0.067251
0.491047 0.552082 0.067251
0.626769 0.552082 0.164217
0.750783 0.552082 0.164217
0.875213 0.552082 0.164217
1.000000 0.552082 0.164217
0.000000 0.678591 0.148597
0.002240 0.678591 0.035624
0.153228 0.678591 0.035624
0.305804 0.678591 0.035624
0.459420 0.678591 0.035624
0.613814 0.678591 0.035624
0.750783 0.678591 0.164217
0.875213 0.678591 0.164217
1.000000 0.678591 0.164217
0.000000 0.803580 0.147898
0.000000 0.803580 0.032221
0.121980 0.803580 0.004377
0.274556 0.803580 0.004377
0.428172 0.803580 0.004377
0.582567 0.803580 0.004377
0.737584 0.803580 0.004377
0.875213 0.803580 0.164217
1.000000 0.803580 0.164217
0.000000 0.927320 0.147396
0.000000 0.927320 0.031358
0.114329 0.927320 0.000000
0.262657 0.927320 0.000000
0.411996 0.927320 0.000000
0.562092 0.927320 0.000000
0.712793 0.927320 0.000000
0.864000 0.927320 0.000000
1.000000 0.927320 0.164217
0.000000 1.000000 0.147161
0.000000 1.000000 0.030966
0.112569 1.000000 0.000000
0.258612 1.000000 0.000000
0.405652 1.000000 0.000000
0.553436 1.000000 0.000000
0.701816 1.000000 0.000000
0.850694 1.000000 0.000000
1.000000 1.000000 0.000000
0.020000 0.010000 0.294739
0.137510 0.010000 0.294739
0.258300 0.010000 0.294739
0.380361 0.010000 0.294739
0.503254 0.010000 0.294739
0.626769 0.010000 0.294739
0.750783 0.010000 0.294739
0.875213 0.010000 0.294739
1.000000 0.010000 0.294739
0.020000 0.157275 0.294739
0.137510 0.157275 0.294739
0.258300 0.157275 0.294739
0.380361 0.157275 0.294739
0.503254 0.157275 0.294739
0.626769 0.157275 0.294739
0.750783 0.157275 0.294739
0.875213 0.157275 0.294739
1.000000 0.157275 0.294739
0.020000 0.292551 0.294739
0.137510 0.292551 0.294739
0.258300 0.292551 0.294739
0.380361 0.292551 0.294739
0.503254 0.292551 0.294739
0.626769 0.292551 0.294739
0.750783 0.292551 0.294739
0.875213 0.292551 0.294739
1.000000 0.292551 0.294739
0.000000 0.423640 0.288352
0.065977 0.423640 0.262514
0.216966 0.423640 0.262514
0.369541 0.423640 0.262514
0.503254 0.423640 0.294739
0.626769 0.423640 0.294739
0.750783 0.423640 0.294739
0.875213 0.423640 0.294739
1.000000 0.423640 0.294739
0.000000 0.552082 0.285066
0.033867 0.552082 0.230404
0.184855 0.552082 0.230404
0.337431 0.552082 0.230404
0.491047 0.552082 0.230404
0.626769 0.552082 0.294739
0.750783 0.552082 0.294739
0.875213 0.552082 0.294739
1.000000 0.552082 0.294739
0.000000 0.678591 0.283083
0.002240 0.678591 0.198776
0.153228 0.678591 0.198776
0.305804 0.678591 0.198776
0.459420 0.678591 0.198776
0.613814 0.678591 0.198776
0.750783 0.678591 0.294739
0.875213 0.678591 0.294739
1.000000 0.678591 0.294739
0.000000 0.803580 0.281752
0.000000 0.803580 0.189689
0.121980 0.803580 0.167529
0.274556 0.803580 0.167529
0.428172 0.803580 0.167529
0.582567 0.803580 0.167529
0.737584 0.803580 0.167529
0.875213 0.803580 0.294739
1.000000 0.803580 0.294739
0.000000 0.927320 0.280795
0.000000 0.927320 0.184604
0.091046 0.927320 0.136594
0.243621 0.927320 0.136594
0.397238 0.927320 0.136594
0.551632 0.927320 0.136594
0.706649 0.927320 0.136594
0.862186 0.927320 0.136594
1.000000 0.927320 0.294739
0.000000 1.000000 0.280346
0.000000 1.000000 0.182297
0.072876 1.000000 0.118424
0.225451 1.000000 0.118424
0.379068 1.000000 0.118424
0.533462 1.000000 0.118424
0.688479 1.000000 0.118424
0.844016 1.000000 0.118424
1.000000 1.000000 0.118424
0.020000 0.010000 0.423902
0.137510 0.010000 0.423902
0.258300 0.010000 0.423902
0.380361 0.010000 0.423902
0.503254 0.010000 0.423902
0.626769 0.010000 0.423902
0.750783 0.010000 0.423902
0.875213 0.010000 0.423902
1.000000 0.010000 0.423902
0.020000 0.157275 0.423902
0.137510 0.157275 0.423902
0.258300 0.157275 0.423902
0.380361 0.157275 0.423902
0.503254 0.157275 0.423902
0.626769 0.157275 0.423902
0.750783 0.157275 0.423902
0.875213 0.157275 0.423902
1.000000 0.157275 0.423902
0.020000 0.292551 0.423902
0.137510 0.292551 0.423902
0.258300 0.292551 0.423902
0.380361 0.292551 0.423902
0.503254 0.292551 0.423902
0.626769 0.292551 0.423902
0.750783 0.292551 0.423902
0.875213 0.292551 0.423902
1.000000 0.292551 0.423902
0.020000 0.423640 0.423902
0.137510 0.423640 0.423902
0.258300 0.423640 0.423902
0.380361 0.423640 0.423902
0.503254 0.423640 0.423902
0.626769 0.423640 0.423902
0.750783 0.423640 0.423902
0.875213 0.423640 0.423902
1.000000 0.423640 0.423902
0.000000 0.552082 0.419084
0.033867 0.552082 0.391857
0.184855 0.552082 0.391857
0.337431 0.552082 0.391857
0.491047 0.552082 0.391857
0.626769 0.552082 0.423902
0.750783 0.552082 0.423902
0.875213 0.552082 0.423902
1.000000 0.552082 0.423902
0.000000 0.678591 0.416167
0.002240 0.678591 0.360229
0.153228 0.678591 0.360229
0.305804 0.678591 0.360229
0.459420 0.678591 0.360229
0.613814 0.678591 0.360229
0.750783 0.678591 0.423902
0.875213 0.678591 0.423902
1.000000 0.678591 0.423902
0.000000 0.803580 0.414211
0.000000 0.803580 0.345517
0.121980 0.803580 0.328982
0.274556 0.803580 0.328982
0.428172 0.803580 0.328982
0.582567 0.803580 0.328982
0.737584 0.803580 0.328982
0.875213 0.803580 0.423902
1.000000 0.803580 0.423902
0.000000 0.927320 0.412805
0.000000 0.927320 0.336254
0.091046 0.927320 0.298047
0.243621 0.927320 0.298047
0.397238 0.927320 0.298047
0.551632 0.927320 0.298047
0.706649 0.927320 0.298047
0.862186 0.927320 0.298047
1.000000 0.927320 0.423902
0.000000 1.000000 0.412145
0.000000 1.000000 0.332052
0.072876 1.000000 0.279877
0.225451 1.000000 0.279877
0.379068 1.000000 0.279877
0.533462 1.000000 0.279877
0.688479 1.000000 0.279877
0.844016 1.000000 0.279877
1.000000 1.000000 0.279877
0.020000 0.010000 0.552189
0.137510 0.010000 0.552189
0.258300 0.010000 0.552189
0.380361 0.010000 0.552189
0.503254 0.010000 0.552189
0.626769 0.010000 0.552189
0.750783 0.010000 0.552189
0.875213 0.010000 0.552189
1.000000 0.010000 0.552189
0.020000 0.157275 0.552189
0.137510 0.157275 0.552189
0.258300 0.157275 0.552189
0.380361 0.157275 0.552189
0.503254 0.157275 0.552189
0.626769 0.157275 0.552189
0.750783 0.157275 0.552189
0.875213 0.157275 0.552189
1.000000 0.157275 0.552189
0.020000 0.292551 0.552189
0.137510 0.292551 0.552189
0.258300 0.292551 0.552189
0.380361 0.292551 0.552189
0.503254 0.292551 0.552189
0.626769 0.292551 0.552189
0.750783 0.292551 0.552189
0.875213 0.292551 0.552189
1.000000 0.292551 0.552189
0.020000 0.423640 0.552189
0.137510 0.423640 0.552189
0.258300 0.423640 0.552189
0.380361 0.423640 0.552189
0.503254 0.423640 0.552189
0.626769 0.423640 0.552189
0.750783 0.423640 0.552189
0.875213 0.423640 0.552189
1.000000 0.423640 0.552189
0.020000 0.552082 0.552189
0.137510 0.552082 0.552189
0.258300 0.552082 0.552189
0.380361 0.552082 0.552189
0.503254 0.552082 0.552189
0.626769 0.552082 0.552189
0.750783 0.552082 0.552189
0.875213 0.552082 0.552189
1.000000 0.552082 0.552189
0.000000 0.678591 0.548351
0.002240 0.678591 0.520589
0.153228 0.678591 0.520589
0.305804 0.678591 0.520589
0.459420 0.678591 0.520589
0.613814 0.678591 0.520589
0.750783 0.678591 0.552189
0.875213 0.678591 0.552189
1.000000 0.678591 0.552189
0.000000 0.803580 0.545773
0.000000 0.803580 0.500290
0.121980 0.803580 0.489341
0.274556 0.803580 0.489341
0.428172 0.803580 0.489341
0.582567 0.803580 0.489341
0.737584 0.803580 0.489341
0.875213 0.803580 0.552189
1.000000 0.803580 0.552189
0.000000 0.927320 0.543920
0.000000 0.927320 0.486877
0.091046 0.927320 0.458406
0.243621 0.927320 0.458406
0.397238 0.927320 0.458406
0.551632 0.927320 0.458406
0.706649 0.927320 0.458406
0.862186 0.927320 0.458406
1.000000 0.927320 0.552189
0.000000 1.000000 0.543050
0.000000 1.000000 0.480793
0.072876 1.000000 0.440236
0.225451 1.000000 0.440236
0.379068 1.000000 0.440236
0.533462 1.000000 0.440236
0.688479 1.000000 0.440236
0.844016 1.000000 0.440236
1.000000 1.000000 0.440236
0.020000 0.010000 0.679830
0.137510 0.010000 0.679830
0.258300 0.010000 0.679830
0.380361 0.010000 0.679830
0.503254 0.010000 0.679830
0.626769 0.010000 0.679830
0.750783 0.010000 0.679830
0.875213 0.010000 0.679830
1.000000 0.010000 0.679830
0.020000 0.157275 0.679830
0.137510 0.157275 0.679830
0.258300 0.157275 0.679830
0.380361 0.157275 0.679830
0.503254 0.157275 0.679830
0.626769 0.157275 0.679830
0.750783 0.157275 0.679830
0.875213 0.157275 0.679830
1.000000 0.157275 0.679830
0.020000 0.292551 0.679830
0.137510 0.292551 0.679830
0.258300 0.292551 0.679830
0.380361 0.292551 0.679830
0.503254 0.292551 0.679830
0.626769 0.292551 0.679830
0.750783 0.292551 0.679830
0.875213 0.292551 0.679830
1.000000 0.292551 0.679830
0.020000 0.423640 0.679830
0.137510 0.423640 0.679830
0.258300 0.423640 0.679830
0.380361 0.423640 0.679830
0.503254 0.423640 0.679830
0.626769 0.423640 0.679830
0.750783 0.423640 0.679830
0.875213 0.423640 0.679830
1.000000 0.423640 0.679830
0.020000 0.552082 0.679830
0.137510 0.552082 0.679830
0.258300 0.552082 0.679830
0.380361 0.552082 0.679830
0.503254 0.552082 0.679830
0.626769 0.552082 0.679830
0.750783 0.552082 0.679830
0.875213 0.552082 0.679830
1.000000 0.552082 0.679830
0.020000 0.678591 0.679830
0.137510 0.678591 0.679830
0.258300 0.678591 0.679830
0.380361 0.678591 0.679830
0.503254 0.678591 0.679830
0.626769 0.678591 0.679830
0.750783 0.678591 0.679830
0.875213 0.678591 0.679830
1.000000 0.678591 0.679830
0.000000 0.803580 0.676671
0.000000 0.803580 0.654282
0.121980 0.803580 0.648892
0.274556 0.803580 0.648892
0.428172 0.803580 0.648892
0.582567 0.803580 0.648892
0.737584 0.803580 0.648892
0.875213 0.803580 0.679830
1.000000 0.803580 0.679830
0.000000 0.927320 0.674374
0.000000 0.927320 0.636741
0.091046 0.927320 0.617957
0.243621 0.927320 0.617957
0.397238 0.927320 0.617957
0.551632 0.927320 0.617957
0.706649 0.927320 0.617957
0.862186 0.927320 0.617957
1.000000 0.927320 0.679830
0.000000 1.000000 0.673296
0.000000 1.000000 0.628784
0.072876 1.000000 0.599787
0.225451 1.000000 0.599787
0.379068 1.000000 0.599787
0.533462 1.000000 0.599787
0.688479 1.000000 0.599787
0.844016 1.000000 0.599787
1.000000 1.000000 0.599787
0.020000 0.010000 0.806957
0.137510 0.010000 0.806957
0.258300 0.010000 0.806957
0.380361 0.010000 0.806957
0.503254 0.010000 0.806957
0.626769 0.010000 0.806957
0.750783 0.010000 0.806957
0.875213 0.010000 0.806957
1.000000 0.010000 0.806957
0.020000 0.157275 0.806957
0.137510 0.157275 0.806957
0.258300 0.157275 0.806957
0.380361 0.157275 0.806957
0.503254 0.157275 0.806957
0.626769 0.157275 0.806957
0.750783 0.157275 0.806957
0.875213 0.157275 0.806957
1.000000 0.157275 0.806957
0.020000 0.292551 0.806957
0.137510 0.292551 0.806957
0.258300 0.292551 0.806957
0.380361 0.292551 0.806957
0.503254 0.292551 0.806957
0.626769 0.292551 0.806957
0.750783 0.292551 0.806957
0.875213 0.292551 0.806957
1.000000 0.292551 0.806957
0.020000 0.423640 0.806957
0.137510 0.423640 0.806957
0.258300 0.423640 0.806957
0.380361 0.423640 0.806957
0.503254 0.423640 0.806957
0.626769 0.423640 0.806957
0.750783 0.423640 0.806957
0.875213 0.423640 0.806957
1.000000 0.423640 0.806957
0.020000 0.552082 0.806957
0.137510 0.552082 0.806957
0.258300 0.552082 0.806957
0.380361 0.552082 0.806957
0.503254 0.552082 0.806957
0.626769 0.552082 0.806957
0.750783 0.552082 0.806957
0.875213 0.552082 0.806957
1.000000 0.552082 0.806957
0.020000 0.678591 0.806957
0.137510 0.678591 0.806957
0.258300 0.678591 0.806957
0.380361 0.678591 0.806957
0.503254 0.678591 0.806957
0.626769 0.678591 0.806957
0.750783 0.678591 0.806957
0.875213 0.678591 0.806957
1.000000 0.678591 0.806957
0.020000 0.803580 0.806957
0.137510 0.803580 0.806957
0.258300 0.803580 0.806957
0.380361 0.803580 0.806957
0.503254 0.803580 0.806957
0.626769 0.803580 0.806957
0.750783 0.803580 0.806957
0.875213 0.803580 0.806957
1.000000 0.803580 0.806957
0.000000 0.927320 0.804304
0.000000 0.927320 0.786002
0.091046 0.927320 0.776867
0.243621 0.927320 0.776867
0.397238 0.927320 0.776867
0.551632 0.927320 0.776867
0.706649 0.927320 0.776867
0.862186 0.927320 0.776867
1.000000 0.927320 0.806957
0.000000 1.000000 0.803018
0.000000 1.000000 0.776180
0.072876 1.000000 0.758697
0.225451 1.000000 0.758697
0.379068 1.000000 0.758697
0.533462 1.000000 0.758697
0.688479 1.000000 0.758697
0.844016 1.000000 0.758697
1.000000 1.000000 0.758697
0.020000 0.010000 0.933660
0.137510 0.010000 0.933660
0.258300 0.010000 0.933660
0.380361 0.010000 0.933660
0.503254 0.010000 0.933660
0.626769 0.010000 0.933660
0.750783 0.010000 0.933660
0.875213 0.010000 0.933660
1.000000 0.010000 0.933660
0.020000 0.157275 0.933660
0.137510 0.157275 0.933660
0.258300 0.157275 0.933660
0.380361 0.157275 0.933660
0.503254 0.157275 0.933660
0.626769 0.157275 0.933660
0.750783 0.157275 0.933660
0.875213 0.157275 0.933660
1.000000 0.157275 0.933660
0.020000 0.292551 0.933660
0.137510 0.292551 0.933660
0.258300 0.292551 0.933660
0.380361 0.292551 0.933660
0.503254 0.292551 0.933660
0.626769 0.292551 0.933660
0.750783 0.292551 0.933660
0.875213 0.292551 0.933660
1.000000 0.292551 0.933660
0.020000 0.423640 0.933660
0.137510 0.423640 0.933660
0.258300 0.423640 0.933660
0.380361 0.423640 0.933660
0.503254 0.423640 0.933660
0.626769 0.423640 0.933660
0.750783 0.423640 0.933660
0.875213 0.423640 0.933660
1.000000 0.423640 0.933660
0.020000 0.552082 0.933660
0.137510 0.552082 0.933660
0.258300 0.552082 0.933660
0.380361 0.552082 0.933660
0.503254 0.552082 0.933660
0.626769 0.552082 0.933660
0.750783 0.552082 0.933660
0.875213 0.552082 0.933660
1.000000 0.552082 0.933660
0.020000 0.678591 0.933660
0.137510 0.678591 0.933660
0.258300 0.678591 0.933660
0.380361 0.678591 0.933660
0.503254 0.678591 0.933660
0.626769 0.678591 0.933660
0.750783 0.678591 0.933660
0.875213 0.678591 0.933660
1.000000 0.678591 0.933660
0.020000 0.803580 0.933660
0.137510 0.803580 0.933660
0.258300 0.803580 0.933660
0.380361 0.803580 0.933660
0.503254 0.803580 0.933660
0.626769 0.803580 0.933660
0.750783 0.803580 0.933660
0.875213 0.803580 0.933660
1.000000 0.803580 0.933660
0.020000 0.927320 0.933660
0.137510 0.927320 0.933660
0.258300 0.927320 0.933660
0.380361 0.927320 0.933660
0.503254 0.927320 0.933660
0.626769 0.927320 0.933660
0.750783 0.927320 0.933660
0.875213 0.927320 0.933660
1.000000 0.927320 0.933660
0.000000 1.000000 0.932306
0.000000 1.000000 0.923083
0.072876 1.000000 0.917075
0.225451 1.000000 0.917075
0.379068 1.000000 0.917075
0.533462 1.000000 0.917075
0.688479 1.000000 0.917075
0.844016 1.000000 0.917075
1.000000 1.000000 0.917075
0.020000 0.010000 1.000000
0.137510 0.010000 1.000000
0.258300 0.010000 1.000000
0.380361 0.010000 1.000000
0.503254 0.010000 1.000000
0.626769 0.010000 1.000000
0.750783 0.010000 1.000000
0.875213 0.010000 1.000000
1.000000 0.010000 1.000000
0.020000 0.157275 1.000000
0.137510 0.157275 1.000000
0.258300 0.157275 1.000000
0.380361 0.157275 1.000000
0.503254 0.157275 1.000000
0.626769 0.157275 1.000000
0.750783 0.157275 1.000000
0.875213 0.157275 1.000000
1.000000 0.157275 1.000000
0.020000 0.292551 1.000000
0.137510 0.292551 1.000000
0.258300 0.292551 1.000000
0.380361 0.292551 1.000000
0.503254 0.292551 1.000000
0.626769 0.292551 1.000000
0.750783 0.292551 1.000000
0.875213 0.292551 1.000000
1.000000 0.292551 1.000000
0.020000 0.423640 1.000000
0.137510 0.423640 1.000000
0.258300 0.423640 1.000000
0.380361 0.423640 1.000000
0.503254 0.423640 1.000000
0.626769 0.423640 1.000000
0.750783 0.423640 1.000000
0.875213 0.423640 1.000000
1.000000 0.423640 1.000000
0.020000 0.552082 1.000000
0.137510 0.552082 1.000000
0.258300 0.552082 1.000000
0.380361 0.552082 1.000000
0.503254 0.552082 1.000000
0.626769 0.552082 1.000000
0.750783 0.552082 1.000000
0.875213 0.552082 1.000000
1.000000 0.552082 1.000000
0.020000 0.678591 1.000000
0.137510 0.678591 1.000000
0.258300 0.678591 1.000000
0.380361 0.678591 1.000000
0.503254 0.678591 1.000000
0.626769 0.678591 1.000000
0.750783 0.678591 1.000000
0.875213 0.678591 1.000000
1.000000 0.678591 1.000000
0.020000 0.803580 1.000000
0.137510 0.803580 1.000000
0.258300 0.803580 1.000000
0.380361 0.803580 1.000000
0.503254 0.803580 1.000000
0.626769 0.803580 1.000000
0.750783 0.803580 1.000000
0.875213 0.803580 1.000000
1.000000 0.803580 1.000000
0.020000 0.927320 1.000000
0.137510 0.927320 1.000000
0.258300 0.927320 1.000000
0.380361 0.927320 1.000000
0.503254 0.927320 1.000000
0.626769 0.927320 1.000000
0.750783 0.927320 1.000000
0.875213 0.927320 1.000000
1.000000 0.927320 1.000000
0.000000 1.000000 1.000000
0.000000 1.000000 1.000000
0.072876 1.000000 1.000000
0.225451 1.000000 1.000000
0.379068 1.000000 1.000000
0.533462 1.000000 1.000000
0.688479 1.000000 1.000000
0.844016 1.000000 1.000000
1.000000 1.000000 1.000000
