app/src/main/assets/luts/fuji_superia.cube
TITLE "Fuji Superia"
LUT_3D_SIZE 33
DOMAIN_MIN 0.0 0.0 0.0
DOMAIN_MAX 1.0 1.0 1.0
0.020000 0.010000 0.030000
0.048574 0.010000 0.030000
0.077946 0.010000 0.030000
0.107627 0.010000 0.030000
0.137510 0.010000 0.030000
0.167544 0.010000 0.030000
0.197700 0.010000 0.030000
0.227957 0.010000 0.030000
0.258300 0.010000 0.030000
0.288720 0.010000 0.030000
0.319208 0.010000 0.030000
0.349757 0.010000 0.030000
0.380361 0.010000 0.030000
0.411017 0.010000 0.030000
0.441720 0.010000 0.030000
0.472466 0.010000 0.030000
0.503254 0.010000 0.030000
0.534080 0.010000 0.030000
0.564943 0.010000 0.030000
0.595840 0.010000 0.030000
0.626769 0.010000 0.030000
0.657730 0.010000 0.030000
0.688720 0.010000 0.030000
0.719738 0.010000 0.030000
0.750783 0.010000 0.030000
0.781854 0.010000 0.030000
0.812950 0.010000 0.030000
0.844070 0.010000 0.030000
0.875213 0.010000 0.030000
0.906378 0.010000 0.030000
0.937565 0.010000 0.030000
0.968772 0.010000 0.030000
1.000000 0.010000 0.030000
0.012497 0.050012 0.024997
0.048215 0.050012 0.024997
0.077946 0.050012 0.030000
0.107627 0.050012 0.030000
0.137510 0.050012 0.030000
0.167544 0.050012 0.030000
0.197700 0.050012 0.030000
0.227957 0.050012 0.030000
0.258300 0.050012 0.030000
0.288720 0.050012 0.030000
0.319208 0.050012 0.030000
0.349757 0.050012 0.030000
0.380361 0.050012 0.030000
0.411017 0.050012 0.030000
0.441720 0.050012 0.030000
0.472466 0.050012 0.030000
0.503254 0.050012 0.030000
0.534080 0.050012 0.030000
0.564943 0.050012 0.030000
0.595840 0.050012 0.030000
0.626769 0.050012 0.030000
0.657730 0.050012 0.030000
0.688720 0.050012 0.030000
0.719738 0.050012 0.030000
0.750783 0.050012 0.030000
0.781854 0.050012 0.030000
0.812950 0.050012 0.030000
0.844070 0.050012 0.030000
0.875213 0.050012 0.030000
0.906378 0.050012 0.030000
0.937565 0.050012 0.030000
0.968772 0.050012 0.030000
1.000000 0.050012 0.030000
0.003309 0.086765 0.015809
0.039027 0.086765 0.015809
0.075741 0.086765 0.015809
0.107627 0.086765 0.030000
0.137510 0.086765 0.030000
0.167544 0.086765 0.030000
0.197700 0.086765 0.030000
0.227957 0.086765 0.030000
0.258300 0.086765 0.030000
0.288720 0.086765 0.030000
0.319208 0.086765 0.030000
0.349757 0.086765 0.030000
0.380361 0.086765 0.030000
0.411017 0.086765 0.030000
0.441720 0.086765 0.030000
0.472466 0.086765 0.030000
0.503254 0.086765 0.030000
0.534080 0.086765 0.030000
0.564943 0.086765 0.030000
0.595840 0.086765 0.030000
0.626769 0.086765 0.030000
0.657730 0.086765 0.030000
0.688720 0.086765 0.030000
0.719738 0.086765 0.030000
0.750783 0.086765 0.030000
0.781854 0.086765 0.030000
0.812950 0.086765 0.030000
0.844070 0.086765 0.030000
0.875213 0.086765 0.030000
0.906378 0.086765 0.030000
0.937565 0.086765 0.030000
0.968772 0.086765 0.030000
1.000000 0.086765 0.030000
0.000000 0.122379 0.011954
0.030123 0.122379 0.006905
0.066838 0.122379 0.006905
0.103939 0.122379 0.006905
0.137510 0.122379 0.030000
0.167544 0.122379 0.030000
0.197700 0.122379 0.030000
0.227957 0.122379 0.030000
0.258300 0.122379 0.030000
0.288720 0.122379 0.030000
0.319208 0.122379 0.030000
0.349757 0.122379 0.030000
0.380361 0.122379 0.030000
0.411017 0.122379 0.030000
0.441720 0.122379 0.030000
0.472466 0.122379 0.030000
0.503254 0.122379 0.030000
0.534080 0.122379 0.030000
0.564943 0.122379 0.030000
0.595840 0.122379 0.030000
0.626769 0.122379 0.030000
0.657730 0.122379 0.030000
0.688720 0.122379 0.030000
0.719738 0.122379 0.030000
0.750783 0.122379 0.030000
0.781854 0.122379 0.030000
0.812950 0.122379 0.030000
0.844070 0.122379 0.030000
0.875213 0.122379 0.030000
0.906378 0.122379 0.030000
0.937565 0.122379 0.030000
0.968772 0.122379 0.030000
1.000000 0.122379 0.030000
0.000000 0.157275 0.011457
0.022952 0.157275 0.000000
0.059247 0.157275 0.000000
0.095924 0.157275 0.000000
0.132851 0.157275 0.000000
0.167544 0.157275 0.030000
0.197700 0.157275 0.030000
0.227957 0.157275 0.030000
0.258300 0.157275 0.030000
0.288720 0.157275 0.030000
0.319208 0.157275 0.030000
0.349757 0.157275 0.030000
0.380361 0.157275 0.030000
0.411017 0.157275 0.030000
0.441720 0.157275 0.030000
0.472466 0.157275 0.030000
0.503254 0.157275 0.030000
0.534080 0.157275 0.030000
0.564943 0.157275 0.030000
0.595840 0.157275 0.030000
0.626769 0.157275 0.030000
0.657730 0.157275 0.030000
0.688720 0.157275 0.030000
0.719738 0.157275 0.030000
0.750783 0.157275 0.030000
0.781854 0.157275 0.030000
0.812950 0.157275 0.030000
0.844070 0.157275 0.030000
0.875213 0.157275 0.030000
0.906378 0.157275 0.030000
0.937565 0.157275 0.030000
0.968772 0.157275 0.030000
1.000000 0.157275 0.030000
0.000000 0.191645 0.011165
0.022021 0.191645 0.000000
0.056844 0.191645 0.000000
0.092034 0.191645 0.000000
0.127463 0.191645 0.000000
0.163071 0.191645 0.000000
0.197700 0.191645 0.030000
0.227957 0.191645 0.030000
0.258300 0.191645 0.030000
0.288720 0.191645 0.030000
0.319208 0.191645 0.030000
0.349757 0.191645 0.030000
0.380361 0.191645 0.030000
0.411017 0.191645 0.030000
0.441720 0.191645 0.030000
0.472466 0.191645 0.030000
0.503254 0.191645 0.030000
0.534080 0.191645 0.030000
0.564943 0.191645 0.030000
0.595840 0.191645 0.030000
0.626769 0.191645 0.030000
0.657730 0.191645 0.030000
0.688720 0.191645 0.030000
0.719738 0.191645 0.030000
0.750783 0.191645 0.030000
0.781854 0.191645 0.030000
0.812950 0.191645 0.030000
0.844070 0.191645 0.030000
0.875213 0.191645 0.030000
0.906378 0.191645 0.030000
0.937565 0.191645 0.030000
0.968772 0.191645 0.030000
1.000000 0.191645 0.030000
0.000000 0.225603 0.010973
0.021423 0.225603 0.000000
0.055300 0.225603 0.000000
0.089533 0.225603 0.000000
0.123999 0.225603 0.000000
0.158640 0.225603 0.000000
0.193420 0.225603 0.000000
0.227957 0.225603 0.030000
0.258300 0.225603 0.030000
0.288720 0.225603 0.030000
0.319208 0.225603 0.030000
0.349757 0.225603 0.030000
0.380361 0.225603 0.030000
0.411017 0.225603 0.030000
0.441720 0.225603 0.030000
0.472466 0.225603 0.030000
0.503254 0.225603 0.030000
0.534080 0.225603 0.030000
0.564943 0.225603 0.030000
0.595840 0.225603 0.030000
0.626769 0.225603 0.030000
0.657730 0.225603 0.030000
0.688720 0.225603 0.030000
0.719738 0.225603 0.030000
0.750783 0.225603 0.030000
0.781854 0.225603 0.030000
0.812950 0.225603 0.030000
0.844070 0.225603 0.030000
0.875213 0.225603 0.030000
0.906378 0.225603 0.030000
0.937565 0.225603 0.030000
0.968772 0.225603 0.030000
1.000000 0.225603 0.030000
0.000000 0.259221 0.010836
0.021005 0.259221 0.000000
0.054221 0.259221 0.000000
0.087786 0.259221 0.000000
0.121581 0.259221 0.000000
0.155546 0.259221 0.000000
0.189648 0.259221 0.000000
0.223865 0.259221 0.000000
0.258180 0.259221 0.000000
0.288720 0.259221 0.030000
0.319208 0.259221 0.030000
0.349757 0.259221 0.030000
0.380361 0.259221 0.030000
0.411017 0.259221 0.030000
0.441720 0.259221 0.030000
0.472466 0.259221 0.030000
0.503254 0.259221 0.030000
0.534080 0.259221 0.030000
0.564943 0.259221 0.030000
0.595840 0.259221 0.030000
0.626769 0.259221 0.030000
0.657730 0.259221 0.030000
0.688720 0.259221 0.030000
0.719738 0.259221 0.030000
0.750783 0.259221 0.030000
0.781854 0.259221 0.030000
0.812950 0.259221 0.030000
0.844070 0.259221 0.030000
0.875213 0.259221 0.030000
0.906378 0.259221 0.030000
0.937565 0.259221 0.030000
0.968772 0.259221 0.030000
1.000000 0.259221 0.030000
0.000000 0.292551 0.010734
0.020696 0.292551 0.000000
0.053425 0.292551 0.000000
0.086497 0.292551 0.000000
0.119794 0.292551 0.000000
0.153261 0.292551 0.000000
0.186862 0.292551 0.000000
0.220576 0.292551 0.000000
0.254387 0.292551 0.000000
0.288283 0.292551 0.000000
0.319208 0.292551 0.030000
0.349757 0.292551 0.030000
0.380361 0.292551 0.030000
0.411017 0.292551 0.030000
0.441720 0.292551 0.030000
0.472466 0.292551 0.030000
0.503254 0.292551 0.030000
0.534080 0.292551 0.030000
0.564943 0.292551 0.030000
0.595840 0.292551 0.030000
0.626769 0.292551 0.030000
0.657730 0.292551 0.030000
0.688720 0.292551 0.030000
0.719738 0.292551 0.030000
0.750783 0.292551 0.030000
0.781854 0.292551 0.030000
0.812950 0.292551 0.030000
0.844070 0.292551 0.030000
0.875213 0.292551 0.030000
0.906378 0.292551 0.030000
0.937565 0.292551 0.030000
0.968772 0.292551 0.030000
1.000000 0.292551 0.030000
0.000000 0.325631 0.010654
0.020459 0.325631 0.000000
0.052811 0.325631 0.000000
0.085504 0.325631 0.000000
0.118420 0.325631 0.000000
0.151502 0.325631 0.000000
0.184718 0.325631 0.000000
0.218045 0.325631 0.000000
0.251468 0.325631 0.000000
0.284975 0.325631 0.000000
0.318556 0.325631 0.000000
0.349757 0.325631 0.030000
0.380361 0.325631 0.030000
0.411017 0.325631 0.030000
0.441720 0.325631 0.030000
0.472466 0.325631 0.030000
0.503254 0.325631 0.030000
0.534080 0.325631 0.030000
0.564943 0.325631 0.030000
0.595840 0.325631 0.030000
0.626769 0.325631 0.030000
0.657730 0.325631 0.030000
0.688720 0.325631 0.030000
0.719738 0.325631 0.030000
0.750783 0.325631 0.030000
0.781854 0.325631 0.030000
0.812950 0.325631 0.030000
0.844070 0.325631 0.030000
0.875213 0.325631 0.030000
0.906378 0.325631 0.030000
0.937565 0.325631 0.030000
0.968772 0.325631 0.030000
1.000000 0.325631 0.030000
0.000000 0.358492 0.010591
0.020270 0.358492 0.000000
0.052325 0.358492 0.000000
0.084716 0.358492 0.000000
0.117328 0.358492 0.000000
0.150106 0.358492 0.000000
0.183015 0.358492 0.000000
0.216035 0.358492 0.000000
0.249150 0.358492 0.000000
0.282348 0.358492 0.000000
0.315620 0.358492 0.000000
0.348959 0.358492 0.000000
0.380361 0.358492 0.030000
0.411017 0.358492 0.030000
0.441720 0.358492 0.030000
0.472466 0.358492 0.030000
0.503254 0.358492 0.030000
0.534080 0.358492 0.030000
0.564943 0.358492 0.030000
0.595840 0.358492 0.030000
0.626769 0.358492 0.030000
0.657730 0.358492 0.030000
0.688720 0.358492 0.030000
0.719738 0.358492 0.030000
0.750783 0.358492 0.030000
0.781854 0.358492 0.030000
0.812950 0.358492 0.030000
0.844070 0.358492 0.030000
0.875213 0.358492 0.030000
0.906378 0.358492 0.030000
0.937565 0.358492 0.030000
0.968772 0.358492 0.030000
1.000000 0.358492 0.030000
0.000000 0.391155 0.010539
0.020117 0.391155 0.000000
0.051929 0.391155 0.000000
0.084075 0.391155 0.000000
0.116440 0.391155 0.000000
0.148970 0.391155 0.000000
0.181630 0.391155 0.000000
0.214400 0.391155 0.000000
0.247265 0.391155 0.000000
0.280211 0.391155 0.000000
0.313232 0.391155 0.000000
0.346318 0.391155 0.000000
0.379465 0.391155 0.000000
0.411017 0.391155 0.030000
0.441720 0.391155 0.030000
0.472466 0.391155 0.030000
0.503254 0.391155 0.030000
0.534080 0.391155 0.030000
0.564943 0.391155 0.030000
0.595840 0.391155 0.030000
0.626769 0.391155 0.030000
0.657730 0.391155 0.030000
0.688720 0.391155 0.030000
0.719738 0.391155 0.030000
0.750783 0.391155 0.030000
0.781854 0.391155 0.030000
0.812950 0.391155 0.030000
0.844070 0.391155 0.030000
0.875213 0.391155 0.030000
0.906378 0.391155 0.030000
0.937565 0.391155 0.030000
0.968772 0.391155 0.030000
1.000000 0.391155 0.030000
0.000000 0.423640 0.010495
0.019990 0.423640 0.000000
0.051600 0.423640 0.000000
0.083543 0.423640 0.000000
0.115703 0.423640 0.000000
0.148027 0.423640 0.000000
0.180481 0.423640 0.000000
0.213043 0.423640 0.000000
0.245700 0.423640 0.000000
0.278438 0.423640 0.000000
0.311249 0.423640 0.000000
0.344126 0.423640 0.000000
0.377063 0.423640 0.000000
0.410055 0.423640 0.000000
0.441720 0.423640 0.030000
0.472466 0.423640 0.030000
0.503254 0.423640 0.030000
0.534080 0.423640 0.030000
0.564943 0.423640 0.030000
0.595840 0.423640 0.030000
0.626769 0.423640 0.030000
0.657730 0.423640 0.030000
0.688720 0.423640 0.030000
0.719738 0.423640 0.030000
0.750783 0.423640 0.030000
0.781854 0.423640 0.030000
0.812950 0.423640 0.030000
0.844070 0.423640 0.030000
0.875213 0.423640 0.030000
0.906378 0.423640 0.030000
0.937565 0.423640 0.030000
0.968772 0.423640 0.030000
1.000000 0.423640 0.030000
0.000000 0.455963 0.010459
0.019882 0.455963 0.000000
0.051323 0.455963 0.000000
0.083094 0.455963 0.000000
0.115082 0.455963 0.000000
0.147231 0.455963 0.000000
0.179511 0.455963 0.000000
0.211899 0.455963 0.000000
0.244379 0.455963 0.000000
0.276942 0.455963 0.000000
0.309576 0.455963 0.000000
0.342277 0.455963 0.000000
0.375037 0.455963 0.000000
0.407851 0.455963 0.000000
0.440716 0.455963 0.000000
0.472466 0.455963 0.030000
0.503254 0.455963 0.030000
0.534080 0.455963 0.030000
0.564943 0.455963 0.030000
0.595840 0.455963 0.030000
0.626769 0.455963 0.030000
0.657730 0.455963 0.030000
0.688720 0.455963 0.030000
0.719738 0.455963 0.030000
0.750783 0.455963 0.030000
0.781854 0.455963 0.030000
0.812950 0.455963 0.030000
0.844070 0.455963 0.030000
0.875213 0.455963 0.030000
0.906378 0.455963 0.030000
0.937565 0.455963 0.030000
0.968772 0.455963 0.030000
1.000000 0.455963 0.030000
0.000000 0.488137 0.010427
0.019790 0.488137 0.000000
0.051086 0.488137 0.000000
0.082710 0.488137 0.000000
0.114550 0.488137 0.000000
0.146551 0.488137 0.000000
0.178681 0.488137 0.000000
0.210919 0.488137 0.000000
0.243250 0.488137 0.000000
0.275662 0.488137 0.000000
0.308146 0.488137 0.000000
0.340695 0.488137 0.000000
0.373304 0.488137 0.000000
0.405967 0.488137 0.000000
0.438680 0.488137 0.000000
0.471440 0.488137 0.000000
0.503254 0.488137 0.030000
0.534080 0.488137 0.030000
0.564943 0.488137 0.030000
0.595840 0.488137 0.030000
0.626769 0.488137 0.030000
0.657730 0.488137 0.030000
0.688720 0.488137 0.030000
0.719738 0.488137 0.030000
0.750783 0.488137 0.030000
0.781854 0.488137 0.030000
0.812950 0.488137 0.030000
0.844070 0.488137 0.030000
0.875213 0.488137 0.030000
0.906378 0.488137 0.030000
0.937565 0.488137 0.030000
0.968772 0.488137 0.030000
1.000000 0.488137 0.030000
0.000000 0.520174 0.010400
0.019711 0.520174 0.000000
0.050880 0.520174 0.000000
0.082378 0.520174 0.000000
0.114090 0.520174 0.000000
0.145962 0.520174 0.000000
0.177964 0.520174 0.000000
0.210072 0.520174 0.000000
0.242273 0.520174 0.000000
0.274555 0.520174 0.000000
0.306908 0.520174 0.000000
0.339327 0.520174 0.000000
0.371804 0.520174 0.000000
0.404336 0.520174 0.000000
0.436918 0.520174 0.000000
0.469546 0.520174 0.000000
0.502218 0.520174 0.000000
0.534080 0.520174 0.030000
0.564943 0.520174 0.030000
0.595840 0.520174 0.030000
0.626769 0.520174 0.030000
0.657730 0.520174 0.030000
0.688720 0.520174 0.030000
0.719738 0.520174 0.030000
0.750783 0.520174 0.030000
0.781854 0.520174 0.030000
0.812950 0.520174 0.030000
0.844070 0.520174 0.030000
0.875213 0.520174 0.030000
0.906378 0.520174 0.030000
0.937565 0.520174 0.030000
0.968772 0.520174 0.030000
1.000000 0.520174 0.030000
0.000000 0.552082 0.010376
0.019641 0.552082 0.000000
0.050701 0.552082 0.000000
0.082087 0.552082 0.000000
0.113688 0.552082 0.000000
0.145448 0.552082 0.000000
0.177336 0.552082 0.000000
0.209332 0.552082 0.000000
0.241419 0.552082 0.000000
0.273587 0.552082 0.000000
0.305826 0.552082 0.000000
0.338131 0.552082 0.000000
0.370494 0.552082 0.000000
0.402911 0.552082 0.000000
0.435378 0.552082 0.000000
0.467891 0.552082 0.000000
0.500448 0.552082 0.000000
0.533046 0.552082 0.000000
0.564943 0.552082 0.030000
0.595840 0.552082 0.030000
0.626769 0.552082 0.030000
0.657730 0.552082 0.030000
0.688720 0.552082 0.030000
0.719738 0.552082 0.030000
0.750783 0.552082 0.030000
0.781854 0.552082 0.030000
0.812950 0.552082 0.030000
0.844070 0.552082 0.030000
0.875213 0.552082 0.030000
0.906378 0.552082 0.030000
0.937565 0.552082 0.030000
0.968772 0.552082 0.030000
1.000000 0.552082 0.030000
0.000000 0.583871 0.010355
0.019580 0.583871 0.000000
0.050543 0.583871 0.000000
0.081831 0.583871 0.000000
0.113333 0.583871 0.000000
0.144994 0.583871 0.000000
0.176783 0.583871 0.000000
0.208679 0.583871 0.000000
0.240666 0.583871 0.000000
0.272734 0.583871 0.000000
0.304873 0.583871 0.000000
0.337076 0.583871 0.000000
0.369338 0.583871 0.000000
0.401654 0.583871 0.000000
0.434020 0.583871 0.000000
0.466432 0.583871 0.000000
0.498887 0.583871 0.000000
0.531383 0.583871 0.000000
0.563918 0.583871 0.000000
0.595840 0.583871 0.030000
0.626769 0.583871 0.030000
0.657730 0.583871 0.030000
0.688720 0.583871 0.030000
0.719738 0.583871 0.030000
0.750783 0.583871 0.030000
0.781854 0.583871 0.030000
0.812950 0.583871 0.030000
0.844070 0.583871 0.030000
0.875213 0.583871 0.030000
0.906378 0.583871 0.030000
0.937565 0.583871 0.030000
0.968772 0.583871 0.030000
1.000000 0.583871 0.030000
0.000000 0.615548 0.010336
0.019526 0.615548 0.000000
0.050403 0.615548 0.000000
0.081604 0.615548 0.000000
0.113018 0.615548 0.000000
0.144591 0.615548 0.000000
0.176292 0.615548 0.000000
0.208099 0.615548 0.000000
0.239997 0.615548 0.000000
0.271976 0.615548 0.000000
0.304025 0.615548 0.000000
0.336139 0.615548 0.000000
0.368312 0.615548 0.000000
0.400538 0.615548 0.000000
0.432814 0.615548 0.000000
0.465136 0.615548 0.000000
0.497501 0.615548 0.000000
0.529906 0.615548 0.000000
0.562350 0.615548 0.000000
0.594830 0.615548 0.000000
0.626769 0.615548 0.030000
0.657730 0.615548 0.030000
0.688720 0.615548 0.030000
0.719738 0.615548 0.030000
0.750783 0.615548 0.030000
0.781854 0.615548 0.030000
0.812950 0.615548 0.030000
0.844070 0.615548 0.030000
0.875213 0.615548 0.030000
0.906378 0.615548 0.030000
0.937565 0.615548 0.030000
0.968772 0.615548 0.030000
1.000000 0.615548 0.030000
0.000000 0.647119 0.010319
0.019477 0.647119 0.000000
0.050277 0.647119 0.000000
0.081400 0.647119 0.000000
0.112736 0.647119 0.000000
0.144231 0.647119 0.000000
0.175852 0.647119 0.000000
0.207580 0.647119 0.000000
0.239399 0.647119 0.000000
0.271297 0.647119 0.000000
0.303267 0.647119 0.000000
0.335301 0.647119 0.000000
0.367393 0.647119 0.000000
0.399539 0.647119 0.000000
0.431734 0.647119 0.000000
0.463976 0.647119 0.000000
0.496260 0.647119 0.000000
0.528585 0.647119 0.000000
0.560948 0.647119 0.000000
0.593347 0.647119 0.000000
0.625780 0.647119 0.000000
0.657730 0.647119 0.030000
0.688720 0.647119 0.030000
0.719738 0.647119 0.030000
0.750783 0.647119 0.030000
0.781854 0.647119 0.030000
0.812950 0.647119 0.030000
0.844070 0.647119 0.030000
0.875213 0.647119 0.030000
0.906378 0.647119 0.030000
0.937565 0.647119 0.030000
0.968772 0.647119 0.030000
1.000000 0.647119 0.030000
0.000000 0.678591 0.010304
0.019433 0.678591 0.000000
0.050164 0.678591 0.000000
0.081217 0.678591 0.000000
0.112483 0.678591 0.000000
0.143906 0.678591 0.000000
0.175457 0.678591 0.000000
0.207113 0.678591 0.000000
0.238860 0.678591 0.000000
0.270687 0.678591 0.000000
0.302585 0.678591 0.000000
0.334547 0.678591 0.000000
0.366567 0.678591 0.000000
0.398640 0.678591 0.000000
0.430763 0.678591 0.000000
0.462932 0.678591 0.000000
0.495144 0.678591 0.000000
0.527396 0.678591 0.000000
0.559686 0.678591 0.000000
0.592012 0.678591 0.000000
0.624372 0.678591 0.000000
0.656765 0.678591 0.000000
0.688720 0.678591 0.030000
0.719738 0.678591 0.030000
0.750783 0.678591 0.030000
0.781854 0.678591 0.030000
0.812950 0.678591 0.030000
0.844070 0.678591 0.030000
0.875213 0.678591 0.030000
0.906378 0.678591 0.030000
0.937565 0.678591 0.030000
0.968772 0.678591 0.030000
1.000000 0.678591 0.030000
0.000000 0.709969 0.010290
0.019394 0.709969 0.000000
0.050061 0.709969 0.000000
0.081052 0.709969 0.000000
0.112253 0.709969 0.000000
0.143613 0.709969 0.000000
0.175099 0.709969 0.000000
0.206691 0.709969 0.000000
0.238373 0.709969 0.000000
0.270135 0.709969 0.000000
0.301968 0.709969 0.000000
0.333864 0.709969 0.000000
0.365819 0.709969 0.000000
0.397827 0.709969 0.000000
0.429884 0.709969 0.000000
0.461988 0.709969 0.000000
0.494134 0.709969 0.000000
0.526320 0.709969 0.000000
0.558544 0.709969 0.000000
0.590805 0.709969 0.000000
0.623099 0.709969 0.000000
0.655425 0.709969 0.000000
0.687782 0.709969 0.000000
0.719738 0.709969 0.030000
0.750783 0.709969 0.030000
0.781854 0.709969 0.030000
0.812950 0.709969 0.030000
0.844070 0.709969 0.030000
0.875213 0.709969 0.030000
0.906378 0.709969 0.030000
0.937565 0.709969 0.030000
0.968772 0.709969 0.030000
1.000000 0.709969 0.030000
0.000000 0.741256 0.010277
0.019358 0.741256 0.000000
0.049968 0.741256 0.000000
0.080901 0.741256 0.000000
0.112045 0.741256 0.000000
0.143346 0.741256 0.000000
0.174773 0.741256 0.000000
0.206306 0.741256 0.000000
0.237930 0.741256 0.000000
0.269633 0.741256 0.000000
0.301406 0.741256 0.000000
0.333244 0.741256 0.000000
0.365139 0.741256 0.000000
0.397088 0.741256 0.000000
0.429085 0.741256 0.000000
0.461129 0.741256 0.000000
0.493215 0.741256 0.000000
0.525342 0.741256 0.000000
0.557506 0.741256 0.000000
0.589706 0.741256 0.000000
0.621940 0.741256 0.000000
0.654207 0.741256 0.000000
0.686504 0.741256 0.000000
0.718830 0.741256 0.000000
0.750783 0.741256 0.030000
0.781854 0.741256 0.030000
0.812950 0.741256 0.030000
0.844070 0.741256 0.030000
0.875213 0.741256 0.030000
0.906378 0.741256 0.030000
0.937565 0.741256 0.030000
0.968772 0.741256 0.030000
1.000000 0.741256 0.030000
0.000000 0.772459 0.010266
0.019325 0.772459 0.000000
0.049883 0.772459 0.000000
0.080763 0.772459 0.000000
0.111854 0.772459 0.000000
0.143102 0.772459 0.000000
0.174476 0.772459 0.000000
0.205955 0.772459 0.000000
0.237525 0.772459 0.000000
0.269174 0.772459 0.000000
0.300894 0.772459 0.000000
0.332677 0.772459 0.000000
0.364518 0.772459 0.000000
0.396412 0.772459 0.000000
0.428356 0.772459 0.000000
0.460345 0.772459 0.000000
0.492376 0.772459 0.000000
0.524448 0.772459 0.000000
0.556558 0.772459 0.000000
0.588703 0.772459 0.000000
0.620883 0.772459 0.000000
0.653094 0.772459 0.000000
0.685336 0.772459 0.000000
0.717608 0.772459 0.000000
0.749907 0.772459 0.000000
0.781854 0.772459 0.030000
0.812950 0.772459 0.030000
0.844070 0.772459 0.030000
0.875213 0.772459 0.030000
0.906378 0.772459 0.030000
0.937565 0.772459 0.030000
0.968772 0.772459 0.030000
1.000000 0.772459 0.030000
0.000000 0.803580 0.010255
0.019294 0.803580 0.000000
0.049805 0.803580 0.000000
0.080637 0.803580 0.000000
0.111679 0.803580 0.000000
0.142878 0.803580 0.000000
0.174204 0.803580 0.000000
0.205634 0.803580 0.000000
0.237154 0.803580 0.000000
0.268754 0.803580 0.000000
0.300424 0.803580 0.000000
0.332157 0.803580 0.000000
0.363948 0.803580 0.000000
0.395793 0.803580 0.000000
0.427686 0.803580 0.000000
0.459625 0.803580 0.000000
0.491607 0.803580 0.000000
0.523629 0.803580 0.000000
0.555688 0.803580 0.000000
0.587784 0.803580 0.000000
0.619913 0.803580 0.000000
0.652074 0.803580 0.000000
0.684266 0.803580 0.000000
0.716487 0.803580 0.000000
0.748736 0.803580 0.000000
0.781012 0.803580 0.000000
0.812950 0.803580 0.030000
0.844070 0.803580 0.030000
0.875213 0.803580 0.030000
0.906378 0.803580 0.030000
0.937565 0.803580 0.030000
0.968772 0.803580 0.030000
1.000000 0.803580 0.030000
0.000000 0.834624 0.010246
0.019267 0.834624 0.000000
0.049734 0.834624 0.000000
0.080521 0.834624 0.000000
0.111518 0.834624 0.000000
0.142673 0.834624 0.000000
0.173953 0.834624 0.000000
0.205338 0.834624 0.000000
0.236813 0.834624 0.000000
0.268367 0.834624 0.000000
0.299991 0.834624 0.000000
0.331679 0.834624 0.000000
0.363424 0.834624 0.000000
0.395223 0.834624 0.000000
0.427070 0.834624 0.000000
0.458963 0.834624 0.000000
0.490899 0.834624 0.000000
0.522875 0.834624 0.000000
0.554888 0.834624 0.000000
0.586937 0.834624 0.000000
0.619020 0.834624 0.000000
0.651134 0.834624 0.000000
0.683280 0.834624 0.000000
0.715455 0.834624 0.000000
0.747657 0.834624 0.000000
0.779887 0.834624 0.000000
0.812142 0.834624 0.000000
0.844070 0.834624 0.030000
0.875213 0.834624 0.030000
0.906378 0.834624 0.030000
0.937565 0.834624 0.030000
0.968772 0.834624 0.030000
1.000000 0.834624 0.030000
0.000000 0.865593 0.010237
0.019241 0.865593 0.000000
0.049667 0.865593 0.000000
0.080414 0.865593 0.000000
0.111370 0.865593 0.000000
0.142483 0.865593 0.000000
0.173721 0.865593 0.000000
0.205064 0.865593 0.000000
0.236497 0.865593 0.000000
0.268009 0.865593 0.000000
0.299591 0.865593 0.000000
0.331237 0.865593 0.000000
0.362940 0.865593 0.000000
0.394696 0.865593 0.000000
0.426501 0.865593 0.000000
0.458352 0.865593 0.000000
0.490245 0.865593 0.000000
0.522178 0.865593 0.000000
0.554149 0.865593 0.000000
0.586155 0.865593 0.000000
0.618195 0.865593 0.000000
0.650267 0.865593 0.000000
0.682370 0.865593 0.000000
0.714501 0.865593 0.000000
0.746661 0.865593 0.000000
0.778848 0.865593 0.000000
0.811060 0.865593 0.000000
