app/src/main/assets/luts/golden_hour.cube
TITLE "Golden Hour"
LUT_3D_SIZE 9
DOMAIN_MIN 0.0 0.0 0.0
DOMAIN_MAX 1.0 1.0 1.0
0.030000 0.010000 0.000000
0.209680 0.010000 0.000000
0.360678 0.010000 0.000000
0.502461 0.010000 0.000000
0.638572 0.010000 0.000000
0.770615 0.010000 0.000000
0.899505 0.010000 0.000000
1.000000 0.010000 0.000000
1.000000 0.010000 0.000000
0.030000 0.157275 0.000000
0.209680 0.157275 0.000000
0.360678 0.157275 0.000000
0.502461 0.157275 0.000000
0.638572 0.157275 0.000000
0.770615 0.157275 0.000000
0.899505 0.157275 0.000000
1.000000 0.157275 0.000000
1.000000 0.157275 0.000000
0.030000 0.292551 0.000000
0.209680 0.292551 0.000000
0.360678 0.292551 0.000000
0.502461 0.292551 0.000000
0.638572 0.292551 0.000000
0.770615 0.292551 0.000000
0.899505 0.292551 0.000000
1.000000 0.292551 0.000000
1.000000 0.292551 0.000000
0.030000 0.423640 0.000000
0.209680 0.423640 0.000000
0.360678 0.423640 0.000000
0.502461 0.423640 0.000000
0.638572 0.423640 0.000000
0.770615 0.423640 0.000000
0.899505 0.423640 0.000000
1.000000 0.423640 0.000000
1.000000 0.423640 0.000000
0.030000 0.552082 0.000000
0.209680 0.552082 0.000000
0.360678 0.552082 0.000000
0.502461 0.552082 0.000000
0.638572 0.552082 0.000000
0.770615 0.552082 0.000000
0.899505 0.552082 0.000000
1.000000 0.552082 0.000000
1.000000 0.552082 0.000000
0.030000 0.678591 0.000000
0.209680 0.678591 0.000000
0.360678 0.678591 0.000000
0.502461 0.678591 0.000000
0.638572 0.678591 0.000000
0.770615 0.678591 0.000000
0.899505 0.678591 0.000000
1.000000 0.678591 0.000000
1.000000 0.678591 0.000000
0.030000 0.803580 0.000000
0.209680 0.803580 0.000000
0.360678 0.803580 0.000000
0.502461 0.803580 0.000000
0.638572 0.803580 0.000000
0.770615 0.803580 0.000000
0.899505 0.803580 0.000000
1.000000 0.803580 0.000000
1.000000 0.803580 0.000000
0.030000 0.927320 0.000000
0.209680 0.927320 0.000000
0.360678 0.927320 0.000000
0.502461 0.927320 0.000000
0.638572 0.927320 0.000000
0.770615 0.927320 0.000000
0.899505 0.927320 0.000000
1.000000 0.927320 0.000000
1.000000 0.927320 0.000000
0.030000 1.000000 0.000000
0.209680 1.000000 0.000000
0.360678 1.000000 0.000000
0.502461 1.000000 0.000000
0.638572 1.000000 0.000000
0.770615 1.000000 0.000000
0.899505 1.000000 0.000000
1.000000 1.000000 0.000000
1.000000 1.000000 0.000000
0.023328 0.000000 0.070099
0.209680 0.000000 0.063109
0.360678 0.000000 0.061813
0.502461 0.000000 0.061319
0.638572 0.000000 0.061055
0.770615 0.000000 0.060889
0.899505 0.000000 0.060775
1.000000 0.000000 0.060706
1.000000 0.000000 0.060706
0.004545 0.157275 0.052664
0.209680 0.146794 0.042183
0.360678 0.116594 0.011983
0.502461 0.101310 0.000000
0.638572 0.097926 0.000000
0.770615 0.095900 0.000000
0.899505 0.094544 0.000000
1.000000 0.093748 0.000000
1.000000 0.093748 0.000000
0.000000 0.292551 0.044681
0.193105 0.292551 0.025608
0.360678 0.278926 0.011983
0.502461 0.258518 0.000000
0.638572 0.249883 0.000000
0.770615 0.244712 0.000000
0.899505 0.241253 0.000000
1.000000 0.239221 0.000000
1.000000 0.239221 0.000000
0.000000 0.423640 0.043155
0.167256 0.423640 0.000000
0.348194 0.423640 0.000000
0.502461 0.410861 0.000000
0.638572 0.397137 0.000000
0.770615 0.388919 0.000000
0.899505 0.383422 0.000000
1.000000 0.380192 0.000000
1.000000 0.380192 0.000000
0.000000 0.552082 0.042403
0.159881 0.552082 0.000000
0.332840 0.552082 0.000000
0.495244 0.552082 0.000000
0.638572 0.541417 0.000000
0.770615 0.530214 0.000000
0.899505 0.522719 0.000000
1.000000 0.518317 0.000000
1.000000 0.518317 0.000000
0.000000 0.678591 0.041954
0.155661 0.678591 0.000000
0.324054 0.678591 0.000000
0.482170 0.678591 0.000000
0.633961 0.678591 0.000000
0.770615 0.669382 0.000000
0.899505 0.659920 0.000000
1.000000 0.654362 0.000000
1.000000 0.654362 0.000000
0.000000 0.803580 0.041654
0.152921 0.803580 0.000000
0.318350 0.803580 0.000000
0.473683 0.803580 0.000000
0.622802 0.803580 0.000000
0.767464 0.803580 0.000000
0.899505 0.795473 0.000000
1.000000 0.788774 0.000000
1.000000 0.788774 0.000000
0.000000 0.927320 0.041439
0.150995 0.927320 0.000000
0.314341 0.927320 0.000000
0.467718 0.927320 0.000000
0.614959 0.927320 0.000000
0.757800 0.927320 0.000000
0.897230 0.927320 0.000000
1.000000 0.921841 0.000000
1.000000 0.921841 0.000000
0.000000 1.000000 0.041339
0.150103 1.000000 0.000000
0.312484 1.000000 0.000000
0.464954 1.000000 0.000000
0.611326 1.000000 0.000000
0.753323 1.000000 0.000000
0.891929 1.000000 0.000000
1.000000 1.000000 0.000000
1.000000 1.000000 0.000000
0.021324 0.000000 0.161045
0.209680 0.000000 0.158609
0.360678 0.000000 0.155352
0.502461 0.000000 0.154112
0.638572 0.000000 0.153448
0.770615 0.000000 0.153031
0.899505 0.000000 0.152743
1.000000 0.000000 0.152571
1.000000 0.000000 0.152571
0.003791 0.156521 0.161045
0.209680 0.146794 0.151318
0.360678 0.116594 0.121118
0.502461 0.088238 0.092762
0.638572 0.061016 0.065540
0.770615 0.034607 0.039131
0.899505 0.008829 0.013353
1.000000 0.000000 0.004474
1.000000 0.000000 0.004474
0.000000 0.292551 0.146019
0.193105 0.292551 0.134744
0.360678 0.278926 0.121118
0.502461 0.250569 0.092762
0.638572 0.223347 0.065540
0.770615 0.196938 0.039131
0.899505 0.171160 0.013353
1.000000 0.156750 0.000000
1.000000 0.156750 0.000000
0.000000 0.423640 0.141032
0.166888 0.423640 0.108526
0.348085 0.423640 0.108526
0.502461 0.407876 0.092762
0.638572 0.380654 0.065540
0.770615 0.354245 0.039131
0.899505 0.328467 0.013353
1.000000 0.313003 0.000000
1.000000 0.313003 0.000000
0.000000 0.552082 0.138575
0.141199 0.552082 0.082837
0.322397 0.552082 0.082837
0.492536 0.552082 0.082837
0.638572 0.534784 0.065540
0.770615 0.508376 0.039131
0.899505 0.482598 0.013353
1.000000 0.466100 0.000000
1.000000 0.466100 0.000000
0.000000 0.678591 0.137106
0.115897 0.678591 0.057536
0.297095 0.678591 0.057536
0.467234 0.678591 0.057536
0.630568 0.678591 0.057536
0.770615 0.660186 0.039131
0.899505 0.634408 0.013353
1.000000 0.616894 0.000000
1.000000 0.616894 0.000000
0.000000 0.803580 0.136127
0.090899 0.803580 0.032538
0.272097 0.803580 0.032538
0.442237 0.803580 0.032538
0.605570 0.803580 0.032538
0.764022 0.803580 0.032538
0.899505 0.784396 0.013353
1.000000 0.765876 0.000000
1.000000 0.765876 0.000000
0.000000 0.927320 0.135426
0.066152 0.927320 0.007790
0.247350 0.927320 0.007790
0.417489 0.927320 0.007790
0.580822 0.927320 0.007790
0.739274 0.927320 0.007790
0.893942 0.927320 0.007790
1.000000 0.913369 0.000000
1.000000 0.913369 0.000000
0.000000 1.000000 0.135098
0.057971 1.000000 0.000000
0.237954 1.000000 0.000000
0.406953 1.000000 0.000000
0.569192 1.000000 0.000000
0.726582 1.000000 0.000000
0.880214 1.000000 0.000000
1.000000 1.000000 0.000000
1.000000 1.000000 0.000000
0.020794 0.000000 0.261973
0.207604 0.000000 0.261973
0.360678 0.000000 0.259158
0.502461 0.000000 0.257090
0.638572 0.000000 0.255982
0.770615 0.000000 0.255286
0.899505 0.000000 0.254806
1.000000 0.000000 0.254518
1.000000 0.000000 0.254518
0.000000 0.143735 0.261973
0.199221 0.136335 0.261973
0.360678 0.116594 0.242232
0.502461 0.088238 0.213875
0.638572 0.061016 0.186653
0.770615 0.034607 0.160245
0.899505 0.008829 0.134467
1.000000 0.000000 0.124237
1.000000 0.000000 0.124237
0.000000 0.292551 0.258479
0.193105 0.292551 0.255857
0.360678 0.278926 0.242232
0.502461 0.250569 0.213875
0.638572 0.223347 0.186653
0.770615 0.196938 0.160245
0.899505 0.171160 0.134467
1.000000 0.151061 0.114368
1.000000 0.151061 0.114368
0.000000 0.423640 0.249652
0.166888 0.423640 0.229639
0.348085 0.423640 0.229639
0.502461 0.407876 0.213875
0.638572 0.380654 0.186653
0.770615 0.354245 0.160245
0.899505 0.328467 0.134467
1.000000 0.308368 0.114368
1.000000 0.308368 0.114368
0.000000 0.552082 0.245303
0.141199 0.552082 0.203951
0.322397 0.552082 0.203951
0.492536 0.552082 0.203951
0.638572 0.534784 0.186653
0.770615 0.508376 0.160245
0.899505 0.482598 0.134467
1.000000 0.462499 0.114368
1.000000 0.462499 0.114368
0.000000 0.678591 0.242703
0.115897 0.678591 0.178649
0.297095 0.678591 0.178649
0.467234 0.678591 0.178649
0.630568 0.678591 0.178649
0.770615 0.660186 0.160245
0.899505 0.634408 0.134467
1.000000 0.614309 0.114368
1.000000 0.614309 0.114368
0.000000 0.803580 0.240969
0.090899 0.803580 0.153651
0.272097 0.803580 0.153651
0.442237 0.803580 0.153651
0.605570 0.803580 0.153651
0.764022 0.803580 0.153651
0.899505 0.784396 0.134467
1.000000 0.764296 0.114368
1.000000 0.764296 0.114368
0.000000 0.927320 0.239728
0.066152 0.927320 0.128904
0.247350 0.927320 0.128904
0.417489 0.927320 0.128904
0.580822 0.927320 0.128904
0.739274 0.927320 0.128904
0.893942 0.927320 0.128904
1.000000 0.912784 0.114368
1.000000 0.912784 0.114368
0.000000 1.000000 0.239147
0.051616 1.000000 0.114368
0.232814 1.000000 0.114368
0.402953 1.000000 0.114368
0.566286 1.000000 0.114368
0.724738 1.000000 0.114368
0.879406 1.000000 0.114368
1.000000 1.000000 0.114368
1.000000 1.000000 0.114368
0.020556 0.000000 0.369984
0.205227 0.000000 0.369984
0.360419 0.000000 0.369984
0.502461 0.000000 0.367294
0.638572 0.000000 0.365711
0.770615 0.000000 0.364717
0.899505 0.000000 0.364031
1.000000 0.000000 0.363620
1.000000 0.000000 0.363620
0.000000 0.138506 0.369984
0.177619 0.114733 0.369984
0.358817 0.114733 0.369984
0.502461 0.088238 0.343489
0.638572 0.061016 0.316266
0.770615 0.034607 0.289858
0.899505 0.008829 0.264080
1.000000 0.000000 0.252406
1.000000 0.000000 0.252406
0.000000 0.285718 0.369984
0.177619 0.277064 0.369984
0.358817 0.277064 0.369984
0.502461 0.250569 0.343489
0.638572 0.223347 0.316266
0.770615 0.196938 0.289858
0.899505 0.171160 0.264080
1.000000 0.151061 0.243981
1.000000 0.151061 0.243981
0.000000 0.423640 0.365895
0.166888 0.423640 0.359253
0.348085 0.423640 0.359253
0.502461 0.407876 0.343489
0.638572 0.380654 0.316266
0.770615 0.354245 0.289858
0.899505 0.328467 0.264080
1.000000 0.308368 0.243981
1.000000 0.308368 0.243981
0.000000 0.552082 0.359520
0.141199 0.552082 0.333564
0.322397 0.552082 0.333564
0.492536 0.552082 0.333564
0.638572 0.534784 0.316266
0.770615 0.508376 0.289858
0.899505 0.482598 0.264080
1.000000 0.462499 0.243981
1.000000 0.462499 0.243981
0.000000 0.678591 0.355710
0.115897 0.678591 0.308263
0.297095 0.678591 0.308263
0.467234 0.678591 0.308263
0.630568 0.678591 0.308263
0.770615 0.660186 0.289858
0.899505 0.634408 0.264080
1.000000 0.614309 0.243981
1.000000 0.614309 0.243981
0.000000 0.803580 0.353169
0.090899 0.803580 0.283265
0.272097 0.803580 0.283265
0.442237 0.803580 0.283265
0.605570 0.803580 0.283265
0.764022 0.803580 0.283265
0.899505 0.784396 0.264080
1.000000 0.764296 0.243981
1.000000 0.764296 0.243981
0.000000 0.927320 0.351351
0.066152 0.927320 0.258517
0.247350 0.927320 0.258517
0.417489 0.927320 0.258517
0.580822 0.927320 0.258517
0.739274 0.927320 0.258517
0.893942 0.927320 0.258517
1.000000 0.912784 0.243981
1.000000 0.912784 0.243981
0.000000 1.000000 0.350499
0.051616 1.000000 0.243981
0.232814 1.000000 0.243981
0.402953 1.000000 0.243981
0.566286 1.000000 0.243981
0.724738 1.000000 0.243981
0.879406 1.000000 0.243981
1.000000 1.000000 0.243981
1.000000 1.000000 0.243981
0.020422 0.000000 0.483587
0.203896 0.000000 0.483587
0.358083 0.000000 0.483587
0.502461 0.000000 0.483204
0.638572 0.000000 0.481122
0.770615 0.000000 0.479814
0.899505 0.000000 0.478912
1.000000 0.000000 0.478371
1.000000 0.000000 0.478371
0.000000 0.135693 0.483587
0.154898 0.092012 0.483587
0.336096 0.092012 0.483587
0.502461 0.088238 0.479813
0.638572 0.061016 0.452591
0.770615 0.034607 0.426182
0.899505 0.008829 0.400404
1.000000 0.000000 0.387211
1.000000 0.000000 0.387211
0.000000 0.279916 0.483587
0.154898 0.254344 0.483587
0.336096 0.254344 0.483587
0.502461 0.250569 0.479813
0.638572 0.223347 0.452591
0.770615 0.196938 0.426182
0.899505 0.171160 0.400404
1.000000 0.151061 0.380305
1.000000 0.151061 0.380305
0.000000 0.419675 0.483587
0.154898 0.411651 0.483587
0.336096 0.411651 0.483587
0.502461 0.407876 0.479813
0.638572 0.380654 0.452591
0.770615 0.354245 0.426182
0.899505 0.328467 0.400404
1.000000 0.308368 0.380305
1.000000 0.308368 0.380305
0.000000 0.552082 0.479652
0.141199 0.552082 0.469888
0.322397 0.552082 0.469888
0.492536 0.552082 0.469888
0.638572 0.534784 0.452591
0.770615 0.508376 0.426182
0.899505 0.482598 0.400404
1.000000 0.462499 0.380305
1.000000 0.462499 0.380305
0.000000 0.678591 0.474568
0.115897 0.678591 0.444587
0.297095 0.678591 0.444587
0.467234 0.678591 0.444587
0.630568 0.678591 0.444587
0.770615 0.660186 0.426182
0.899505 0.634408 0.400404
1.000000 0.614309 0.380305
1.000000 0.614309 0.380305
0.000000 0.803580 0.471178
0.090899 0.803580 0.419589
0.272097 0.803580 0.419589
0.442237 0.803580 0.419589
0.605570 0.803580 0.419589
0.764022 0.803580 0.419589
0.899505 0.784396 0.400404
1.000000 0.764296 0.380305
1.000000 0.764296 0.380305
0.000000 0.927320 0.468752
0.066152 0.927320 0.394841
0.247350 0.927320 0.394841
0.417489 0.927320 0.394841
0.580822 0.927320 0.394841
0.739274 0.927320 0.394841
0.893942 0.927320 0.394841
1.000000 0.912784 0.380305
1.000000 0.912784 0.380305
0.000000 1.000000 0.467616
0.051616 1.000000 0.380305
0.232814 1.000000 0.380305
0.402953 1.000000 0.380305
0.566286 1.000000 0.380305
0.724738 1.000000 0.380305
0.879406 1.000000 0.380305
1.000000 1.000000 0.380305
1.000000 1.000000 0.380305
0.020338 0.000000 0.601856
0.203053 0.000000 0.601856
0.356603 0.000000 0.601856
0.500781 0.000000 0.601856
0.638572 0.000000 0.601272
0.770615 0.000000 0.599637
0.899505 0.000000 0.598510
1.000000 0.000000 0.597834
1.000000 0.000000 0.597834
0.000000 0.133952 0.601856
0.131244 0.068359 0.601856
0.312442 0.068359 0.601856
0.482581 0.068359 0.601856
0.638572 0.061016 0.594513
0.770615 0.034607 0.568104
0.899505 0.008829 0.542326
1.000000 0.000000 0.527551
1.000000 0.000000 0.527551
0.000000 0.276325 0.601856
0.131244 0.230690 0.601856
0.312442 0.230690 0.601856
0.482581 0.230690 0.601856
0.638572 0.223347 0.594513
0.770615 0.196938 0.568104
0.899505 0.171160 0.542326
1.000000 0.151061 0.522227
1.000000 0.151061 0.522227
0.000000 0.414291 0.601856
0.131244 0.387997 0.601856
0.312442 0.387997 0.601856
0.482581 0.387997 0.601856
0.638572 0.380654 0.594513
0.770615 0.354245 0.568104
0.899505 0.328467 0.542326
1.000000 0.308368 0.522227
1.000000 0.308368 0.522227
0.000000 0.549471 0.601856
0.131244 0.542127 0.601856
0.312442 0.542127 0.601856
0.482581 0.542127 0.601856
0.638572 0.534784 0.594513
0.770615 0.508376 0.568104
0.899505 0.482598 0.542326
1.000000 0.462499 0.522227
1.000000 0.462499 0.522227
0.000000 0.678591 0.598306
0.115897 0.678591 0.586509
0.297095 0.678591 0.586509
0.467234 0.678591 0.586509
0.630568 0.678591 0.586509
0.770615 0.660186 0.568104
0.899505 0.634408 0.542326
1.000000 0.614309 0.522227
1.000000 0.614309 0.522227
0.000000 0.803580 0.594033
0.090899 0.803580 0.561511
0.272097 0.803580 0.561511
0.442237 0.803580 0.561511
0.605570 0.803580 0.561511
0.764022 0.803580 0.561511
0.899505 0.784396 0.542326
1.000000 0.764296 0.522227
1.000000 0.764296 0.522227
0.000000 0.927320 0.590975
0.066152 0.927320 0.536763
0.247350 0.927320 0.536763
0.417489 0.927320 0.536763
0.580822 0.927320 0.536763
0.739274 0.927320 0.536763
0.893942 0.927320 0.536763
1.000000 0.912784 0.522227
1.000000 0.912784 0.522227
0.000000 1.000000 0.589542
0.051616 1.000000 0.522227
0.232814 1.000000 0.522227
0.402953 1.000000 0.522227
0.566286 1.000000 0.522227
0.724738 1.000000 0.522227
0.879406 1.000000 0.522227
1.000000 1.000000 0.522227
1.000000 1.000000 0.522227
0.020280 0.000000 0.724150
0.202476 0.000000 0.724150
0.355588 0.000000 0.724150
0.499356 0.000000 0.724150
0.637373 0.000000 0.724150
0.770615 0.000000 0.723539
0.899505 0.000000 0.722179
1.000000 0.000000 0.721364
1.000000 0.000000 0.721364
0.000000 0.132776 0.724150
0.106786 0.043900 0.724150
0.287984 0.043900 0.724150
0.458123 0.043900 0.724150
0.621456 0.043900 0.724150
0.770615 0.034607 0.714857
0.899505 0.008829 0.689079
1.000000 0.000000 0.672669
1.000000 0.000000 0.672669
0.000000 0.273898 0.724150
0.106786 0.206231 0.724150
0.287984 0.206231 0.724150
0.458123 0.206231 0.724150
0.621456 0.206231 0.724150
0.770615 0.196938 0.714857
0.899505 0.171160 0.689079
1.000000 0.151061 0.668980
1.000000 0.151061 0.668980
0.000000 0.410653 0.724150
0.106786 0.363538 0.724150
0.287984 0.363538 0.724150
0.458123 0.363538 0.724150
0.621456 0.363538 0.724150
0.770615 0.354245 0.714857
0.899505 0.328467 0.689079
1.000000 0.308368 0.668980
1.000000 0.308368 0.668980
0.000000 0.544646 0.724150
0.106786 0.517669 0.724150
0.287984 0.517669 0.724150
0.458123 0.517669 0.724150
0.621456 0.517669 0.724150
0.770615 0.508376 0.714857
0.899505 0.482598 0.689079
1.000000 0.462499 0.668980
1.000000 0.462499 0.668980
0.000000 0.676622 0.724150
0.106786 0.669479 0.724150
0.287984 0.669479 0.724150
0.458123 0.669479 0.724150
0.621456 0.669479 0.724150
0.770615 0.660186 0.714857
0.899505 0.634408 0.689079
1.000000 0.614309 0.668980
1.000000 0.614309 0.668980
0.000000 0.803580 0.721070
0.090899 0.803580 0.708264
0.272097 0.803580 0.708264
0.442237 0.803580 0.708264
0.605570 0.803580 0.708264
0.764022 0.803580 0.708264
0.899505 0.784396 0.689079
1.000000 0.764296 0.668980
1.000000 0.764296 0.668980
0.000000 0.927320 0.717358
0.066152 0.927320 0.683516
0.247350 0.927320 0.683516
0.417489 0.927320 0.683516
0.580822 0.927320 0.683516
0.739274 0.927320 0.683516
0.893942 0.927320 0.683516
1.000000 0.912784 0.668980
1.000000 0.912784 0.668980
0.000000 1.000000 0.715619
0.051616 1.000000 0.668980
0.232814 1.000000 0.668980
0.402953 1.000000 0.668980
0.566286 1.000000 0.668980
0.724738 1.000000 0.668980
0.879406 1.000000 0.668980
1.000000 1.000000 0.668980
1.000000 1.000000 0.668980
0.020238 0.000000 0.850000
0.202057 0.000000 0.850000
0.354853 0.000000 0.850000
0.498323 0.000000 0.850000
0.636055 0.000000 0.850000
0.769670 0.000000 0.850000
0.899505 0.000000 0.849443
1.000000 0.000000 0.848485
1.000000 0.000000 0.848485
0.000000 0.131931 0.850000
0.081616 0.018730 0.850000
0.262814 0.018730 0.850000
0.432953 0.018730 0.850000
0.596286 0.018730 0.850000
0.754738 0.018730 0.850000
0.899505 0.008829 0.840099
1.000000 0.000000 0.822006
1.000000 0.000000 0.822006
0.000000 0.272157 0.850000
0.081616 0.181061 0.850000
0.262814 0.181061 0.850000
0.432953 0.181061 0.850000
0.596286 0.181061 0.850000
0.754738 0.181061 0.850000
0.899505 0.171160 0.840099
1.000000 0.151061 0.820000
1.000000 0.151061 0.820000
0.000000 0.408042 0.850000
0.081616 0.338368 0.850000
0.262814 0.338368 0.850000
0.432953 0.338368 0.850000
0.596286 0.338368 0.850000
0.754738 0.338368 0.850000
0.899505 0.328467 0.840099
1.000000 0.308368 0.820000
1.000000 0.308368 0.820000
0.000000 0.541183 0.850000
0.081616 0.492499 0.850000
0.262814 0.492499 0.850000
0.432953 0.492499 0.850000
0.596286 0.492499 0.850000
0.754738 0.492499 0.850000
0.899505 0.482598 0.840099
1.000000 0.462499 0.820000
1.000000 0.462499 0.820000
0.000000 0.672320 0.850000
0.081616 0.644309 0.850000
0.262814 0.644309 0.850000
0.432953 0.644309 0.850000
0.596286 0.644309 0.850000
0.754738 0.644309 0.850000
0.899505 0.634408 0.840099
1.000000 0.614309 0.820000
1.000000 0.614309 0.820000
0.000000 0.801882 0.850000
0.081616 0.794296 0.850000
0.262814 0.794296 0.850000
0.432953 0.794296 0.850000
0.596286 0.794296 0.850000
0.754738 0.794296 0.850000
0.899505 0.784396 0.840099
1.000000 0.764296 0.820000
1.000000 0.764296 0.820000
0.000000 0.927320 0.847415
0.066152 0.927320 0.834536
0.247350 0.927320 0.834536
0.417489 0.927320 0.834536
0.580822 0.927320 0.834536
0.739274 0.927320 0.834536
0.893942 0.927320 0.834536
1.000000 0.912784 0.820000
1.000000 0.912784 0.820000
0.000000 1.000000 0.845361
0.051616 1.000000 0.820000
0.232814 1.000000 0.820000
0.402953 1.000000 0.820000
0.566286 1.000000 0.820000
0.724738 1.000000 0.820000
0.879406 1.000000 0.820000
1.000000 1.000000 0.820000
1.000000 1.000000 0.820000
