app/src/main/assets/luts/golden_hour.cube
TITLE "Golden Hour"
LUT_3D_SIZE 33
DOMAIN_MIN 0.0 0.0 0.0
DOMAIN_MAX 1.0 1.0 1.0
0.030000 0.010000 0.000000
0.083050 0.010000 0.000000
0.127632 0.010000 0.000000
0.169493 0.010000 0.000000
0.209680 0.010000 0.000000
0.248665 0.010000 0.000000
0.286720 0.010000 0.000000
0.324017 0.010000 0.000000
0.360678 0.010000 0.000000
0.396792 0.010000 0.000000
0.432426 0.010000 0.000000
0.467635 0.010000 0.000000
0.502461 0.010000 0.000000
0.536940 0.010000 0.000000
0.571101 0.010000 0.000000
0.604972 0.010000 0.000000
0.638572 0.010000 0.000000
0.671920 0.010000 0.000000
0.705034 0.010000 0.000000
0.737928 0.010000 0.000000
0.770615 0.010000 0.000000
0.803106 0.010000 0.000000
0.835412 0.010000 0.000000
0.867542 0.010000 0.000000
0.899505 0.010000 0.000000
0.931308 0.010000 0.000000
0.962959 0.010000 0.000000
0.994464 0.010000 0.000000
1.000000 0.010000 0.000000
1.000000 0.010000 0.000000
1.000000 0.010000 0.000000
1.000000 0.010000 0.000000
1.000000 0.010000 0.000000
0.030000 0.050012 0.000000
0.083050 0.050012 0.000000
0.127632 0.050012 0.000000
0.169493 0.050012 0.000000
0.209680 0.050012 0.000000
0.248665 0.050012 0.000000
0.286720 0.050012 0.000000
0.324017 0.050012 0.000000
0.360678 0.050012 0.000000
0.396792 0.050012 0.000000
0.432426 0.050012 0.000000
0.467635 0.050012 0.000000
0.502461 0.050012 0.000000
0.536940 0.050012 0.000000
0.571101 0.050012 0.000000
0.604972 0.050012 0.000000
0.638572 0.050012 0.000000
0.671920 0.050012 0.000000
0.705034 0.050012 0.000000
0.737928 0.050012 0.000000
0.770615 0.050012 0.000000
0.803106 0.050012 0.000000
0.835412 0.050012 0.000000
0.867542 0.050012 0.000000
0.899505 0.050012 0.000000
0.931308 0.050012 0.000000
0.962959 0.050012 0.000000
0.994464 0.050012 0.000000
1.000000 0.050012 0.000000
1.000000 0.050012 0.000000
1.000000 0.050012 0.000000
1.000000 0.050012 0.000000
1.000000 0.050012 0.000000
0.030000 0.086765 0.000000
0.083050 0.086765 0.000000
0.127632 0.086765 0.000000
0.169493 0.086765 0.000000
0.209680 0.086765 0.000000
0.248665 0.086765 0.000000
0.286720 0.086765 0.000000
0.324017 0.086765 0.000000
0.360678 0.086765 0.000000
0.396792 0.086765 0.000000
0.432426 0.086765 0.000000
0.467635 0.086765 0.000000
0.502461 0.086765 0.000000
0.536940 0.086765 0.000000
0.571101 0.086765 0.000000
0.604972 0.086765 0.000000
0.638572 0.086765 0.000000
0.671920 0.086765 0.000000
0.705034 0.086765 0.000000
0.737928 0.086765 0.000000
0.770615 0.086765 0.000000
0.803106 0.086765 0.000000
0.835412 0.086765 0.000000
0.867542 0.086765 0.000000
0.899505 0.086765 0.000000
0.931308 0.086765 0.000000
0.962959 0.086765 0.000000
0.994464 0.086765 0.000000
1.000000 0.086765 0.000000
1.000000 0.086765 0.000000
1.000000 0.086765 0.000000
1.000000 0.086765 0.000000
1.000000 0.086765 0.000000
0.030000 0.122379 0.000000
0.083050 0.122379 0.000000
0.127632 0.122379 0.000000
0.169493 0.122379 0.000000
0.209680 0.122379 0.000000
0.248665 0.122379 0.000000
0.286720 0.122379 0.000000
0.324017 0.122379 0.000000
0.360678 0.122379 0.000000
0.396792 0.122379 0.000000
0.432426 0.122379 0.000000
0.467635 0.122379 0.000000
0.502461 0.122379 0.000000
0.536940 0.122379 0.000000
0.571101 0.122379 0.000000
0.604972 0.122379 0.000000
0.638572 0.122379 0.000000
0.671920 0.122379 0.000000
0.705034 0.122379 0.000000
0.737928 0.122379 0.000000
0.770615 0.122379 0.000000
0.803106 0.122379 0.000000
0.835412 0.122379 0.000000
0.867542 0.122379 0.000000
0.899505 0.122379 0.000000
0.931308 0.122379 0.000000
0.962959 0.122379 0.000000
0.994464 0.122379 0.000000
1.000000 0.122379 0.000000
1.000000 0.122379 0.000000
1.000000 0.122379 0.000000
1.000000 0.122379 0.000000
1.000000 0.122379 0.000000
0.030000 0.157275 0.000000
0.083050 0.157275 0.000000
0.127632 0.157275 0.000000
0.169493 0.157275 0.000000
0.209680 0.157275 0.000000
0.248665 0.157275 0.000000
0.286720 0.157275 0.000000
0.324017 0.157275 0.000000
0.360678 0.157275 0.000000
0.396792 0.157275 0.000000
0.432426 0.157275 0.000000
0.467635 0.157275 0.000000
0.502461 0.157275 0.000000
0.536940 0.157275 0.000000
0.571101 0.157275 0.000000
0.604972 0.157275 0.000000
0.638572 0.157275 0.000000
0.671920 0.157275 0.000000
0.705034 0.157275 0.000000
0.737928 0.157275 0.000000
0.770615 0.157275 0.000000
0.803106 0.157275 0.000000
0.835412 0.157275 0.000000
0.867542 0.157275 0.000000
0.899505 0.157275 0.000000
0.931308 0.157275 0.000000
0.962959 0.157275 0.000000
0.994464 0.157275 0.000000
1.000000 0.157275 0.000000
1.000000 0.157275 0.000000
1.000000 0.157275 0.000000
1.000000 0.157275 0.000000
1.000000 0.157275 0.000000
0.030000 0.191645 0.000000
0.083050 0.191645 0.000000
0.127632 0.191645 0.000000
0.169493 0.191645 0.000000
0.209680 0.191645 0.000000
0.248665 0.191645 0.000000
0.286720 0.191645 0.000000
0.324017 0.191645 0.000000
0.360678 0.191645 0.000000
0.396792 0.191645 0.000000
0.432426 0.191645 0.000000
0.467635 0.191645 0.000000
0.502461 0.191645 0.000000
0.536940 0.191645 0.000000
0.571101 0.191645 0.000000
0.604972 0.191645 0.000000
0.638572 0.191645 0.000000
0.671920 0.191645 0.000000
0.705034 0.191645 0.000000
0.737928 0.191645 0.000000
0.770615 0.191645 0.000000
0.803106 0.191645 0.000000
0.835412 0.191645 0.000000
0.867542 0.191645 0.000000
0.899505 0.191645 0.000000
0.931308 0.191645 0.000000
0.962959 0.191645 0.000000
0.994464 0.191645 0.000000
1.000000 0.191645 0.000000
1.000000 0.191645 0.000000
1.000000 0.191645 0.000000
1.000000 0.191645 0.000000
1.000000 0.191645 0.000000
0.030000 0.225603 0.000000
0.083050 0.225603 0.000000
0.127632 0.225603 0.000000
0.169493 0.225603 0.000000
0.209680 0.225603 0.000000
0.248665 0.225603 0.000000
0.286720 0.225603 0.000000
0.324017 0.225603 0.000000
0.360678 0.225603 0.000000
0.396792 0.225603 0.000000
0.432426 0.225603 0.000000
0.467635 0.225603 0.000000
0.502461 0.225603 0.000000
0.536940 0.225603 0.000000
0.571101 0.225603 0.000000
0.604972 0.225603 0.000000
0.638572 0.225603 0.000000
0.671920 0.225603 0.000000
0.705034 0.225603 0.000000
0.737928 0.225603 0.000000
0.770615 0.225603 0.000000
0.803106 0.225603 0.000000
0.835412 0.225603 0.000000
0.867542 0.225603 0.000000
0.899505 0.225603 0.000000
0.931308 0.225603 0.000000
0.962959 0.225603 0.000000
0.994464 0.225603 0.000000
1.000000 0.225603 0.000000
1.000000 0.225603 0.000000
1.000000 0.225603 0.000000
1.000000 0.225603 0.000000
1.000000 0.225603 0.000000
0.030000 0.259221 0.000000
0.083050 0.259221 0.000000
0.127632 0.259221 0.000000
0.169493 0.259221 0.000000
0.209680 0.259221 0.000000
0.248665 0.259221 0.000000
0.286720 0.259221 0.000000
0.324017 0.259221 0.000000
0.360678 0.259221 0.000000
0.396792 0.259221 0.000000
0.432426 0.259221 0.000000
0.467635 0.259221 0.000000
0.502461 0.259221 0.000000
0.536940 0.259221 0.000000
0.571101 0.259221 0.000000
0.604972 0.259221 0.000000
0.638572 0.259221 0.000000
0.671920 0.259221 0.000000
0.705034 0.259221 0.000000
0.737928 0.259221 0.000000
0.770615 0.259221 0.000000
0.803106 0.259221 0.000000
0.835412 0.259221 0.000000
0.867542 0.259221 0.000000
0.899505 0.259221 0.000000
0.931308 0.259221 0.000000
0.962959 0.259221 0.000000
0.994464 0.259221 0.000000
1.000000 0.259221 0.000000
1.000000 0.259221 0.000000
1.000000 0.259221 0.000000
1.000000 0.259221 0.000000
1.000000 0.259221 0.000000
0.030000 0.292551 0.000000
0.083050 0.292551 0.000000
0.127632 0.292551 0.000000
0.169493 0.292551 0.000000
0.209680 0.292551 0.000000
0.248665 0.292551 0.000000
0.286720 0.292551 0.000000
0.324017 0.292551 0.000000
0.360678 0.292551 0.000000
0.396792 0.292551 0.000000
0.432426 0.292551 0.000000
0.467635 0.292551 0.000000
0.502461 0.292551 0.000000
0.536940 0.292551 0.000000
0.571101 0.292551 0.000000
0.604972 0.292551 0.000000
0.638572 0.292551 0.000000
0.671920 0.292551 0.000000
0.705034 0.292551 0.000000
0.737928 0.292551 0.000000
0.770615 0.292551 0.000000
0.803106 0.292551 0.000000
0.835412 0.292551 0.000000
0.867542 0.292551 0.000000
0.899505 0.292551 0.000000
0.931308 0.292551 0.000000
0.962959 0.292551 0.000000
0.994464 0.292551 0.000000
1.000000 0.292551 0.000000
1.000000 0.292551 0.000000
1.000000 0.292551 0.000000
1.000000 0.292551 0.000000
1.000000 0.292551 0.000000
0.030000 0.325631 0.000000
0.083050 0.325631 0.000000
0.127632 0.325631 0.000000
0.169493 0.325631 0.000000
0.209680 0.325631 0.000000
0.248665 0.325631 0.000000
0.286720 0.325631 0.000000
0.324017 0.325631 0.000000
0.360678 0.325631 0.000000
0.396792 0.325631 0.000000
0.432426 0.325631 0.000000
0.467635 0.325631 0.000000
0.502461 0.325631 0.000000
0.536940 0.325631 0.000000
0.571101 0.325631 0.000000
0.604972 0.325631 0.000000
0.638572 0.325631 0.000000
0.671920 0.325631 0.000000
0.705034 0.325631 0.000000
0.737928 0.325631 0.000000
0.770615 0.325631 0.000000
0.803106 0.325631 0.000000
0.835412 0.325631 0.000000
0.867542 0.325631 0.000000
0.899505 0.325631 0.000000
0.931308 0.325631 0.000000
0.962959 0.325631 0.000000
0.994464 0.325631 0.000000
1.000000 0.325631 0.000000
1.000000 0.325631 0.000000
1.000000 0.325631 0.000000
1.000000 0.325631 0.000000
1.000000 0.325631 0.000000
0.030000 0.358492 0.000000
0.083050 0.358492 0.000000
0.127632 0.358492 0.000000
0.169493 0.358492 0.000000
0.209680 0.358492 0.000000
0.248665 0.358492 0.000000
0.286720 0.358492 0.000000
0.324017 0.358492 0.000000
0.360678 0.358492 0.000000
0.396792 0.358492 0.000000
0.432426 0.358492 0.000000
0.467635 0.358492 0.000000
0.502461 0.358492 0.000000
0.536940 0.358492 0.000000
0.571101 0.358492 0.000000
0.604972 0.358492 0.000000
0.638572 0.358492 0.000000
0.671920 0.358492 0.000000
0.705034 0.358492 0.000000
0.737928 0.358492 0.000000
0.770615 0.358492 0.000000
0.803106 0.358492 0.000000
0.835412 0.358492 0.000000
0.867542 0.358492 0.000000
0.899505 0.358492 0.000000
0.931308 0.358492 0.000000
0.962959 0.358492 0.000000
0.994464 0.358492 0.000000
1.000000 0.358492 0.000000
1.000000 0.358492 0.000000
1.000000 0.358492 0.000000
1.000000 0.358492 0.000000
1.000000 0.358492 0.000000
0.030000 0.391155 0.000000
0.083050 0.391155 0.000000
0.127632 0.391155 0.000000
0.169493 0.391155 0.000000
0.209680 0.391155 0.000000
0.248665 0.391155 0.000000
0.286720 0.391155 0.000000
0.324017 0.391155 0.000000
0.360678 0.391155 0.000000
0.396792 0.391155 0.000000
0.432426 0.391155 0.000000
0.467635 0.391155 0.000000
0.502461 0.391155 0.000000
0.536940 0.391155 0.000000
0.571101 0.391155 0.000000
0.604972 0.391155 0.000000
0.638572 0.391155 0.000000
0.671920 0.391155 0.000000
0.705034 0.391155 0.000000
0.737928 0.391155 0.000000
0.770615 0.391155 0.000000
0.803106 0.391155 0.000000
0.835412 0.391155 0.000000
0.867542 0.391155 0.000000
0.899505 0.391155 0.000000
0.931308 0.391155 0.000000
0.962959 0.391155 0.000000
0.994464 0.391155 0.000000
1.000000 0.391155 0.000000
1.000000 0.391155 0.000000
1.000000 0.391155 0.000000
1.000000 0.391155 0.000000
1.000000 0.391155 0.000000
0.030000 0.423640 0.000000
0.083050 0.423640 0.000000
0.127632 0.423640 0.000000
0.169493 0.423640 0.000000
0.209680 0.423640 0.000000
0.248665 0.423640 0.000000
0.286720 0.423640 0.000000
0.324017 0.423640 0.000000
0.360678 0.423640 0.000000
0.396792 0.423640 0.000000
0.432426 0.423640 0.000000
0.467635 0.423640 0.000000
0.502461 0.423640 0.000000
0.536940 0.423640 0.000000
0.571101 0.423640 0.000000
0.604972 0.423640 0.000000
0.638572 0.423640 0.000000
0.671920 0.423640 0.000000
0.705034 0.423640 0.000000
0.737928 0.423640 0.000000
0.770615 0.423640 0.000000
0.803106 0.423640 0.000000
0.835412 0.423640 0.000000
0.867542 0.423640 0.000000
0.899505 0.423640 0.000000
0.931308 0.423640 0.000000
0.962959 0.423640 0.000000
0.994464 0.423640 0.000000
1.000000 0.423640 0.000000
1.000000 0.423640 0.000000
1.000000 0.423640 0.000000
1.000000 0.423640 0.000000
1.000000 0.423640 0.000000
0.030000 0.455963 0.000000
0.083050 0.455963 0.000000
0.127632 0.455963 0.000000
0.169493 0.455963 0.000000
0.209680 0.455963 0.000000
0.248665 0.455963 0.000000
0.286720 0.455963 0.000000
0.324017 0.455963 0.000000
0.360678 0.455963 0.000000
0.396792 0.455963 0.000000
0.432426 0.455963 0.000000
0.467635 0.455963 0.000000
0.502461 0.455963 0.000000
0.536940 0.455963 0.000000
0.571101 0.455963 0.000000
0.604972 0.455963 0.000000
0.638572 0.455963 0.000000
0.671920 0.455963 0.000000
0.705034 0.455963 0.000000
0.737928 0.455963 0.000000
0.770615 0.455963 0.000000
0.803106 0.455963 0.000000
0.835412 0.455963 0.000000
0.867542 0.455963 0.000000
0.899505 0.455963 0.000000
0.931308 0.455963 0.000000
0.962959 0.455963 0.000000
0.994464 0.455963 0.000000
1.000000 0.455963 0.000000
1.000000 0.455963 0.000000
1.000000 0.455963 0.000000
1.000000 0.455963 0.000000
1.000000 0.455963 0.000000
0.030000 0.488137 0.000000
0.083050 0.488137 0.000000
0.127632 0.488137 0.000000
0.169493 0.488137 0.000000
0.209680 0.488137 0.000000
0.248665 0.488137 0.000000
0.286720 0.488137 0.000000
0.324017 0.488137 0.000000
0.360678 0.488137 0.000000
0.396792 0.488137 0.000000
0.432426 0.488137 0.000000
0.467635 0.488137 0.000000
0.502461 0.488137 0.000000
0.536940 0.488137 0.000000
0.571101 0.488137 0.000000
0.604972 0.488137 0.000000
0.638572 0.488137 0.000000
0.671920 0.488137 0.000000
0.705034 0.488137 0.000000
0.737928 0.488137 0.000000
0.770615 0.488137 0.000000
0.803106 0.488137 0.000000
0.835412 0.488137 0.000000
0.867542 0.488137 0.000000
0.899505 0.488137 0.000000
0.931308 0.488137 0.000000
0.962959 0.488137 0.000000
0.994464 0.488137 0.000000
1.000000 0.488137 0.000000
1.000000 0.488137 0.000000
1.000000 0.488137 0.000000
1.000000 0.488137 0.000000
1.000000 0.488137 0.000000
0.030000 0.520174 0.000000
0.083050 0.520174 0.000000
0.127632 0.520174 0.000000
0.169493 0.520174 0.000000
0.209680 0.520174 0.000000
0.248665 0.520174 0.000000
0.286720 0.520174 0.000000
0.324017 0.520174 0.000000
0.360678 0.520174 0.000000
0.396792 0.520174 0.000000
0.432426 0.520174 0.000000
0.467635 0.520174 0.000000
0.502461 0.520174 0.000000
0.536940 0.520174 0.000000
0.571101 0.520174 0.000000
0.604972 0.520174 0.000000
0.638572 0.520174 0.000000
0.671920 0.520174 0.000000
0.705034 0.520174 0.000000
0.737928 0.520174 0.000000
0.770615 0.520174 0.000000
0.803106 0.520174 0.000000
0.835412 0.520174 0.000000
0.867542 0.520174 0.000000
0.899505 0.520174 0.000000
0.931308 0.520174 0.000000
0.962959 0.520174 0.000000
0.994464 0.520174 0.000000
1.000000 0.520174 0.000000
1.000000 0.520174 0.000000
1.000000 0.520174 0.000000
1.000000 0.520174 0.000000
1.000000 0.520174 0.000000
0.030000 0.552082 0.000000
0.083050 0.552082 0.000000
0.127632 0.552082 0.000000
0.169493 0.552082 0.000000
0.209680 0.552082 0.000000
0.248665 0.552082 0.000000
0.286720 0.552082 0.000000
0.324017 0.552082 0.000000
0.360678 0.552082 0.000000
0.396792 0.552082 0.000000
0.432426 0.552082 0.000000
0.467635 0.552082 0.000000
0.502461 0.552082 0.000000
0.536940 0.552082 0.000000
0.571101 0.552082 0.000000
0.604972 0.552082 0.000000
0.638572 0.552082 0.000000
0.671920 0.552082 0.000000
0.705034 0.552082 0.000000
0.737928 0.552082 0.000000
0.770615 0.552082 0.000000
0.803106 0.552082 0.000000
0.835412 0.552082 0.000000
0.867542 0.552082 0.000000
0.899505 0.552082 0.000000
0.931308 0.552082 0.000000
0.962959 0.552082 0.000000
0.994464 0.552082 0.000000
1.000000 0.552082 0.000000
1.000000 0.552082 0.000000
1.000000 0.552082 0.000000
1.000000 0.552082 0.000000
1.000000 0.552082 0.000000
0.030000 0.583871 0.000000
0.083050 0.583871 0.000000
0.127632 0.583871 0.000000
0.169493 0.583871 0.000000
0.209680 0.583871 0.000000
0.248665 0.583871 0.000000
0.286720 0.583871 0.000000
0.324017 0.583871 0.000000
0.360678 0.583871 0.000000
0.396792 0.583871 0.000000
0.432426 0.583871 0.000000
0.467635 0.583871 0.000000
0.502461 0.583871 0.000000
0.536940 0.583871 0.000000
0.571101 0.583871 0.000000
0.604972 0.583871 0.000000
0.638572 0.583871 0.000000
0.671920 0.583871 0.000000
0.705034 0.583871 0.000000
0.737928 0.583871 0.000000
0.770615 0.583871 0.000000
0.803106 0.583871 0.000000
0.835412 0.583871 0.000000
0.867542 0.583871 0.000000
0.899505 0.583871 0.000000
0.931308 0.583871 0.000000
0.962959 0.583871 0.000000
0.994464 0.583871 0.000000
1.000000 0.583871 0.000000
1.000000 0.583871 0.000000
1.000000 0.583871 0.000000
1.000000 0.583871 0.000000
1.000000 0.583871 0.000000
0.030000 0.615548 0.000000
0.083050 0.615548 0.000000
0.127632 0.615548 0.000000
0.169493 0.615548 0.000000
0.209680 0.615548 0.000000
0.248665 0.615548 0.000000
0.286720 0.615548 0.000000
0.324017 0.615548 0.000000
0.360678 0.615548 0.000000
0.396792 0.615548 0.000000
0.432426 0.615548 0.000000
0.467635 0.615548 0.000000
0.502461 0.615548 0.000000
0.536940 0.615548 0.000000
0.571101 0.615548 0.000000
0.604972 0.615548 0.000000
0.638572 0.615548 0.000000
0.671920 0.615548 0.000000
0.705034 0.615548 0.000000
0.737928 0.615548 0.000000
0.770615 0.615548 0.000000
0.803106 0.615548 0.000000
0.835412 0.615548 0.000000
0.867542 0.615548 0.000000
0.899505 0.615548 0.000000
0.931308 0.615548 0.000000
0.962959 0.615548 0.000000
0.994464 0.615548 0.000000
1.000000 0.615548 0.000000
1.000000 0.615548 0.000000
1.000000 0.615548 0.000000
1.000000 0.615548 0.000000
1.000000 0.615548 0.000000
0.030000 0.647119 0.000000
0.083050 0.647119 0.000000
0.127632 0.647119 0.000000
0.169493 0.647119 0.000000
0.209680 0.647119 0.000000
0.248665 0.647119 0.000000
0.286720 0.647119 0.000000
0.324017 0.647119 0.000000
0.360678 0.647119 0.000000
0.396792 0.647119 0.000000
0.432426 0.647119 0.000000
0.467635 0.647119 0.000000
0.502461 0.647119 0.000000
0.536940 0.647119 0.000000
0.571101 0.647119 0.000000
0.604972 0.647119 0.000000
0.638572 0.647119 0.000000
0.671920 0.647119 0.000000
0.705034 0.647119 0.000000
0.737928 0.647119 0.000000
0.770615 0.647119 0.000000
0.803106 0.647119 0.000000
0.835412 0.647119 0.000000
0.867542 0.647119 0.000000
0.899505 0.647119 0.000000
0.931308 0.647119 0.000000
0.962959 0.647119 0.000000
0.994464 0.647119 0.000000
1.000000 0.647119 0.000000
1.000000 0.647119 0.000000
1.000000 0.647119 0.000000
1.000000 0.647119 0.000000
1.000000 0.647119 0.000000
0.030000 0.678591 0.000000
0.083050 0.678591 0.000000
0.127632 0.678591 0.000000
0.169493 0.678591 0.000000
0.209680 0.678591 0.000000
0.248665 0.678591 0.000000
0.286720 0.678591 0.000000
0.324017 0.678591 0.000000
0.360678 0.678591 0.000000
0.396792 0.678591 0.000000
0.432426 0.678591 0.000000
0.467635 0.678591 0.000000
0.502461 0.678591 0.000000
0.536940 0.678591 0.000000
0.571101 0.678591 0.000000
0.604972 0.678591 0.000000
0.638572 0.678591 0.000000
0.671920 0.678591 0.000000
0.705034 0.678591 0.000000
0.737928 0.678591 0.000000
0.770615 0.678591 0.000000
0.803106 0.678591 0.000000
0.835412 0.678591 0.000000
0.867542 0.678591 0.000000
0.899505 0.678591 0.000000
0.931308 0.678591 0.000000
0.962959 0.678591 0.000000
0.994464 0.678591 0.000000
1.000000 0.678591 0.000000
1.000000 0.678591 0.000000
1.000000 0.678591 0.000000
1.000000 0.678591 0.000000
1.000000 0.678591 0.000000
0.030000 0.709969 0.000000
0.083050 0.709969 0.000000
0.127632 0.709969 0.000000
0.169493 0.709969 0.000000
0.209680 0.709969 0.000000
0.248665 0.709969 0.000000
0.286720 0.709969 0.000000
0.324017 0.709969 0.000000
0.360678 0.709969 0.000000
0.396792 0.709969 0.000000
0.432426 0.709969 0.000000
0.467635 0.709969 0.000000
0.502461 0.709969 0.000000
0.536940 0.709969 0.000000
0.571101 0.709969 0.000000
0.604972 0.709969 0.000000
0.638572 0.709969 0.000000
0.671920 0.709969 0.000000
0.705034 0.709969 0.000000
0.737928 0.709969 0.000000
0.770615 0.709969 0.000000
0.803106 0.709969 0.000000
0.835412 0.709969 0.000000
0.867542 0.709969 0.000000
0.899505 0.709969 0.000000
0.931308 0.709969 0.000000
0.962959 0.709969 0.000000
0.994464 0.709969 0.000000
1.000000 0.709969 0.000000
1.000000 0.709969 0.000000
1.000000 0.709969 0.000000
1.000000 0.709969 0.000000
1.000000 0.709969 0.000000
0.030000 0.741256 0.000000
0.083050 0.741256 0.000000
0.127632 0.741256 0.000000
0.169493 0.741256 0.000000
0.209680 0.741256 0.000000
0.248665 0.741256 0.000000
0.286720 0.741256 0.000000
0.324017 0.741256 0.000000
0.360678 0.741256 0.000000
0.396792 0.741256 0.000000
0.432426 0.741256 0.000000
0.467635 0.741256 0.000000
0.502461 0.741256 0.000000
0.536940 0.741256 0.000000
0.571101 0.741256 0.000000
0.604972 0.741256 0.000000
0.638572 0.741256 0.000000
0.671920 0.741256 0.000000
0.705034 0.741256 0.000000
0.737928 0.741256 0.000000
0.770615 0.741256 0.000000
0.803106 0.741256 0.000000
0.835412 0.741256 0.000000
0.867542 0.741256 0.000000
0.899505 0.741256 0.000000
0.931308 0.741256 0.000000
0.962959 0.741256 0.000000
0.994464 0.741256 0.000000
1.000000 0.741256 0.000000
1.000000 0.741256 0.000000
1.000000 0.741256 0.000000
1.000000 0.741256 0.000000
1.000000 0.741256 0.000000
0.030000 0.772459 0.000000
0.083050 0.772459 0.000000
0.127632 0.772459 0.000000
0.169493 0.772459 0.000000
0.209680 0.772459 0.000000
0.248665 0.772459 0.000000
0.286720 0.772459 0.000000
0.324017 0.772459 0.000000
0.360678 0.772459 0.000000
0.396792 0.772459 0.000000
0.432426 0.772459 0.000000
0.467635 0.772459 0.000000
0.502461 0.772459 0.000000
0.536940 0.772459 0.000000
0.571101 0.772459 0.000000
0.604972 0.772459 0.000000
0.638572 0.772459 0.000000
0.671920 0.772459 0.000000
0.705034 0.772459 0.000000
0.737928 0.772459 0.000000
0.770615 0.772459 0.000000
0.803106 0.772459 0.000000
0.835412 0.772459 0.000000
0.867542 0.772459 0.000000
0.899505 0.772459 0.000000
0.931308 0.772459 0.000000
0.962959 0.772459 0.000000
0.994464 0.772459 0.000000
1.000000 0.772459 0.000000
1.000000 0.772459 0.000000
1.000000 0.772459 0.000000
1.000000 0.772459 0.000000
1.000000 0.772459 0.000000
0.030000 0.803580 0.000000
0.083050 0.803580 0.000000
0.127632 0.803580 0.000000
0.169493 0.803580 0.000000
0.209680 0.803580 0.000000
0.248665 0.803580 0.000000
0.286720 0.803580 0.000000
0.324017 0.803580 0.000000
0.360678 0.803580 0.000000
0.396792 0.803580 0.000000
0.432426 0.803580 0.000000
0.467635 0.803580 0.000000
0.502461 0.803580 0.000000
0.536940 0.803580 0.000000
0.571101 0.803580 0.000000
0.604972 0.803580 0.000000
0.638572 0.803580 0.000000
0.671920 0.803580 0.000000
0.705034 0.803580 0.000000
0.737928 0.803580 0.000000
0.770615 0.803580 0.000000
0.803106 0.803580 0.000000
0.835412 0.803580 0.000000
0.867542 0.803580 0.000000
0.899505 0.803580 0.000000
0.931308 0.803580 0.000000
0.962959 0.803580 0.000000
0.994464 0.803580 0.000000
1.000000 0.803580 0.000000
1.000000 0.803580 0.000000
1.000000 0.803580 0.000000
1.000000 0.803580 0.000000
1.000000 0.803580 0.000000
0.030000 0.834624 0.000000
0.083050 0.834624 0.000000
0.127632 0.834624 0.000000
0.169493 0.834624 0.000000
0.209680 0.834624 0.000000
0.248665 0.834624 0.000000
0.286720 0.834624 0.000000
0.324017 0.834624 0.000000
0.360678 0.834624 0.000000
0.396792 0.834624 0.000000
0.432426 0.834624 0.000000
0.467635 0.834624 0.000000
0.502461 0.834624 0.000000
0.536940 0.834624 0.000000
0.571101 0.834624 0.000000
0.604972 0.834624 0.000000
0.638572 0.834624 0.000000
0.671920 0.834624 0.000000
0.705034 0.834624 0.000000
0.737928 0.834624 0.000000
0.770615 0.834624 0.000000
0.803106 0.834624 0.000000
0.835412 0.834624 0.000000
0.867542 0.834624 0.000000
0.899505 0.834624 0.000000
0.931308 0.834624 0.000000
0.962959 0.834624 0.000000
0.994464 0.834624 0.000000
1.000000 0.834624 0.000000
1.000000 0.834624 0.000000
1.000000 0.834624 0.000000
1.000000 0.834624 0.000000
1.000000 0.834624 0.000000
0.030000 0.865593 0.000000
0.083050 0.865593 0.000000
0.127632 0.865593 0.000000
0.169493 0.865593 0.000000
0.209680 0.865593 0.000000
0.248665 0.865593 0.000000
0.286720 0.865593 0.000000
0.324017 0.865593 0.000000
0.360678 0.865593 0.000000
0.396792 0.865593 0.000000
0.432426 0.865593 0.000000
0.467635 0.865593 0.000000
0.502461 0.865593 0.000000
0.536940 0.865593 0.000000
0.571101 0.865593 0.000000
0.604972 0.865593 0.000000
0.638572 0.865593 0.000000
0.671920 0.865593 0.000000
0.705034 0.865593 0.000000
0.737928 0.865593 0.000000
0.770615 0.865593 0.000000
0.803106 0.865593 0.000000
0.835412 0.865593 0.000000
0.867542 0.865593 0.000000
0.899505 0.865593 0.000000
0.931308 0.865593 0.000000
0.962959 0.865593 0.000000
