app/src/main/assets/luts/golden_hour.cube
TITLE "Golden Hour"
LUT_3D_SIZE 5
DOMAIN_MIN 0.0 0.0 0.0
DOMAIN_MAX 1.0 1.0 1.0
0.030000 0.010000 0.000000
0.360678 0.010000 0.000000
0.638572 0.010000 0.000000
0.899505 0.010000 0.000000
1.000000 0.010000 0.000000
0.030000 0.292551 0.000000
0.360678 0.292551 0.000000
0.638572 0.292551 0.000000
0.899505 0.292551 0.000000
1.000000 0.292551 0.000000
0.030000 0.552082 0.000000
0.360678 0.552082 0.000000
0.638572 0.552082 0.000000
0.899505 0.552082 0.000000
1.000000 0.552082 0.000000
0.030000 0.803580 0.000000
0.360678 0.803580 0.000000
0.638572 0.803580 0.000000
0.899505 0.803580 0.000000
1.000000 0.803580 0.000000
0.030000 1.000000 0.000000
0.360678 1.000000 0.000000
0.638572 1.000000 0.000000
0.899505 1.000000 0.000000
1.000000 1.000000 0.000000
0.021324 0.000000 0.161045
0.360678 0.000000 0.155352
0.638572 0.000000 0.153448
0.899505 0.000000 0.152743
1.000000 0.000000 0.152571
0.000000 0.292551 0.146019
0.360678 0.278926 0.121118
0.638572 0.223347 0.065540
0.899505 0.171160 0.013353
1.000000 0.156750 0.000000
0.000000 0.552082 0.138575
0.322397 0.552082 0.082837
0.638572 0.534784 0.065540
0.899505 0.482598 0.013353
1.000000 0.466100 0.000000
0.000000 0.803580 0.136127
0.272097 0.803580 0.032538
0.605570 0.803580 0.032538
0.899505 0.784396 0.013353
1.000000 0.765876 0.000000
0.000000 1.000000 0.135098
0.237954 1.000000 0.000000
0.569192 1.000000 0.000000
0.880214 1.000000 0.000000
1.000000 1.000000 0.000000
0.020556 0.000000 0.369984
0.360419 0.000000 0.369984
0.638572 0.000000 0.365711
0.899505 0.000000 0.364031
1.000000 0.000000 0.363620
0.000000 0.285718 0.369984
0.358817 0.277064 0.369984
0.638572 0.223347 0.316266
0.899505 0.171160 0.264080
1.000000 0.151061 0.243981
0.000000 0.552082 0.359520
0.322397 0.552082 0.333564
0.638572 0.534784 0.316266
0.899505 0.482598 0.264080
1.000000 0.462499 0.243981
0.000000 0.803580 0.353169
0.272097 0.803580 0.283265
0.605570 0.803580 0.283265
0.899505 0.784396 0.264080
1.000000 0.764296 0.243981
0.000000 1.000000 0.350499
0.232814 1.000000 0.243981
0.566286 1.000000 0.243981
0.879406 1.000000 0.243981
1.000000 1.000000 0.243981
0.020338 0.000000 0.601856
0.356603 0.000000 0.601856
0.638572 0.000000 0.601272
0.899505 0.000000 0.598510
1.000000 0.000000 0.597834
0.000000 0.276325 0.601856
0.312442 0.230690 0.601856
0.638572 0.223347 0.594513
0.899505 0.171160 0.542326
1.000000 0.151061 0.522227
0.000000 0.549471 0.601856
0.312442 0.542127 0.601856
0.638572 0.534784 0.594513
0.899505 0.482598 0.542326
1.000000 0.462499 0.522227
0.000000 0.803580 0.594033
0.272097 0.803580 0.561511
0.605570 0.803580 0.561511
0.899505 0.784396 0.542326
1.000000 0.764296 0.522227
0.000000 1.000000 0.589542
0.232814 1.000000 0.522227
0.566286 1.000000 0.522227
0.879406 1.000000 0.522227
1.000000 1.000000 0.522227
0.020238 0.000000 0.850000
0.354853 0.000000 0.850000
0.636055 0.000000 0.850000
0.899505 0.000000 0.849443
1.000000 0.000000 0.848485
0.000000 0.272157 0.850000
0.262814 0.181061 0.850000
0.596286 0.181061 0.850000
0.899505 0.171160 0.840099
1.000000 0.151061 0.820000
0.000000 0.541183 0.850000
0.262814 0.492499 0.850000
0.596286 0.492499 0.850000
0.899505 0.482598 0.840099
1.000000 0.462499 0.820000
0.000000 0.801882 0.850000
0.262814 0.794296 0.850000
0.596286 0.794296 0.850000
0.899505 0.784396 0.840099
1.000000 0.764296 0.820000
0.000000 1.000000 0.845361
0.232814 1.000000 0.820000
0.566286 1.000000 0.820000
0.879406 1.000000 0.820000
1.000000 1.000000 0.820000
