app/src/main/assets/luts/ice_blue.cube
TITLE "Ice Blue"
LUT_3D_SIZE 9
DOMAIN_MIN 0.0 0.0 0.0
DOMAIN_MAX 1.0 1.0 1.0
0.000000 0.020000 0.040000
0.095259 0.020000 0.040000
0.201381 0.020000 0.040000
0.312030 0.020000 0.040000
0.425726 0.020000 0.040000
0.541743 0.020000 0.040000
0.659643 0.020000 0.040000
0.779132 0.020000 0.040000
0.900000 0.020000 0.040000
0.000000 0.152914 0.040000
0.095259 0.152914 0.040000
0.201381 0.152914 0.040000
0.312030 0.152914 0.040000
0.425726 0.152914 0.040000
0.541743 0.152914 0.040000
0.659643 0.152914 0.040000
0.779132 0.152914 0.040000
0.900000 0.152914 0.040000
0.000000 0.282169 0.040000
0.095259 0.282169 0.040000
0.201381 0.282169 0.040000
0.312030 0.282169 0.040000
0.425726 0.282169 0.040000
0.541743 0.282169 0.040000
0.659643 0.282169 0.040000
0.779132 0.282169 0.040000
0.900000 0.282169 0.040000
0.000000 0.410077 0.040000
0.095259 0.410077 0.040000
0.201381 0.410077 0.040000
0.312030 0.410077 0.040000
0.425726 0.410077 0.040000
0.541743 0.410077 0.040000
0.659643 0.410077 0.040000
0.779132 0.410077 0.040000
0.900000 0.410077 0.040000
0.000000 0.537119 0.040000
0.095259 0.537119 0.040000
0.201381 0.537119 0.040000
0.312030 0.537119 0.040000
0.425726 0.537119 0.040000
0.541743 0.537119 0.040000
0.659643 0.537119 0.040000
0.779132 0.537119 0.040000
0.900000 0.537119 0.040000
0.000000 0.663521 0.040000
0.095259 0.663521 0.040000
0.201381 0.663521 0.040000
0.312030 0.663521 0.040000
0.425726 0.663521 0.040000
0.541743 0.663521 0.040000
0.659643 0.663521 0.040000
0.779132 0.663521 0.040000
0.900000 0.663521 0.040000
0.000000 0.789414 0.040000
0.095259 0.789414 0.040000
0.201381 0.789414 0.040000
0.312030 0.789414 0.040000
0.425726 0.789414 0.040000
0.541743 0.789414 0.040000
0.659643 0.789414 0.040000
0.779132 0.789414 0.040000
0.900000 0.789414 0.040000
0.000000 0.914887 0.040000
0.095259 0.914887 0.040000
0.201381 0.914887 0.040000
0.312030 0.914887 0.040000
0.425726 0.914887 0.040000
0.541743 0.914887 0.040000
0.659643 0.914887 0.040000
0.779132 0.914887 0.040000
0.900000 0.914887 0.040000
0.000000 1.000000 0.040000
0.095259 1.000000 0.040000
0.201381 1.000000 0.040000
0.312030 1.000000 0.040000
0.425726 1.000000 0.040000
0.541743 1.000000 0.040000
0.659643 1.000000 0.040000
0.779132 1.000000 0.040000
0.900000 1.000000 0.040000
0.000000 0.020000 0.229305
0.095259 0.020000 0.229305
0.201381 0.020000 0.229305
0.312030 0.020000 0.229305
0.425726 0.020000 0.229305
0.541743 0.020000 0.229305
0.659643 0.020000 0.229305
0.779132 0.020000 0.229305
0.900000 0.020000 0.229305
0.000000 0.152914 0.229305
0.095259 0.152914 0.229305
0.201381 0.152914 0.229305
0.312030 0.152914 0.229305
0.425726 0.152914 0.229305
0.541743 0.152914 0.229305
0.659643 0.152914 0.229305
0.779132 0.152914 0.229305
0.900000 0.152914 0.229305
0.000000 0.282169 0.229305
0.095259 0.282169 0.229305
0.201381 0.282169 0.229305
0.312030 0.282169 0.229305
0.425726 0.282169 0.229305
0.541743 0.282169 0.229305
0.659643 0.282169 0.229305
0.779132 0.282169 0.229305
0.900000 0.282169 0.229305
0.000000 0.410077 0.229305
0.095259 0.410077 0.229305
0.201381 0.410077 0.229305
0.312030 0.410077 0.229305
0.425726 0.410077 0.229305
0.541743 0.410077 0.229305
0.659643 0.410077 0.229305
0.779132 0.410077 0.229305
0.900000 0.410077 0.229305
0.000000 0.537119 0.229305
0.095259 0.537119 0.229305
0.201381 0.537119 0.229305
0.312030 0.537119 0.229305
0.425726 0.537119 0.229305
0.541743 0.537119 0.229305
0.659643 0.537119 0.229305
0.779132 0.537119 0.229305
0.900000 0.537119 0.229305
0.000000 0.663521 0.229305
0.095259 0.663521 0.229305
0.201381 0.663521 0.229305
0.312030 0.663521 0.229305
0.425726 0.663521 0.229305
0.541743 0.663521 0.229305
0.659643 0.663521 0.229305
0.779132 0.663521 0.229305
0.900000 0.663521 0.229305
0.000000 0.789414 0.229305
0.095259 0.789414 0.229305
0.201381 0.789414 0.229305
0.312030 0.789414 0.229305
0.425726 0.789414 0.229305
0.541743 0.789414 0.229305
0.659643 0.789414 0.229305
0.779132 0.789414 0.229305
0.900000 0.789414 0.229305
0.000000 0.914887 0.229305
0.095259 0.914887 0.229305
0.201381 0.914887 0.229305
0.312030 0.914887 0.229305
0.425726 0.914887 0.229305
0.541743 0.914887 0.229305
0.659643 0.914887 0.229305
0.779132 0.914887 0.229305
0.900000 0.914887 0.229305
0.000000 1.000000 0.229305
0.095259 1.000000 0.229305
0.201381 1.000000 0.229305
0.312030 1.000000 0.229305
0.425726 1.000000 0.229305
0.541743 1.000000 0.229305
0.659643 1.000000 0.229305
0.779132 1.000000 0.229305
0.900000 1.000000 0.229305
0.000000 0.020000 0.388393
0.095259 0.020000 0.388393
0.201381 0.020000 0.388393
0.312030 0.020000 0.388393
0.425726 0.020000 0.388393
0.541743 0.020000 0.388393
0.659643 0.020000 0.388393
0.779132 0.020000 0.388393
0.900000 0.020000 0.388393
0.000000 0.152914 0.388393
0.095259 0.152914 0.388393
0.201381 0.152914 0.388393
0.312030 0.152914 0.388393
0.425726 0.152914 0.388393
0.541743 0.152914 0.388393
0.659643 0.152914 0.388393
0.779132 0.152914 0.388393
0.900000 0.152914 0.388393
0.000000 0.282169 0.388393
0.095259 0.282169 0.388393
0.201381 0.282169 0.388393
0.312030 0.282169 0.388393
0.425726 0.282169 0.388393
0.541743 0.282169 0.388393
0.659643 0.282169 0.388393
0.779132 0.282169 0.388393
0.900000 0.282169 0.388393
0.000000 0.410077 0.388393
0.095259 0.410077 0.388393
0.201381 0.410077 0.388393
0.312030 0.410077 0.388393
0.425726 0.410077 0.388393
0.541743 0.410077 0.388393
0.659643 0.410077 0.388393
0.779132 0.410077 0.388393
0.900000 0.410077 0.388393
0.000000 0.537119 0.388393
0.095259 0.537119 0.388393
0.201381 0.537119 0.388393
0.312030 0.537119 0.388393
0.425726 0.537119 0.388393
0.541743 0.537119 0.388393
0.659643 0.537119 0.388393
0.779132 0.537119 0.388393
0.900000 0.537119 0.388393
0.000000 0.663521 0.388393
0.095259 0.663521 0.388393
0.201381 0.663521 0.388393
0.312030 0.663521 0.388393
0.425726 0.663521 0.388393
0.541743 0.663521 0.388393
0.659643 0.663521 0.388393
0.779132 0.663521 0.388393
0.900000 0.663521 0.388393
0.000000 0.789414 0.388393
0.095259 0.789414 0.388393
0.201381 0.789414 0.388393
0.312030 0.789414 0.388393
0.425726 0.789414 0.388393
0.541743 0.789414 0.388393
0.659643 0.789414 0.388393
0.779132 0.789414 0.388393
0.900000 0.789414 0.388393
0.000000 0.914887 0.388393
0.095259 0.914887 0.388393
0.201381 0.914887 0.388393
0.312030 0.914887 0.388393
0.425726 0.914887 0.388393
0.541743 0.914887 0.388393
0.659643 0.914887 0.388393
0.779132 0.914887 0.388393
0.900000 0.914887 0.388393
0.000000 1.000000 0.388393
0.095259 1.000000 0.388393
0.201381 1.000000 0.388393
0.312030 1.000000 0.388393
0.425726 1.000000 0.388393
0.541743 1.000000 0.388393
0.659643 1.000000 0.388393
0.779132 1.000000 0.388393
0.900000 1.000000 0.388393
0.000000 0.020000 0.537771
0.095259 0.020000 0.537771
0.201381 0.020000 0.537771
0.312030 0.020000 0.537771
0.425726 0.020000 0.537771
0.541743 0.020000 0.537771
0.659643 0.020000 0.537771
0.779132 0.020000 0.537771
0.900000 0.020000 0.537771
0.000000 0.152914 0.537771
0.095259 0.152914 0.537771
0.201381 0.152914 0.537771
0.312030 0.152914 0.537771
0.425726 0.152914 0.537771
0.541743 0.152914 0.537771
0.659643 0.152914 0.537771
0.779132 0.152914 0.537771
0.900000 0.152914 0.537771
0.000000 0.282169 0.537771
0.095259 0.282169 0.537771
0.201381 0.282169 0.537771
0.312030 0.282169 0.537771
0.425726 0.282169 0.537771
0.541743 0.282169 0.537771
0.659643 0.282169 0.537771
0.779132 0.282169 0.537771
0.900000 0.282169 0.537771
0.000000 0.410077 0.537771
0.095259 0.410077 0.537771
0.201381 0.410077 0.537771
0.312030 0.410077 0.537771
0.425726 0.410077 0.537771
0.541743 0.410077 0.537771
0.659643 0.410077 0.537771
0.779132 0.410077 0.537771
0.900000 0.410077 0.537771
0.000000 0.537119 0.537771
0.095259 0.537119 0.537771
0.201381 0.537119 0.537771
0.312030 0.537119 0.537771
0.425726 0.537119 0.537771
0.541743 0.537119 0.537771
0.659643 0.537119 0.537771
0.779132 0.537119 0.537771
0.900000 0.537119 0.537771
0.000000 0.663521 0.537771
0.095259 0.663521 0.537771
0.201381 0.663521 0.537771
0.312030 0.663521 0.537771
0.425726 0.663521 0.537771
0.541743 0.663521 0.537771
0.659643 0.663521 0.537771
0.779132 0.663521 0.537771
0.900000 0.663521 0.537771
0.000000 0.789414 0.537771
0.095259 0.789414 0.537771
0.201381 0.789414 0.537771
0.312030 0.789414 0.537771
0.425726 0.789414 0.537771
0.541743 0.789414 0.537771
0.659643 0.789414 0.537771
0.779132 0.789414 0.537771
0.900000 0.789414 0.537771
0.000000 0.914887 0.537771
0.095259 0.914887 0.537771
0.201381 0.914887 0.537771
0.312030 0.914887 0.537771
0.425726 0.914887 0.537771
0.541743 0.914887 0.537771
0.659643 0.914887 0.537771
0.779132 0.914887 0.537771
0.900000 0.914887 0.537771
0.000000 1.000000 0.537771
0.095259 1.000000 0.537771
0.201381 1.000000 0.537771
0.312030 1.000000 0.537771
0.425726 1.000000 0.537771
0.541743 1.000000 0.537771
0.659643 1.000000 0.537771
0.779132 1.000000 0.537771
0.900000 1.000000 0.537771
0.000000 0.020000 0.681174
0.095259 0.020000 0.681174
0.201381 0.020000 0.681174
0.312030 0.020000 0.681174
0.425726 0.020000 0.681174
0.541743 0.020000 0.681174
0.659643 0.020000 0.681174
0.779132 0.020000 0.681174
0.900000 0.020000 0.681174
0.000000 0.152914 0.681174
0.095259 0.152914 0.681174
0.201381 0.152914 0.681174
0.312030 0.152914 0.681174
0.425726 0.152914 0.681174
0.541743 0.152914 0.681174
0.659643 0.152914 0.681174
0.779132 0.152914 0.681174
0.900000 0.152914 0.681174
0.000000 0.282169 0.681174
0.095259 0.282169 0.681174
0.201381 0.282169 0.681174
0.312030 0.282169 0.681174
0.425726 0.282169 0.681174
0.541743 0.282169 0.681174
0.659643 0.282169 0.681174
0.779132 0.282169 0.681174
0.900000 0.282169 0.681174
0.000000 0.410077 0.681174
0.095259 0.410077 0.681174
0.201381 0.410077 0.681174
0.312030 0.410077 0.681174
0.425726 0.410077 0.681174
0.541743 0.410077 0.681174
0.659643 0.410077 0.681174
0.779132 0.410077 0.681174
0.900000 0.410077 0.681174
0.000000 0.537119 0.681174
0.095259 0.537119 0.681174
0.201381 0.537119 0.681174
0.312030 0.537119 0.681174
0.425726 0.537119 0.681174
0.541743 0.537119 0.681174
0.659643 0.537119 0.681174
0.779132 0.537119 0.681174
0.900000 0.537119 0.681174
0.000000 0.663521 0.681174
0.095259 0.663521 0.681174
0.201381 0.663521 0.681174
0.312030 0.663521 0.681174
0.425726 0.663521 0.681174
0.541743 0.663521 0.681174
0.659643 0.663521 0.681174
0.779132 0.663521 0.681174
0.900000 0.663521 0.681174
0.000000 0.789414 0.681174
0.095259 0.789414 0.681174
0.201381 0.789414 0.681174
0.312030 0.789414 0.681174
0.425726 0.789414 0.681174
0.541743 0.789414 0.681174
0.659643 0.789414 0.681174
0.779132 0.789414 0.681174
0.900000 0.789414 0.681174
0.000000 0.914887 0.681174
0.095259 0.914887 0.681174
0.201381 0.914887 0.681174
0.312030 0.914887 0.681174
0.425726 0.914887 0.681174
0.541743 0.914887 0.681174
0.659643 0.914887 0.681174
0.779132 0.914887 0.681174
0.900000 0.914887 0.681174
0.000000 1.000000 0.681174
0.095259 1.000000 0.681174
0.201381 1.000000 0.681174
0.312030 1.000000 0.681174
0.425726 1.000000 0.681174
0.541743 1.000000 0.681174
0.659643 1.000000 0.681174
0.779132 1.000000 0.681174
0.900000 1.000000 0.681174
0.000000 0.020000 0.820291
0.095259 0.020000 0.820291
0.201381 0.020000 0.820291
0.312030 0.020000 0.820291
0.425726 0.020000 0.820291
0.541743 0.020000 0.820291
0.659643 0.020000 0.820291
0.779132 0.020000 0.820291
0.900000 0.020000 0.820291
0.000000 0.152914 0.820291
0.095259 0.152914 0.820291
0.201381 0.152914 0.820291
0.312030 0.152914 0.820291
0.425726 0.152914 0.820291
0.541743 0.152914 0.820291
0.659643 0.152914 0.820291
0.779132 0.152914 0.820291
0.900000 0.152914 0.820291
0.000000 0.282169 0.820291
0.095259 0.282169 0.820291
0.201381 0.282169 0.820291
0.312030 0.282169 0.820291
0.425726 0.282169 0.820291
0.541743 0.282169 0.820291
0.659643 0.282169 0.820291
0.779132 0.282169 0.820291
0.900000 0.282169 0.820291
0.000000 0.410077 0.820291
0.095259 0.410077 0.820291
0.201381 0.410077 0.820291
0.312030 0.410077 0.820291
0.425726 0.410077 0.820291
0.541743 0.410077 0.820291
0.659643 0.410077 0.820291
0.779132 0.410077 0.820291
0.900000 0.410077 0.820291
0.000000 0.537119 0.820291
0.095259 0.537119 0.820291
0.201381 0.537119 0.820291
0.312030 0.537119 0.820291
0.425726 0.537119 0.820291
0.541743 0.537119 0.820291
0.659643 0.537119 0.820291
0.779132 0.537119 0.820291
0.900000 0.537119 0.820291
0.000000 0.663521 0.820291
0.095259 0.663521 0.820291
0.201381 0.663521 0.820291
0.312030 0.663521 0.820291
0.425726 0.663521 0.820291
0.541743 0.663521 0.820291
0.659643 0.663521 0.820291
0.779132 0.663521 0.820291
0.900000 0.663521 0.820291
0.000000 0.789414 0.820291
0.095259 0.789414 0.820291
0.201381 0.789414 0.820291
0.312030 0.789414 0.820291
0.425726 0.789414 0.820291
0.541743 0.789414 0.820291
0.659643 0.789414 0.820291
0.779132 0.789414 0.820291
0.900000 0.789414 0.820291
0.000000 0.914887 0.820291
0.095259 0.914887 0.820291
0.201381 0.914887 0.820291
0.312030 0.914887 0.820291
0.425726 0.914887 0.820291
0.541743 0.914887 0.820291
0.659643 0.914887 0.820291
0.779132 0.914887 0.820291
0.900000 0.914887 0.820291
0.000000 1.000000 0.820291
0.095259 1.000000 0.820291
0.201381 1.000000 0.820291
0.312030 1.000000 0.820291
0.425726 1.000000 0.820291
0.541743 1.000000 0.820291
0.659643 1.000000 0.820291
0.779132 1.000000 0.820291
0.900000 1.000000 0.820291
0.000000 0.020000 0.956085
0.095259 0.020000 0.956085
0.201381 0.020000 0.956085
0.312030 0.020000 0.956085
0.425726 0.020000 0.956085
0.541743 0.020000 0.956085
0.659643 0.020000 0.956085
0.779132 0.020000 0.956085
0.900000 0.020000 0.956085
0.000000 0.152914 0.956085
0.095259 0.152914 0.956085
0.201381 0.152914 0.956085
0.312030 0.152914 0.956085
0.425726 0.152914 0.956085
0.541743 0.152914 0.956085
0.659643 0.152914 0.956085
0.779132 0.152914 0.956085
0.900000 0.152914 0.956085
0.000000 0.282169 0.956085
0.095259 0.282169 0.956085
0.201381 0.282169 0.956085
0.312030 0.282169 0.956085
0.425726 0.282169 0.956085
0.541743 0.282169 0.956085
0.659643 0.282169 0.956085
0.779132 0.282169 0.956085
0.900000 0.282169 0.956085
0.000000 0.410077 0.956085
0.095259 0.410077 0.956085
0.201381 0.410077 0.956085
0.312030 0.410077 0.956085
0.425726 0.410077 0.956085
0.541743 0.410077 0.956085
0.659643 0.410077 0.956085
0.779132 0.410077 0.956085
0.900000 0.410077 0.956085
0.000000 0.537119 0.956085
0.095259 0.537119 0.956085
0.201381 0.537119 0.956085
0.312030 0.537119 0.956085
0.425726 0.537119 0.956085
0.541743 0.537119 0.956085
0.659643 0.537119 0.956085
0.779132 0.537119 0.956085
0.900000 0.537119 0.956085
0.000000 0.663521 0.956085
0.095259 0.663521 0.956085
0.201381 0.663521 0.956085
0.312030 0.663521 0.956085
0.425726 0.663521 0.956085
0.541743 0.663521 0.956085
0.659643 0.663521 0.956085
0.779132 0.663521 0.956085
0.900000 0.663521 0.956085
0.000000 0.789414 0.956085
0.095259 0.789414 0.956085
0.201381 0.789414 0.956085
0.312030 0.789414 0.956085
0.425726 0.789414 0.956085
0.541743 0.789414 0.956085
0.659643 0.789414 0.956085
0.779132 0.789414 0.956085
0.900000 0.789414 0.956085
0.000000 0.914887 0.956085
0.095259 0.914887 0.956085
0.201381 0.914887 0.956085
0.312030 0.914887 0.956085
0.425726 0.914887 0.956085
0.541743 0.914887 0.956085
0.659643 0.914887 0.956085
0.779132 0.914887 0.956085
0.900000 0.914887 0.956085
0.000000 1.000000 0.956085
0.095259 1.000000 0.956085
0.201381 1.000000 0.956085
0.312030 1.000000 0.956085
0.425726 1.000000 0.956085
0.541743 1.000000 0.956085
0.659643 1.000000 0.956085
0.779132 1.000000 0.956085
0.900000 1.000000 0.956085
0.000000 0.020000 1.000000
0.095259 0.020000 1.000000
0.201381 0.020000 1.000000
0.312030 0.020000 1.000000
0.425726 0.020000 1.000000
0.541743 0.020000 1.000000
0.659643 0.020000 1.000000
0.779132 0.020000 1.000000
0.900000 0.020000 1.000000
0.000000 0.152914 1.000000
0.095259 0.152914 1.000000
0.201381 0.152914 1.000000
0.312030 0.152914 1.000000
0.425726 0.152914 1.000000
0.541743 0.152914 1.000000
0.659643 0.152914 1.000000
0.779132 0.152914 1.000000
0.900000 0.152914 1.000000
0.000000 0.282169 1.000000
0.095259 0.282169 1.000000
0.201381 0.282169 1.000000
0.312030 0.282169 1.000000
0.425726 0.282169 1.000000
0.541743 0.282169 1.000000
0.659643 0.282169 1.000000
0.779132 0.282169 1.000000
0.900000 0.282169 1.000000
0.000000 0.410077 1.000000
0.095259 0.410077 1.000000
0.201381 0.410077 1.000000
0.312030 0.410077 1.000000
0.425726 0.410077 1.000000
0.541743 0.410077 1.000000
0.659643 0.410077 1.000000
0.779132 0.410077 1.000000
0.900000 0.410077 1.000000
0.000000 0.537119 1.000000
0.095259 0.537119 1.000000
0.201381 0.537119 1.000000
0.312030 0.537119 1.000000
0.425726 0.537119 1.000000
0.541743 0.537119 1.000000
0.659643 0.537119 1.000000
0.779132 0.537119 1.000000
0.900000 0.537119 1.000000
0.000000 0.663521 1.000000
0.095259 0.663521 1.000000
0.201381 0.663521 1.000000
0.312030 0.663521 1.000000
0.425726 0.663521 1.000000
0.541743 0.663521 1.000000
0.659643 0.663521 1.000000
0.779132 0.663521 1.000000
0.900000 0.663521 1.000000
0.000000 0.789414 1.000000
0.095259 0.789414 1.000000
0.201381 0.789414 1.000000
0.312030 0.789414 1.000000
0.425726 0.789414 1.000000
0.541743 0.789414 1.000000
0.659643 0.789414 1.000000
0.779132 0.789414 1.000000
0.900000 0.789414 1.000000
0.000000 0.914887 1.000000
0.095259 0.914887 1.000000
0.201381 0.914887 1.000000
0.312030 0.914887 1.000000
0.425726 0.914887 1.000000
0.541743 0.914887 1.000000
0.659643 0.914887 1.000000
0.779132 0.914887 1.000000
0.900000 0.914887 1.000000
0.000000 1.000000 1.000000
0.095259 1.000000 1.000000
0.201381 1.000000 1.000000
0.312030 1.000000 1.000000
0.425726 1.000000 1.000000
0.541743 1.000000 1.000000
0.659643 1.000000 1.000000
0.779132 1.000000 1.000000
0.900000 1.000000 1.000000
0.000000 0.020000 1.000000
0.095259 0.020000 1.000000
0.201381 0.020000 1.000000
0.312030 0.020000 1.000000
0.425726 0.020000 1.000000
0.541743 0.020000 1.000000
0.659643 0.020000 1.000000
0.779132 0.020000 1.000000
0.900000 0.020000 1.000000
0.000000 0.152914 1.000000
0.095259 0.152914 1.000000
0.201381 0.152914 1.000000
0.312030 0.152914 1.000000
0.425726 0.152914 1.000000
0.541743 0.152914 1.000000
0.659643 0.152914 1.000000
0.779132 0.152914 1.000000
0.900000 0.152914 1.000000
0.000000 0.282169 1.000000
0.095259 0.282169 1.000000
0.201381 0.282169 1.000000
0.312030 0.282169 1.000000
0.425726 0.282169 1.000000
0.541743 0.282169 1.000000
0.659643 0.282169 1.000000
0.779132 0.282169 1.000000
0.900000 0.282169 1.000000
0.000000 0.410077 1.000000
0.095259 0.410077 1.000000
0.201381 0.410077 1.000000
0.312030 0.410077 1.000000
0.425726 0.410077 1.000000
0.541743 0.410077 1.000000
0.659643 0.410077 1.000000
0.779132 0.410077 1.000000
0.900000 0.410077 1.000000
0.000000 0.537119 1.000000
0.095259 0.537119 1.000000
0.201381 0.537119 1.000000
0.312030 0.537119 1.000000
0.425726 0.537119 1.000000
0.541743 0.537119 1.000000
0.659643 0.537119 1.000000
0.779132 0.537119 1.000000
0.900000 0.537119 1.000000
0.000000 0.663521 1.000000
0.095259 0.663521 1.000000
0.201381 0.663521 1.000000
0.312030 0.663521 1.000000
0.425726 0.663521 1.000000
0.541743 0.663521 1.000000
0.659643 0.663521 1.000000
0.779132 0.663521 1.000000
0.900000 0.663521 1.000000
0.000000 0.789414 1.000000
0.095259 0.789414 1.000000
0.201381 0.789414 1.000000
0.312030 0.789414 1.000000
0.425726 0.789414 1.000000
0.541743 0.789414 1.000000
0.659643 0.789414 1.000000
0.779132 0.789414 1.000000
0.900000 0.789414 1.000000
0.000000 0.914887 1.000000
0.095259 0.914887 1.000000
0.201381 0.914887 1.000000
0.312030 0.914887 1.000000
0.425726 0.914887 1.000000
0.541743 0.914887 1.000000
0.659643 0.914887 1.000000
0.779132 0.914887 1.000000
0.900000 0.914887 1.000000
0.000000 1.000000 1.000000
0.095259 1.000000 1.000000
0.201381 1.000000 1.000000
0.312030 1.000000 1.000000
0.425726 1.000000 1.000000
0.541743 1.000000 1.000000
0.659643 1.000000 1.000000
0.779132 1.000000 1.000000
0.900000 1.000000 1.000000
