app/src/main/assets/luts/ice_blue.cube
TITLE "Ice Blue"
LUT_3D_SIZE 5
DOMAIN_MIN 0.0 0.0 0.0
DOMAIN_MAX 1.0 1.0 1.0
0.000000 0.020000 0.040000
0.201381 0.020000 0.040000
0.425726 0.020000 0.040000
0.659643 0.020000 0.040000
0.900000 0.020000 0.040000
0.000000 0.282169 0.040000
0.201381 0.282169 0.040000
0.425726 0.282169 0.040000
0.659643 0.282169 0.040000
0.900000 0.282169 0.040000
0.000000 0.537119 0.040000
0.201381 0.537119 0.040000
0.425726 0.537119 0.040000
0.659643 0.537119 0.040000
0.900000 0.537119 0.040000
0.000000 0.789414 0.040000
0.201381 0.789414 0.040000
0.425726 0.789414 0.040000
0.659643 0.789414 0.040000
0.900000 0.789414 0.040000
0.000000 1.000000 0.040000
0.201381 1.000000 0.040000
0.425726 1.000000 0.040000
0.659643 1.000000 0.040000
0.900000 1.000000 0.040000
0.000000 0.020000 0.388393
0.201381 0.020000 0.388393
0.425726 0.020000 0.388393
0.659643 0.020000 0.388393
0.900000 0.020000 0.388393
0.000000 0.282169 0.388393
0.201381 0.282169 0.388393
0.425726 0.282169 0.388393
0.659643 0.282169 0.388393
0.900000 0.282169 0.388393
0.000000 0.537119 0.388393
0.201381 0.537119 0.388393
0.425726 0.537119 0.388393
0.659643 0.537119 0.388393
0.900000 0.537119 0.388393
0.000000 0.789414 0.388393
0.201381 0.789414 0.388393
0.425726 0.789414 0.388393
0.659643 0.789414 0.388393
0.900000 0.789414 0.388393
0.000000 1.000000 0.388393
0.201381 1.000000 0.388393
0.425726 1.000000 0.388393
0.659643 1.000000 0.388393
0.900000 1.000000 0.388393
0.000000 0.020000 0.681174
0.201381 0.020000 0.681174
0.425726 0.020000 0.681174
0.659643 0.020000 0.681174
0.900000 0.020000 0.681174
0.000000 0.282169 0.681174
0.201381 0.282169 0.681174
0.425726 0.282169 0.681174
0.659643 0.282169 0.681174
0.900000 0.282169 0.681174
0.000000 0.537119 0.681174
0.201381 0.537119 0.681174
0.425726 0.537119 0.681174
0.659643 0.537119 0.681174
0.900000 0.537119 0.681174
0.000000 0.789414 0.681174
0.201381 0.789414 0.681174
0.425726 0.789414 0.681174
0.659643 0.789414 0.681174
0.900000 0.789414 0.681174
0.000000 1.000000 0.681174
0.201381 1.000000 0.681174
0.425726 1.000000 0.681174
0.659643 1.000000 0.681174
0.900000 1.000000 0.681174
0.000000 0.020000 0.956085
0.201381 0.020000 0.956085
0.425726 0.020000 0.956085
0.659643 0.020000 0.956085
0.900000 0.020000 0.956085
0.000000 0.282169 0.956085
0.201381 0.282169 0.956085
0.425726 0.282169 0.956085
0.659643 0.282169 0.956085
0.900000 0.282169 0.956085
0.000000 0.537119 0.956085
0.201381 0.537119 0.956085
0.425726 0.537119 0.956085
0.659643 0.537119 0.956085
0.900000 0.537119 0.956085
0.000000 0.789414 0.956085
0.201381 0.789414 0.956085
0.425726 0.789414 0.956085
0.659643 0.789414 0.956085
0.900000 0.789414 0.956085
0.000000 1.000000 0.956085
0.201381 1.000000 0.956085
0.425726 1.000000 0.956085
0.659643 1.000000 0.956085
0.900000 1.000000 0.956085
0.000000 0.020000 1.000000
0.201381 0.020000 1.000000
0.425726 0.020000 1.000000
0.659643 0.020000 1.000000
0.900000 0.020000 1.000000
0.000000 0.282169 1.000000
0.201381 0.282169 1.000000
0.425726 0.282169 1.000000
0.659643 0.282169 1.000000
0.900000 0.282169 1.000000
0.000000 0.537119 1.000000
0.201381 0.537119 1.000000
0.425726 0.537119 1.000000
0.659643 0.537119 1.000000
0.900000 0.537119 1.000000
0.000000 0.789414 1.000000
0.201381 0.789414 1.000000
0.425726 0.789414 1.000000
0.659643 0.789414 1.000000
0.900000 0.789414 1.000000
0.000000 1.000000 1.000000
0.201381 1.000000 1.000000
0.425726 1.000000 1.000000
0.659643 1.000000 1.000000
0.900000 1.000000 1.000000
