app/src/main/assets/luts/ice_blue.cube
TITLE "Ice Blue"
LUT_3D_SIZE 33
DOMAIN_MIN 0.0 0.0 0.0
DOMAIN_MAX 1.0 1.0 1.0
0.000000 0.020000 0.040000
0.021315 0.020000 0.040000
0.045060 0.020000 0.040000
0.069819 0.020000 0.040000
0.095259 0.020000 0.040000
0.121218 0.020000 0.040000
0.147599 0.020000 0.040000
0.174336 0.020000 0.040000
0.201381 0.020000 0.040000
0.228698 0.020000 0.040000
0.256260 0.020000 0.040000
0.284043 0.020000 0.040000
0.312030 0.020000 0.040000
0.340204 0.020000 0.040000
0.368552 0.020000 0.040000
0.397063 0.020000 0.040000
0.425726 0.020000 0.040000
0.454533 0.020000 0.040000
0.483476 0.020000 0.040000
0.512548 0.020000 0.040000
0.541743 0.020000 0.040000
0.571054 0.020000 0.040000
0.600478 0.020000 0.040000
0.630009 0.020000 0.040000
0.659643 0.020000 0.040000
0.689375 0.020000 0.040000
0.719203 0.020000 0.040000
0.749123 0.020000 0.040000
0.779132 0.020000 0.040000
0.809227 0.020000 0.040000
0.839405 0.020000 0.040000
0.869663 0.020000 0.040000
0.900000 0.020000 0.040000
0.000000 0.054163 0.040000
0.021315 0.054163 0.040000
0.045060 0.054163 0.040000
0.069819 0.054163 0.040000
0.095259 0.054163 0.040000
0.121218 0.054163 0.040000
0.147599 0.054163 0.040000
0.174336 0.054163 0.040000
0.201381 0.054163 0.040000
0.228698 0.054163 0.040000
0.256260 0.054163 0.040000
0.284043 0.054163 0.040000
0.312030 0.054163 0.040000
0.340204 0.054163 0.040000
0.368552 0.054163 0.040000
0.397063 0.054163 0.040000
0.425726 0.054163 0.040000
0.454533 0.054163 0.040000
0.483476 0.054163 0.040000
0.512548 0.054163 0.040000
0.541743 0.054163 0.040000
0.571054 0.054163 0.040000
0.600478 0.054163 0.040000
0.630009 0.054163 0.040000
0.659643 0.054163 0.040000
0.689375 0.054163 0.040000
0.719203 0.054163 0.040000
0.749123 0.054163 0.040000
0.779132 0.054163 0.040000
0.809227 0.054163 0.040000
0.839405 0.054163 0.040000
0.869663 0.054163 0.040000
0.900000 0.054163 0.040000
0.000000 0.087385 0.040000
0.021315 0.087385 0.040000
0.045060 0.087385 0.040000
0.069819 0.087385 0.040000
0.095259 0.087385 0.040000
0.121218 0.087385 0.040000
0.147599 0.087385 0.040000
0.174336 0.087385 0.040000
0.201381 0.087385 0.040000
0.228698 0.087385 0.040000
0.256260 0.087385 0.040000
0.284043 0.087385 0.040000
0.312030 0.087385 0.040000
0.340204 0.087385 0.040000
0.368552 0.087385 0.040000
0.397063 0.087385 0.040000
0.425726 0.087385 0.040000
0.454533 0.087385 0.040000
0.483476 0.087385 0.040000
0.512548 0.087385 0.040000
0.541743 0.087385 0.040000
0.571054 0.087385 0.040000
0.600478 0.087385 0.040000
0.630009 0.087385 0.040000
0.659643 0.087385 0.040000
0.689375 0.087385 0.040000
0.719203 0.087385 0.040000
0.749123 0.087385 0.040000
0.779132 0.087385 0.040000
0.809227 0.087385 0.040000
0.839405 0.087385 0.040000
0.869663 0.087385 0.040000
0.900000 0.087385 0.040000
0.000000 0.120261 0.040000
0.021315 0.120261 0.040000
0.045060 0.120261 0.040000
0.069819 0.120261 0.040000
0.095259 0.120261 0.040000
0.121218 0.120261 0.040000
0.147599 0.120261 0.040000
0.174336 0.120261 0.040000
0.201381 0.120261 0.040000
0.228698 0.120261 0.040000
0.256260 0.120261 0.040000
0.284043 0.120261 0.040000
0.312030 0.120261 0.040000
0.340204 0.120261 0.040000
0.368552 0.120261 0.040000
0.397063 0.120261 0.040000
0.425726 0.120261 0.040000
0.454533 0.120261 0.040000
0.483476 0.120261 0.040000
0.512548 0.120261 0.040000
0.541743 0.120261 0.040000
0.571054 0.120261 0.040000
0.600478 0.120261 0.040000
0.630009 0.120261 0.040000
0.659643 0.120261 0.040000
0.689375 0.120261 0.040000
0.719203 0.120261 0.040000
0.749123 0.120261 0.040000
0.779132 0.120261 0.040000
0.809227 0.120261 0.040000
0.839405 0.120261 0.040000
0.869663 0.120261 0.040000
0.900000 0.120261 0.040000
0.000000 0.152914 0.040000
0.021315 0.152914 0.040000
0.045060 0.152914 0.040000
0.069819 0.152914 0.040000
0.095259 0.152914 0.040000
0.121218 0.152914 0.040000
0.147599 0.152914 0.040000
0.174336 0.152914 0.040000
0.201381 0.152914 0.040000
0.228698 0.152914 0.040000
0.256260 0.152914 0.040000
0.284043 0.152914 0.040000
0.312030 0.152914 0.040000
0.340204 0.152914 0.040000
0.368552 0.152914 0.040000
0.397063 0.152914 0.040000
0.425726 0.152914 0.040000
0.454533 0.152914 0.040000
0.483476 0.152914 0.040000
0.512548 0.152914 0.040000
0.541743 0.152914 0.040000
0.571054 0.152914 0.040000
0.600478 0.152914 0.040000
0.630009 0.152914 0.040000
0.659643 0.152914 0.040000
0.689375 0.152914 0.040000
0.719203 0.152914 0.040000
0.749123 0.152914 0.040000
0.779132 0.152914 0.040000
0.809227 0.152914 0.040000
0.839405 0.152914 0.040000
0.869663 0.152914 0.040000
0.900000 0.152914 0.040000
0.000000 0.185403 0.040000
0.021315 0.185403 0.040000
0.045060 0.185403 0.040000
0.069819 0.185403 0.040000
0.095259 0.185403 0.040000
0.121218 0.185403 0.040000
0.147599 0.185403 0.040000
0.174336 0.185403 0.040000
0.201381 0.185403 0.040000
0.228698 0.185403 0.040000
0.256260 0.185403 0.040000
0.284043 0.185403 0.040000
0.312030 0.185403 0.040000
0.340204 0.185403 0.040000
0.368552 0.185403 0.040000
0.397063 0.185403 0.040000
0.425726 0.185403 0.040000
0.454533 0.185403 0.040000
0.483476 0.185403 0.040000
0.512548 0.185403 0.040000
0.541743 0.185403 0.040000
0.571054 0.185403 0.040000
0.600478 0.185403 0.040000
0.630009 0.185403 0.040000
0.659643 0.185403 0.040000
0.689375 0.185403 0.040000
0.719203 0.185403 0.040000
0.749123 0.185403 0.040000
0.779132 0.185403 0.040000
0.809227 0.185403 0.040000
0.839405 0.185403 0.040000
0.869663 0.185403 0.040000
0.900000 0.185403 0.040000
0.000000 0.217761 0.040000
0.021315 0.217761 0.040000
0.045060 0.217761 0.040000
0.069819 0.217761 0.040000
0.095259 0.217761 0.040000
0.121218 0.217761 0.040000
0.147599 0.217761 0.040000
0.174336 0.217761 0.040000
0.201381 0.217761 0.040000
0.228698 0.217761 0.040000
0.256260 0.217761 0.040000
0.284043 0.217761 0.040000
0.312030 0.217761 0.040000
0.340204 0.217761 0.040000
0.368552 0.217761 0.040000
0.397063 0.217761 0.040000
0.425726 0.217761 0.040000
0.454533 0.217761 0.040000
0.483476 0.217761 0.040000
0.512548 0.217761 0.040000
0.541743 0.217761 0.040000
0.571054 0.217761 0.040000
0.600478 0.217761 0.040000
0.630009 0.217761 0.040000
0.659643 0.217761 0.040000
0.689375 0.217761 0.040000
0.719203 0.217761 0.040000
0.749123 0.217761 0.040000
0.779132 0.217761 0.040000
0.809227 0.217761 0.040000
0.839405 0.217761 0.040000
0.869663 0.217761 0.040000
0.900000 0.217761 0.040000
0.000000 0.250011 0.040000
0.021315 0.250011 0.040000
0.045060 0.250011 0.040000
0.069819 0.250011 0.040000
0.095259 0.250011 0.040000
0.121218 0.250011 0.040000
0.147599 0.250011 0.040000
0.174336 0.250011 0.040000
0.201381 0.250011 0.040000
0.228698 0.250011 0.040000
0.256260 0.250011 0.040000
0.284043 0.250011 0.040000
0.312030 0.250011 0.040000
0.340204 0.250011 0.040000
0.368552 0.250011 0.040000
0.397063 0.250011 0.040000
0.425726 0.250011 0.040000
0.454533 0.250011 0.040000
0.483476 0.250011 0.040000
0.512548 0.250011 0.040000
0.541743 0.250011 0.040000
0.571054 0.250011 0.040000
0.600478 0.250011 0.040000
0.630009 0.250011 0.040000
0.659643 0.250011 0.040000
0.689375 0.250011 0.040000
0.719203 0.250011 0.040000
0.749123 0.250011 0.040000
0.779132 0.250011 0.040000
0.809227 0.250011 0.040000
0.839405 0.250011 0.040000
0.869663 0.250011 0.040000
0.900000 0.250011 0.040000
0.000000 0.282169 0.040000
0.021315 0.282169 0.040000
0.045060 0.282169 0.040000
0.069819 0.282169 0.040000
0.095259 0.282169 0.040000
0.121218 0.282169 0.040000
0.147599 0.282169 0.040000
0.174336 0.282169 0.040000
0.201381 0.282169 0.040000
0.228698 0.282169 0.040000
0.256260 0.282169 0.040000
0.284043 0.282169 0.040000
0.312030 0.282169 0.040000
0.340204 0.282169 0.040000
0.368552 0.282169 0.040000
0.397063 0.282169 0.040000
0.425726 0.282169 0.040000
0.454533 0.282169 0.040000
0.483476 0.282169 0.040000
0.512548 0.282169 0.040000
0.541743 0.282169 0.040000
0.571054 0.282169 0.040000
0.600478 0.282169 0.040000
0.630009 0.282169 0.040000
0.659643 0.282169 0.040000
0.689375 0.282169 0.040000
0.719203 0.282169 0.040000
0.749123 0.282169 0.040000
0.779132 0.282169 0.040000
0.809227 0.282169 0.040000
0.839405 0.282169 0.040000
0.869663 0.282169 0.040000
0.900000 0.282169 0.040000
0.000000 0.314246 0.040000
0.021315 0.314246 0.040000
0.045060 0.314246 0.040000
0.069819 0.314246 0.040000
0.095259 0.314246 0.040000
0.121218 0.314246 0.040000
0.147599 0.314246 0.040000
0.174336 0.314246 0.040000
0.201381 0.314246 0.040000
0.228698 0.314246 0.040000
0.256260 0.314246 0.040000
0.284043 0.314246 0.040000
0.312030 0.314246 0.040000
0.340204 0.314246 0.040000
0.368552 0.314246 0.040000
0.397063 0.314246 0.040000
0.425726 0.314246 0.040000
0.454533 0.314246 0.040000
0.483476 0.314246 0.040000
0.512548 0.314246 0.040000
0.541743 0.314246 0.040000
0.571054 0.314246 0.040000
0.600478 0.314246 0.040000
0.630009 0.314246 0.040000
0.659643 0.314246 0.040000
0.689375 0.314246 0.040000
0.719203 0.314246 0.040000
0.749123 0.314246 0.040000
0.779132 0.314246 0.040000
0.809227 0.314246 0.040000
0.839405 0.314246 0.040000
0.869663 0.314246 0.040000
0.900000 0.314246 0.040000
0.000000 0.346252 0.040000
0.021315 0.346252 0.040000
0.045060 0.346252 0.040000
0.069819 0.346252 0.040000
0.095259 0.346252 0.040000
0.121218 0.346252 0.040000
0.147599 0.346252 0.040000
0.174336 0.346252 0.040000
0.201381 0.346252 0.040000
0.228698 0.346252 0.040000
0.256260 0.346252 0.040000
0.284043 0.346252 0.040000
0.312030 0.346252 0.040000
0.340204 0.346252 0.040000
0.368552 0.346252 0.040000
0.397063 0.346252 0.040000
0.425726 0.346252 0.040000
0.454533 0.346252 0.040000
0.483476 0.346252 0.040000
0.512548 0.346252 0.040000
0.541743 0.346252 0.040000
0.571054 0.346252 0.040000
0.600478 0.346252 0.040000
0.630009 0.346252 0.040000
0.659643 0.346252 0.040000
0.689375 0.346252 0.040000
0.719203 0.346252 0.040000
0.749123 0.346252 0.040000
0.779132 0.346252 0.040000
0.809227 0.346252 0.040000
0.839405 0.346252 0.040000
0.869663 0.346252 0.040000
0.900000 0.346252 0.040000
0.000000 0.378194 0.040000
0.021315 0.378194 0.040000
0.045060 0.378194 0.040000
0.069819 0.378194 0.040000
0.095259 0.378194 0.040000
0.121218 0.378194 0.040000
0.147599 0.378194 0.040000
0.174336 0.378194 0.040000
0.201381 0.378194 0.040000
0.228698 0.378194 0.040000
0.256260 0.378194 0.040000
0.284043 0.378194 0.040000
0.312030 0.378194 0.040000
0.340204 0.378194 0.040000
0.368552 0.378194 0.040000
0.397063 0.378194 0.040000
0.425726 0.378194 0.040000
0.454533 0.378194 0.040000
0.483476 0.378194 0.040000
0.512548 0.378194 0.040000
0.541743 0.378194 0.040000
0.571054 0.378194 0.040000
0.600478 0.378194 0.040000
0.630009 0.378194 0.040000
0.659643 0.378194 0.040000
0.689375 0.378194 0.040000
0.719203 0.378194 0.040000
0.749123 0.378194 0.040000
0.779132 0.378194 0.040000
0.809227 0.378194 0.040000
0.839405 0.378194 0.040000
0.869663 0.378194 0.040000
0.900000 0.378194 0.040000
0.000000 0.410077 0.040000
0.021315 0.410077 0.040000
0.045060 0.410077 0.040000
0.069819 0.410077 0.040000
0.095259 0.410077 0.040000
0.121218 0.410077 0.040000
0.147599 0.410077 0.040000
0.174336 0.410077 0.040000
0.201381 0.410077 0.040000
0.228698 0.410077 0.040000
0.256260 0.410077 0.040000
0.284043 0.410077 0.040000
0.312030 0.410077 0.040000
0.340204 0.410077 0.040000
0.368552 0.410077 0.040000
0.397063 0.410077 0.040000
0.425726 0.410077 0.040000
0.454533 0.410077 0.040000
0.483476 0.410077 0.040000
0.512548 0.410077 0.040000
0.541743 0.410077 0.040000
0.571054 0.410077 0.040000
0.600478 0.410077 0.040000
0.630009 0.410077 0.040000
0.659643 0.410077 0.040000
0.689375 0.410077 0.040000
0.719203 0.410077 0.040000
0.749123 0.410077 0.040000
0.779132 0.410077 0.040000
0.809227 0.410077 0.040000
0.839405 0.410077 0.040000
0.869663 0.410077 0.040000
0.900000 0.410077 0.040000
0.000000 0.441908 0.040000
0.021315 0.441908 0.040000
0.045060 0.441908 0.040000
0.069819 0.441908 0.040000
0.095259 0.441908 0.040000
0.121218 0.441908 0.040000
0.147599 0.441908 0.040000
0.174336 0.441908 0.040000
0.201381 0.441908 0.040000
0.228698 0.441908 0.040000
0.256260 0.441908 0.040000
0.284043 0.441908 0.040000
0.312030 0.441908 0.040000
0.340204 0.441908 0.040000
0.368552 0.441908 0.040000
0.397063 0.441908 0.040000
0.425726 0.441908 0.040000
0.454533 0.441908 0.040000
0.483476 0.441908 0.040000
0.512548 0.441908 0.040000
0.541743 0.441908 0.040000
0.571054 0.441908 0.040000
0.600478 0.441908 0.040000
0.630009 0.441908 0.040000
0.659643 0.441908 0.040000
0.689375 0.441908 0.040000
0.719203 0.441908 0.040000
0.749123 0.441908 0.040000
0.779132 0.441908 0.040000
0.809227 0.441908 0.040000
0.839405 0.441908 0.040000
0.869663 0.441908 0.040000
0.900000 0.441908 0.040000
0.000000 0.473689 0.040000
0.021315 0.473689 0.040000
0.045060 0.473689 0.040000
0.069819 0.473689 0.040000
0.095259 0.473689 0.040000
0.121218 0.473689 0.040000
0.147599 0.473689 0.040000
0.174336 0.473689 0.040000
0.201381 0.473689 0.040000
0.228698 0.473689 0.040000
0.256260 0.473689 0.040000
0.284043 0.473689 0.040000
0.312030 0.473689 0.040000
0.340204 0.473689 0.040000
0.368552 0.473689 0.040000
0.397063 0.473689 0.040000
0.425726 0.473689 0.040000
0.454533 0.473689 0.040000
0.483476 0.473689 0.040000
0.512548 0.473689 0.040000
0.541743 0.473689 0.040000
0.571054 0.473689 0.040000
0.600478 0.473689 0.040000
0.630009 0.473689 0.040000
0.659643 0.473689 0.040000
0.689375 0.473689 0.040000
0.719203 0.473689 0.040000
0.749123 0.473689 0.040000
0.779132 0.473689 0.040000
0.809227 0.473689 0.040000
0.839405 0.473689 0.040000
0.869663 0.473689 0.040000
0.900000 0.473689 0.040000
0.000000 0.505426 0.040000
0.021315 0.505426 0.040000
0.045060 0.505426 0.040000
0.069819 0.505426 0.040000
0.095259 0.505426 0.040000
0.121218 0.505426 0.040000
0.147599 0.505426 0.040000
0.174336 0.505426 0.040000
0.201381 0.505426 0.040000
0.228698 0.505426 0.040000
0.256260 0.505426 0.040000
0.284043 0.505426 0.040000
0.312030 0.505426 0.040000
0.340204 0.505426 0.040000
0.368552 0.505426 0.040000
0.397063 0.505426 0.040000
0.425726 0.505426 0.040000
0.454533 0.505426 0.040000
0.483476 0.505426 0.040000
0.512548 0.505426 0.040000
0.541743 0.505426 0.040000
0.571054 0.505426 0.040000
0.600478 0.505426 0.040000
0.630009 0.505426 0.040000
0.659643 0.505426 0.040000
0.689375 0.505426 0.040000
0.719203 0.505426 0.040000
0.749123 0.505426 0.040000
0.779132 0.505426 0.040000
0.809227 0.505426 0.040000
0.839405 0.505426 0.040000
0.869663 0.505426 0.040000
0.900000 0.505426 0.040000
0.000000 0.537119 0.040000
0.021315 0.537119 0.040000
0.045060 0.537119 0.040000
0.069819 0.537119 0.040000
0.095259 0.537119 0.040000
0.121218 0.537119 0.040000
0.147599 0.537119 0.040000
0.174336 0.537119 0.040000
0.201381 0.537119 0.040000
0.228698 0.537119 0.040000
0.256260 0.537119 0.040000
0.284043 0.537119 0.040000
0.312030 0.537119 0.040000
0.340204 0.537119 0.040000
0.368552 0.537119 0.040000
0.397063 0.537119 0.040000
0.425726 0.537119 0.040000
0.454533 0.537119 0.040000
0.483476 0.537119 0.040000
0.512548 0.537119 0.040000
0.541743 0.537119 0.040000
0.571054 0.537119 0.040000
0.600478 0.537119 0.040000
0.630009 0.537119 0.040000
0.659643 0.537119 0.040000
0.689375 0.537119 0.040000
0.719203 0.537119 0.040000
0.749123 0.537119 0.040000
0.779132 0.537119 0.040000
0.809227 0.537119 0.040000
0.839405 0.537119 0.040000
0.869663 0.537119 0.040000
0.900000 0.537119 0.040000
0.000000 0.568774 0.040000
0.021315 0.568774 0.040000
0.045060 0.568774 0.040000
0.069819 0.568774 0.040000
0.095259 0.568774 0.040000
0.121218 0.568774 0.040000
0.147599 0.568774 0.040000
0.174336 0.568774 0.040000
0.201381 0.568774 0.040000
0.228698 0.568774 0.040000
0.256260 0.568774 0.040000
0.284043 0.568774 0.040000
0.312030 0.568774 0.040000
0.340204 0.568774 0.040000
0.368552 0.568774 0.040000
0.397063 0.568774 0.040000
0.425726 0.568774 0.040000
0.454533 0.568774 0.040000
0.483476 0.568774 0.040000
0.512548 0.568774 0.040000
0.541743 0.568774 0.040000
0.571054 0.568774 0.040000
0.600478 0.568774 0.040000
0.630009 0.568774 0.040000
0.659643 0.568774 0.040000
0.689375 0.568774 0.040000
0.719203 0.568774 0.040000
0.749123 0.568774 0.040000
0.779132 0.568774 0.040000
0.809227 0.568774 0.040000
0.839405 0.568774 0.040000
0.869663 0.568774 0.040000
0.900000 0.568774 0.040000
0.000000 0.600390 0.040000
0.021315 0.600390 0.040000
0.045060 0.600390 0.040000
0.069819 0.600390 0.040000
0.095259 0.600390 0.040000
0.121218 0.600390 0.040000
0.147599 0.600390 0.040000
0.174336 0.600390 0.040000
0.201381 0.600390 0.040000
0.228698 0.600390 0.040000
0.256260 0.600390 0.040000
0.284043 0.600390 0.040000
0.312030 0.600390 0.040000
0.340204 0.600390 0.040000
0.368552 0.600390 0.040000
0.397063 0.600390 0.040000
0.425726 0.600390 0.040000
0.454533 0.600390 0.040000
0.483476 0.600390 0.040000
0.512548 0.600390 0.040000
0.541743 0.600390 0.040000
0.571054 0.600390 0.040000
0.600478 0.600390 0.040000
0.630009 0.600390 0.040000
0.659643 0.600390 0.040000
0.689375 0.600390 0.040000
0.719203 0.600390 0.040000
0.749123 0.600390 0.040000
0.779132 0.600390 0.040000
0.809227 0.600390 0.040000
0.839405 0.600390 0.040000
0.869663 0.600390 0.040000
0.900000 0.600390 0.040000
0.000000 0.631972 0.040000
0.021315 0.631972 0.040000
0.045060 0.631972 0.040000
0.069819 0.631972 0.040000
0.095259 0.631972 0.040000
0.121218 0.631972 0.040000
0.147599 0.631972 0.040000
0.174336 0.631972 0.040000
0.201381 0.631972 0.040000
0.228698 0.631972 0.040000
0.256260 0.631972 0.040000
0.284043 0.631972 0.040000
0.312030 0.631972 0.040000
0.340204 0.631972 0.040000
0.368552 0.631972 0.040000
0.397063 0.631972 0.040000
0.425726 0.631972 0.040000
0.454533 0.631972 0.040000
0.483476 0.631972 0.040000
0.512548 0.631972 0.040000
0.541743 0.631972 0.040000
0.571054 0.631972 0.040000
0.600478 0.631972 0.040000
0.630009 0.631972 0.040000
0.659643 0.631972 0.040000
0.689375 0.631972 0.040000
0.719203 0.631972 0.040000
0.749123 0.631972 0.040000
0.779132 0.631972 0.040000
0.809227 0.631972 0.040000
0.839405 0.631972 0.040000
0.869663 0.631972 0.040000
0.900000 0.631972 0.040000
0.000000 0.663521 0.040000
0.021315 0.663521 0.040000
0.045060 0.663521 0.040000
0.069819 0.663521 0.040000
0.095259 0.663521 0.040000
0.121218 0.663521 0.040000
0.147599 0.663521 0.040000
0.174336 0.663521 0.040000
0.201381 0.663521 0.040000
0.228698 0.663521 0.040000
0.256260 0.663521 0.040000
0.284043 0.663521 0.040000
0.312030 0.663521 0.040000
0.340204 0.663521 0.040000
0.368552 0.663521 0.040000
0.397063 0.663521 0.040000
0.425726 0.663521 0.040000
0.454533 0.663521 0.040000
0.483476 0.663521 0.040000
0.512548 0.663521 0.040000
0.541743 0.663521 0.040000
0.571054 0.663521 0.040000
0.600478 0.663521 0.040000
0.630009 0.663521 0.040000
0.659643 0.663521 0.040000
0.689375 0.663521 0.040000
0.719203 0.663521 0.040000
0.749123 0.663521 0.040000
0.779132 0.663521 0.040000
0.809227 0.663521 0.040000
0.839405 0.663521 0.040000
0.869663 0.663521 0.040000
0.900000 0.663521 0.040000
0.000000 0.695038 0.040000
0.021315 0.695038 0.040000
0.045060 0.695038 0.040000
0.069819 0.695038 0.040000
0.095259 0.695038 0.040000
0.121218 0.695038 0.040000
0.147599 0.695038 0.040000
0.174336 0.695038 0.040000
0.201381 0.695038 0.040000
0.228698 0.695038 0.040000
0.256260 0.695038 0.040000
0.284043 0.695038 0.040000
0.312030 0.695038 0.040000
0.340204 0.695038 0.040000
0.368552 0.695038 0.040000
0.397063 0.695038 0.040000
0.425726 0.695038 0.040000
0.454533 0.695038 0.040000
0.483476 0.695038 0.040000
0.512548 0.695038 0.040000
0.541743 0.695038 0.040000
0.571054 0.695038 0.040000
0.600478 0.695038 0.040000
0.630009 0.695038 0.040000
0.659643 0.695038 0.040000
0.689375 0.695038 0.040000
0.719203 0.695038 0.040000
0.749123 0.695038 0.040000
0.779132 0.695038 0.040000
0.809227 0.695038 0.040000
0.839405 0.695038 0.040000
0.869663 0.695038 0.040000
0.900000 0.695038 0.040000
0.000000 0.726525 0.040000
0.021315 0.726525 0.040000
0.045060 0.726525 0.040000
0.069819 0.726525 0.040000
0.095259 0.726525 0.040000
0.121218 0.726525 0.040000
0.147599 0.726525 0.040000
0.174336 0.726525 0.040000
0.201381 0.726525 0.040000
0.228698 0.726525 0.040000
0.256260 0.726525 0.040000
0.284043 0.726525 0.040000
0.312030 0.726525 0.040000
0.340204 0.726525 0.040000
0.368552 0.726525 0.040000
0.397063 0.726525 0.040000
0.425726 0.726525 0.040000
0.454533 0.726525 0.040000
0.483476 0.726525 0.040000
0.512548 0.726525 0.040000
0.541743 0.726525 0.040000
0.571054 0.726525 0.040000
0.600478 0.726525 0.040000
0.630009 0.726525 0.040000
0.659643 0.726525 0.040000
0.689375 0.726525 0.040000
0.719203 0.726525 0.040000
0.749123 0.726525 0.040000
0.779132 0.726525 0.040000
0.809227 0.726525 0.040000
0.839405 0.726525 0.040000
0.869663 0.726525 0.040000
0.900000 0.726525 0.040000
0.000000 0.757983 0.040000
0.021315 0.757983 0.040000
0.045060 0.757983 0.040000
0.069819 0.757983 0.040000
0.095259 0.757983 0.040000
0.121218 0.757983 0.040000
0.147599 0.757983 0.040000
0.174336 0.757983 0.040000
0.201381 0.757983 0.040000
0.228698 0.757983 0.040000
0.256260 0.757983 0.040000
0.284043 0.757983 0.040000
0.312030 0.757983 0.040000
0.340204 0.757983 0.040000
0.368552 0.757983 0.040000
0.397063 0.757983 0.040000
0.425726 0.757983 0.040000
0.454533 0.757983 0.040000
0.483476 0.757983 0.040000
0.512548 0.757983 0.040000
0.541743 0.757983 0.040000
0.571054 0.757983 0.040000
0.600478 0.757983 0.040000
0.630009 0.757983 0.040000
0.659643 0.757983 0.040000
0.689375 0.757983 0.040000
0.719203 0.757983 0.040000
0.749123 0.757983 0.040000
0.779132 0.757983 0.040000
0.809227 0.757983 0.040000
0.839405 0.757983 0.040000
0.869663 0.757983 0.040000
0.900000 0.757983 0.040000
0.000000 0.789414 0.040000
0.021315 0.789414 0.040000
0.045060 0.789414 0.040000
0.069819 0.789414 0.040000
0.095259 0.789414 0.040000
0.121218 0.789414 0.040000
0.147599 0.789414 0.040000
0.174336 0.789414 0.040000
0.201381 0.789414 0.040000
0.228698 0.789414 0.040000
0.256260 0.789414 0.040000
0.284043 0.789414 0.040000
0.312030 0.789414 0.040000
0.340204 0.789414 0.040000
0.368552 0.789414 0.040000
0.397063 0.789414 0.040000
0.425726 0.789414 0.040000
0.454533 0.789414 0.040000
0.483476 0.789414 0.040000
0.512548 0.789414 0.040000
0.541743 0.789414 0.040000
0.571054 0.789414 0.040000
0.600478 0.789414 0.040000
0.630009 0.789414 0.040000
0.659643 0.789414 0.040000
0.689375 0.789414 0.040000
0.719203 0.789414 0.040000
0.749123 0.789414 0.040000
0.779132 0.789414 0.040000
0.809227 0.789414 0.040000
0.839405 0.789414 0.040000
0.869663 0.789414 0.040000
0.900000 0.789414 0.040000
0.000000 0.820819 0.040000
0.021315 0.820819 0.040000
0.045060 0.820819 0.040000
0.069819 0.820819 0.040000
0.095259 0.820819 0.040000
0.121218 0.820819 0.040000
0.147599 0.820819 0.040000
0.174336 0.820819 0.040000
0.201381 0.820819 0.040000
0.228698 0.820819 0.040000
0.256260 0.820819 0.040000
0.284043 0.820819 0.040000
0.312030 0.820819 0.040000
0.340204 0.820819 0.040000
0.368552 0.820819 0.040000
0.397063 0.820819 0.040000
0.425726 0.820819 0.040000
0.454533 0.820819 0.040000
0.483476 0.820819 0.040000
0.512548 0.820819 0.040000
0.541743 0.820819 0.040000
0.571054 0.820819 0.040000
0.600478 0.820819 0.040000
0.630009 0.820819 0.040000
0.659643 0.820819 0.040000
0.689375 0.820819 0.040000
0.719203 0.820819 0.040000
0.749123 0.820819 0.040000
0.779132 0.820819 0.040000
0.809227 0.820819 0.040000
0.839405 0.820819 0.040000
0.869663 0.820819 0.040000
0.900000 0.820819 0.040000
0.000000 0.852199 0.040000
0.021315 0.852199 0.040000
0.045060 0.852199 0.040000
0.069819 0.852199 0.040000
0.095259 0.852199 0.040000
0.121218 0.852199 0.040000
0.147599 0.852199 0.040000
0.174336 0.852199 0.040000
0.201381 0.852199 0.040000
0.228698 0.852199 0.040000
0.256260 0.852199 0.040000
0.284043 0.852199 0.040000
0.312030 0.852199 0.040000
0.340204 0.852199 0.040000
0.368552 0.852199 0.040000
0.397063 0.852199 0.040000
0.425726 0.852199 0.040000
0.454533 0.852199 0.040000
0.483476 0.852199 0.040000
0.512548 0.852199 0.040000
0.541743 0.852199 0.040000
0.571054 0.852199 0.040000
0.600478 0.852199 0.040000
0.630009 0.852199 0.040000
0.659643 0.852199 0.040000
0.689375 0.852199 0.040000
0.719203 0.852199 0.040000
0.749123 0.852199 0.040000
