app/src/main/assets/luts/kodak_gold.cube
TITLE "Kodak Gold"
LUT_3D_SIZE 33
DOMAIN_MIN 0.0 0.0 0.0
DOMAIN_MAX 1.0 1.0 1.0
0.020000 0.010000 0.000000
0.063709 0.010000 0.000000
0.102702 0.010000 0.000000
0.140093 0.010000 0.000000
0.176482 0.010000 0.000000
0.212141 0.010000 0.000000
0.247231 0.010000 0.000000
0.281853 0.010000 0.000000
0.316081 0.010000 0.000000
0.349967 0.010000 0.000000
0.383553 0.010000 0.000000
0.416871 0.010000 0.000000
0.449947 0.010000 0.000000
0.482803 0.010000 0.000000
0.515457 0.010000 0.000000
0.547925 0.010000 0.000000
0.580220 0.010000 0.000000
0.612353 0.010000 0.000000
0.644336 0.010000 0.000000
0.676177 0.010000 0.000000
0.707884 0.010000 0.000000
0.739465 0.010000 0.000000
0.770925 0.010000 0.000000
0.802271 0.010000 0.000000
0.833509 0.010000 0.000000
0.864642 0.010000 0.000000
0.895676 0.010000 0.000000
0.926614 0.010000 0.000000
0.957461 0.010000 0.000000
0.988220 0.010000 0.000000
1.000000 0.010000 0.000000
1.000000 0.010000 0.000000
1.000000 0.010000 0.000000
0.020000 0.046615 0.000000
0.063709 0.046615 0.000000
0.102702 0.046615 0.000000
0.140093 0.046615 0.000000
0.176482 0.046615 0.000000
0.212141 0.046615 0.000000
0.247231 0.046615 0.000000
0.281853 0.046615 0.000000
0.316081 0.046615 0.000000
0.349967 0.046615 0.000000
0.383553 0.046615 0.000000
0.416871 0.046615 0.000000
0.449947 0.046615 0.000000
0.482803 0.046615 0.000000
0.515457 0.046615 0.000000
0.547925 0.046615 0.000000
0.580220 0.046615 0.000000
0.612353 0.046615 0.000000
0.644336 0.046615 0.000000
0.676177 0.046615 0.000000
0.707884 0.046615 0.000000
0.739465 0.046615 0.000000
0.770925 0.046615 0.000000
0.802271 0.046615 0.000000
0.833509 0.046615 0.000000
0.864642 0.046615 0.000000
0.895676 0.046615 0.000000
0.926614 0.046615 0.000000
0.957461 0.046615 0.000000
0.988220 0.046615 0.000000
1.000000 0.046615 0.000000
1.000000 0.046615 0.000000
1.000000 0.046615 0.000000
0.020000 0.081227 0.000000
0.063709 0.081227 0.000000
0.102702 0.081227 0.000000
0.140093 0.081227 0.000000
0.176482 0.081227 0.000000
0.212141 0.081227 0.000000
0.247231 0.081227 0.000000
0.281853 0.081227 0.000000
0.316081 0.081227 0.000000
0.349967 0.081227 0.000000
0.383553 0.081227 0.000000
0.416871 0.081227 0.000000
0.449947 0.081227 0.000000
0.482803 0.081227 0.000000
0.515457 0.081227 0.000000
0.547925 0.081227 0.000000
0.580220 0.081227 0.000000
0.612353 0.081227 0.000000
0.644336 0.081227 0.000000
0.676177 0.081227 0.000000
0.707884 0.081227 0.000000
0.739465 0.081227 0.000000
0.770925 0.081227 0.000000
0.802271 0.081227 0.000000
0.833509 0.081227 0.000000
0.864642 0.081227 0.000000
0.895676 0.081227 0.000000
0.926614 0.081227 0.000000
0.957461 0.081227 0.000000
0.988220 0.081227 0.000000
1.000000 0.081227 0.000000
1.000000 0.081227 0.000000
1.000000 0.081227 0.000000
0.020000 0.115122 0.000000
0.063709 0.115122 0.000000
0.102702 0.115122 0.000000
0.140093 0.115122 0.000000
0.176482 0.115122 0.000000
0.212141 0.115122 0.000000
0.247231 0.115122 0.000000
0.281853 0.115122 0.000000
0.316081 0.115122 0.000000
0.349967 0.115122 0.000000
0.383553 0.115122 0.000000
0.416871 0.115122 0.000000
0.449947 0.115122 0.000000
0.482803 0.115122 0.000000
0.515457 0.115122 0.000000
0.547925 0.115122 0.000000
0.580220 0.115122 0.000000
0.612353 0.115122 0.000000
0.644336 0.115122 0.000000
0.676177 0.115122 0.000000
0.707884 0.115122 0.000000
0.739465 0.115122 0.000000
0.770925 0.115122 0.000000
0.802271 0.115122 0.000000
0.833509 0.115122 0.000000
0.864642 0.115122 0.000000
0.895676 0.115122 0.000000
0.926614 0.115122 0.000000
0.957461 0.115122 0.000000
0.988220 0.115122 0.000000
1.000000 0.115122 0.000000
1.000000 0.115122 0.000000
1.000000 0.115122 0.000000
0.020000 0.148559 0.000000
0.063709 0.148559 0.000000
0.102702 0.148559 0.000000
0.140093 0.148559 0.000000
0.176482 0.148559 0.000000
0.212141 0.148559 0.000000
0.247231 0.148559 0.000000
0.281853 0.148559 0.000000
0.316081 0.148559 0.000000
0.349967 0.148559 0.000000
0.383553 0.148559 0.000000
0.416871 0.148559 0.000000
0.449947 0.148559 0.000000
0.482803 0.148559 0.000000
0.515457 0.148559 0.000000
0.547925 0.148559 0.000000
0.580220 0.148559 0.000000
0.612353 0.148559 0.000000
0.644336 0.148559 0.000000
0.676177 0.148559 0.000000
0.707884 0.148559 0.000000
0.739465 0.148559 0.000000
0.770925 0.148559 0.000000
0.802271 0.148559 0.000000
0.833509 0.148559 0.000000
0.864642 0.148559 0.000000
0.895676 0.148559 0.000000
0.926614 0.148559 0.000000
0.957461 0.148559 0.000000
0.988220 0.148559 0.000000
1.000000 0.148559 0.000000
1.000000 0.148559 0.000000
1.000000 0.148559 0.000000
0.020000 0.181659 0.000000
0.063709 0.181659 0.000000
0.102702 0.181659 0.000000
0.140093 0.181659 0.000000
0.176482 0.181659 0.000000
0.212141 0.181659 0.000000
0.247231 0.181659 0.000000
0.281853 0.181659 0.000000
0.316081 0.181659 0.000000
0.349967 0.181659 0.000000
0.383553 0.181659 0.000000
0.416871 0.181659 0.000000
0.449947 0.181659 0.000000
0.482803 0.181659 0.000000
0.515457 0.181659 0.000000
0.547925 0.181659 0.000000
0.580220 0.181659 0.000000
0.612353 0.181659 0.000000
0.644336 0.181659 0.000000
0.676177 0.181659 0.000000
0.707884 0.181659 0.000000
0.739465 0.181659 0.000000
0.770925 0.181659 0.000000
0.802271 0.181659 0.000000
0.833509 0.181659 0.000000
0.864642 0.181659 0.000000
0.895676 0.181659 0.000000
0.926614 0.181659 0.000000
0.957461 0.181659 0.000000
0.988220 0.181659 0.000000
1.000000 0.181659 0.000000
1.000000 0.181659 0.000000
1.000000 0.181659 0.000000
0.020000 0.214494 0.000000
0.063709 0.214494 0.000000
0.102702 0.214494 0.000000
0.140093 0.214494 0.000000
0.176482 0.214494 0.000000
0.212141 0.214494 0.000000
0.247231 0.214494 0.000000
0.281853 0.214494 0.000000
0.316081 0.214494 0.000000
0.349967 0.214494 0.000000
0.383553 0.214494 0.000000
0.416871 0.214494 0.000000
0.449947 0.214494 0.000000
0.482803 0.214494 0.000000
0.515457 0.214494 0.000000
0.547925 0.214494 0.000000
0.580220 0.214494 0.000000
0.612353 0.214494 0.000000
0.644336 0.214494 0.000000
0.676177 0.214494 0.000000
0.707884 0.214494 0.000000
0.739465 0.214494 0.000000
0.770925 0.214494 0.000000
0.802271 0.214494 0.000000
0.833509 0.214494 0.000000
0.864642 0.214494 0.000000
0.895676 0.214494 0.000000
0.926614 0.214494 0.000000
0.957461 0.214494 0.000000
0.988220 0.214494 0.000000
1.000000 0.214494 0.000000
1.000000 0.214494 0.000000
1.000000 0.214494 0.000000
0.020000 0.247110 0.000000
0.063709 0.247110 0.000000
0.102702 0.247110 0.000000
0.140093 0.247110 0.000000
0.176482 0.247110 0.000000
0.212141 0.247110 0.000000
0.247231 0.247110 0.000000
0.281853 0.247110 0.000000
0.316081 0.247110 0.000000
0.349967 0.247110 0.000000
0.383553 0.247110 0.000000
0.416871 0.247110 0.000000
0.449947 0.247110 0.000000
0.482803 0.247110 0.000000
0.515457 0.247110 0.000000
0.547925 0.247110 0.000000
0.580220 0.247110 0.000000
0.612353 0.247110 0.000000
0.644336 0.247110 0.000000
0.676177 0.247110 0.000000
0.707884 0.247110 0.000000
0.739465 0.247110 0.000000
0.770925 0.247110 0.000000
0.802271 0.247110 0.000000
0.833509 0.247110 0.000000
0.864642 0.247110 0.000000
0.895676 0.247110 0.000000
0.926614 0.247110 0.000000
0.957461 0.247110 0.000000
0.988220 0.247110 0.000000
1.000000 0.247110 0.000000
1.000000 0.247110 0.000000
1.000000 0.247110 0.000000
0.020000 0.279540 0.000000
0.063709 0.279540 0.000000
0.102702 0.279540 0.000000
0.140093 0.279540 0.000000
0.176482 0.279540 0.000000
0.212141 0.279540 0.000000
0.247231 0.279540 0.000000
0.281853 0.279540 0.000000
0.316081 0.279540 0.000000
0.349967 0.279540 0.000000
0.383553 0.279540 0.000000
0.416871 0.279540 0.000000
0.449947 0.279540 0.000000
0.482803 0.279540 0.000000
0.515457 0.279540 0.000000
0.547925 0.279540 0.000000
0.580220 0.279540 0.000000
0.612353 0.279540 0.000000
0.644336 0.279540 0.000000
0.676177 0.279540 0.000000
0.707884 0.279540 0.000000
0.739465 0.279540 0.000000
0.770925 0.279540 0.000000
0.802271 0.279540 0.000000
0.833509 0.279540 0.000000
0.864642 0.279540 0.000000
0.895676 0.279540 0.000000
0.926614 0.279540 0.000000
0.957461 0.279540 0.000000
0.988220 0.279540 0.000000
1.000000 0.279540 0.000000
1.000000 0.279540 0.000000
1.000000 0.279540 0.000000
0.020000 0.311807 0.000000
0.063709 0.311807 0.000000
0.102702 0.311807 0.000000
0.140093 0.311807 0.000000
0.176482 0.311807 0.000000
0.212141 0.311807 0.000000
0.247231 0.311807 0.000000
0.281853 0.311807 0.000000
0.316081 0.311807 0.000000
0.349967 0.311807 0.000000
0.383553 0.311807 0.000000
0.416871 0.311807 0.000000
0.449947 0.311807 0.000000
0.482803 0.311807 0.000000
0.515457 0.311807 0.000000
0.547925 0.311807 0.000000
0.580220 0.311807 0.000000
0.612353 0.311807 0.000000
0.644336 0.311807 0.000000
0.676177 0.311807 0.000000
0.707884 0.311807 0.000000
0.739465 0.311807 0.000000
0.770925 0.311807 0.000000
0.802271 0.311807 0.000000
0.833509 0.311807 0.000000
0.864642 0.311807 0.000000
0.895676 0.311807 0.000000
0.926614 0.311807 0.000000
0.957461 0.311807 0.000000
0.988220 0.311807 0.000000
1.000000 0.311807 0.000000
1.000000 0.311807 0.000000
1.000000 0.311807 0.000000
0.020000 0.343931 0.000000
0.063709 0.343931 0.000000
0.102702 0.343931 0.000000
0.140093 0.343931 0.000000
0.176482 0.343931 0.000000
0.212141 0.343931 0.000000
0.247231 0.343931 0.000000
0.281853 0.343931 0.000000
0.316081 0.343931 0.000000
0.349967 0.343931 0.000000
0.383553 0.343931 0.000000
0.416871 0.343931 0.000000
0.449947 0.343931 0.000000
0.482803 0.343931 0.000000
0.515457 0.343931 0.000000
0.547925 0.343931 0.000000
0.580220 0.343931 0.000000
0.612353 0.343931 0.000000
0.644336 0.343931 0.000000
0.676177 0.343931 0.000000
0.707884 0.343931 0.000000
0.739465 0.343931 0.000000
0.770925 0.343931 0.000000
0.802271 0.343931 0.000000
0.833509 0.343931 0.000000
0.864642 0.343931 0.000000
0.895676 0.343931 0.000000
0.926614 0.343931 0.000000
0.957461 0.343931 0.000000
0.988220 0.343931 0.000000
1.000000 0.343931 0.000000
1.000000 0.343931 0.000000
1.000000 0.343931 0.000000
0.020000 0.375926 0.000000
0.063709 0.375926 0.000000
0.102702 0.375926 0.000000
0.140093 0.375926 0.000000
0.176482 0.375926 0.000000
0.212141 0.375926 0.000000
0.247231 0.375926 0.000000
0.281853 0.375926 0.000000
0.316081 0.375926 0.000000
0.349967 0.375926 0.000000
0.383553 0.375926 0.000000
0.416871 0.375926 0.000000
0.449947 0.375926 0.000000
0.482803 0.375926 0.000000
0.515457 0.375926 0.000000
0.547925 0.375926 0.000000
0.580220 0.375926 0.000000
0.612353 0.375926 0.000000
0.644336 0.375926 0.000000
0.676177 0.375926 0.000000
0.707884 0.375926 0.000000
0.739465 0.375926 0.000000
0.770925 0.375926 0.000000
0.802271 0.375926 0.000000
0.833509 0.375926 0.000000
0.864642 0.375926 0.000000
0.895676 0.375926 0.000000
0.926614 0.375926 0.000000
0.957461 0.375926 0.000000
0.988220 0.375926 0.000000
1.000000 0.375926 0.000000
1.000000 0.375926 0.000000
1.000000 0.375926 0.000000
0.020000 0.407805 0.000000
0.063709 0.407805 0.000000
0.102702 0.407805 0.000000
0.140093 0.407805 0.000000
0.176482 0.407805 0.000000
0.212141 0.407805 0.000000
0.247231 0.407805 0.000000
0.281853 0.407805 0.000000
0.316081 0.407805 0.000000
0.349967 0.407805 0.000000
0.383553 0.407805 0.000000
0.416871 0.407805 0.000000
0.449947 0.407805 0.000000
0.482803 0.407805 0.000000
0.515457 0.407805 0.000000
0.547925 0.407805 0.000000
0.580220 0.407805 0.000000
0.612353 0.407805 0.000000
0.644336 0.407805 0.000000
0.676177 0.407805 0.000000
0.707884 0.407805 0.000000
0.739465 0.407805 0.000000
0.770925 0.407805 0.000000
0.802271 0.407805 0.000000
0.833509 0.407805 0.000000
0.864642 0.407805 0.000000
0.895676 0.407805 0.000000
0.926614 0.407805 0.000000
0.957461 0.407805 0.000000
0.988220 0.407805 0.000000
1.000000 0.407805 0.000000
1.000000 0.407805 0.000000
1.000000 0.407805 0.000000
0.020000 0.439578 0.000000
0.063709 0.439578 0.000000
0.102702 0.439578 0.000000
0.140093 0.439578 0.000000
0.176482 0.439578 0.000000
0.212141 0.439578 0.000000
0.247231 0.439578 0.000000
0.281853 0.439578 0.000000
0.316081 0.439578 0.000000
0.349967 0.439578 0.000000
0.383553 0.439578 0.000000
0.416871 0.439578 0.000000
0.449947 0.439578 0.000000
0.482803 0.439578 0.000000
0.515457 0.439578 0.000000
0.547925 0.439578 0.000000
0.580220 0.439578 0.000000
0.612353 0.439578 0.000000
0.644336 0.439578 0.000000
0.676177 0.439578 0.000000
0.707884 0.439578 0.000000
0.739465 0.439578 0.000000
0.770925 0.439578 0.000000
0.802271 0.439578 0.000000
0.833509 0.439578 0.000000
0.864642 0.439578 0.000000
0.895676 0.439578 0.000000
0.926614 0.439578 0.000000
0.957461 0.439578 0.000000
0.988220 0.439578 0.000000
1.000000 0.439578 0.000000
1.000000 0.439578 0.000000
1.000000 0.439578 0.000000
0.020000 0.471253 0.000000
0.063709 0.471253 0.000000
0.102702 0.471253 0.000000
0.140093 0.471253 0.000000
0.176482 0.471253 0.000000
0.212141 0.471253 0.000000
0.247231 0.471253 0.000000
0.281853 0.471253 0.000000
0.316081 0.471253 0.000000
0.349967 0.471253 0.000000
0.383553 0.471253 0.000000
0.416871 0.471253 0.000000
0.449947 0.471253 0.000000
0.482803 0.471253 0.000000
0.515457 0.471253 0.000000
0.547925 0.471253 0.000000
0.580220 0.471253 0.000000
0.612353 0.471253 0.000000
0.644336 0.471253 0.000000
0.676177 0.471253 0.000000
0.707884 0.471253 0.000000
0.739465 0.471253 0.000000
0.770925 0.471253 0.000000
0.802271 0.471253 0.000000
0.833509 0.471253 0.000000
0.864642 0.471253 0.000000
0.895676 0.471253 0.000000
0.926614 0.471253 0.000000
0.957461 0.471253 0.000000
0.988220 0.471253 0.000000
1.000000 0.471253 0.000000
1.000000 0.471253 0.000000
1.000000 0.471253 0.000000
0.020000 0.502838 0.000000
0.063709 0.502838 0.000000
0.102702 0.502838 0.000000
0.140093 0.502838 0.000000
0.176482 0.502838 0.000000
0.212141 0.502838 0.000000
0.247231 0.502838 0.000000
0.281853 0.502838 0.000000
0.316081 0.502838 0.000000
0.349967 0.502838 0.000000
0.383553 0.502838 0.000000
0.416871 0.502838 0.000000
0.449947 0.502838 0.000000
0.482803 0.502838 0.000000
0.515457 0.502838 0.000000
0.547925 0.502838 0.000000
0.580220 0.502838 0.000000
0.612353 0.502838 0.000000
0.644336 0.502838 0.000000
0.676177 0.502838 0.000000
0.707884 0.502838 0.000000
0.739465 0.502838 0.000000
0.770925 0.502838 0.000000
0.802271 0.502838 0.000000
0.833509 0.502838 0.000000
0.864642 0.502838 0.000000
0.895676 0.502838 0.000000
0.926614 0.502838 0.000000
0.957461 0.502838 0.000000
0.988220 0.502838 0.000000
1.000000 0.502838 0.000000
1.000000 0.502838 0.000000
1.000000 0.502838 0.000000
0.020000 0.534338 0.000000
0.063709 0.534338 0.000000
0.102702 0.534338 0.000000
0.140093 0.534338 0.000000
0.176482 0.534338 0.000000
0.212141 0.534338 0.000000
0.247231 0.534338 0.000000
0.281853 0.534338 0.000000
0.316081 0.534338 0.000000
0.349967 0.534338 0.000000
0.383553 0.534338 0.000000
0.416871 0.534338 0.000000
0.449947 0.534338 0.000000
0.482803 0.534338 0.000000
0.515457 0.534338 0.000000
0.547925 0.534338 0.000000
0.580220 0.534338 0.000000
0.612353 0.534338 0.000000
0.644336 0.534338 0.000000
0.676177 0.534338 0.000000
0.707884 0.534338 0.000000
0.739465 0.534338 0.000000
0.770925 0.534338 0.000000
0.802271 0.534338 0.000000
0.833509 0.534338 0.000000
0.864642 0.534338 0.000000
0.895676 0.534338 0.000000
0.926614 0.534338 0.000000
0.957461 0.534338 0.000000
0.988220 0.534338 0.000000
1.000000 0.534338 0.000000
1.000000 0.534338 0.000000
1.000000 0.534338 0.000000
0.020000 0.565760 0.000000
0.063709 0.565760 0.000000
0.102702 0.565760 0.000000
0.140093 0.565760 0.000000
0.176482 0.565760 0.000000
0.212141 0.565760 0.000000
0.247231 0.565760 0.000000
0.281853 0.565760 0.000000
0.316081 0.565760 0.000000
0.349967 0.565760 0.000000
0.383553 0.565760 0.000000
0.416871 0.565760 0.000000
0.449947 0.565760 0.000000
0.482803 0.565760 0.000000
0.515457 0.565760 0.000000
0.547925 0.565760 0.000000
0.580220 0.565760 0.000000
0.612353 0.565760 0.000000
0.644336 0.565760 0.000000
0.676177 0.565760 0.000000
0.707884 0.565760 0.000000
0.739465 0.565760 0.000000
0.770925 0.565760 0.000000
0.802271 0.565760 0.000000
0.833509 0.565760 0.000000
0.864642 0.565760 0.000000
0.895676 0.565760 0.000000
0.926614 0.565760 0.000000
0.957461 0.565760 0.000000
0.988220 0.565760 0.000000
1.000000 0.565760 0.000000
1.000000 0.565760 0.000000
1.000000 0.565760 0.000000
0.020000 0.597108 0.000000
0.063709 0.597108 0.000000
0.102702 0.597108 0.000000
0.140093 0.597108 0.000000
0.176482 0.597108 0.000000
0.212141 0.597108 0.000000
0.247231 0.597108 0.000000
0.281853 0.597108 0.000000
0.316081 0.597108 0.000000
0.349967 0.597108 0.000000
0.383553 0.597108 0.000000
0.416871 0.597108 0.000000
0.449947 0.597108 0.000000
0.482803 0.597108 0.000000
0.515457 0.597108 0.000000
0.547925 0.597108 0.000000
0.580220 0.597108 0.000000
0.612353 0.597108 0.000000
0.644336 0.597108 0.000000
0.676177 0.597108 0.000000
0.707884 0.597108 0.000000
0.739465 0.597108 0.000000
0.770925 0.597108 0.000000
0.802271 0.597108 0.000000
0.833509 0.597108 0.000000
0.864642 0.597108 0.000000
0.895676 0.597108 0.000000
0.926614 0.597108 0.000000
0.957461 0.597108 0.000000
0.988220 0.597108 0.000000
1.000000 0.597108 0.000000
1.000000 0.597108 0.000000
1.000000 0.597108 0.000000
0.020000 0.628386 0.000000
0.063709 0.628386 0.000000
0.102702 0.628386 0.000000
0.140093 0.628386 0.000000
0.176482 0.628386 0.000000
0.212141 0.628386 0.000000
0.247231 0.628386 0.000000
0.281853 0.628386 0.000000
0.316081 0.628386 0.000000
0.349967 0.628386 0.000000
0.383553 0.628386 0.000000
0.416871 0.628386 0.000000
0.449947 0.628386 0.000000
0.482803 0.628386 0.000000
0.515457 0.628386 0.000000
0.547925 0.628386 0.000000
0.580220 0.628386 0.000000
0.612353 0.628386 0.000000
0.644336 0.628386 0.000000
0.676177 0.628386 0.000000
0.707884 0.628386 0.000000
0.739465 0.628386 0.000000
0.770925 0.628386 0.000000
0.802271 0.628386 0.000000
0.833509 0.628386 0.000000
0.864642 0.628386 0.000000
0.895676 0.628386 0.000000
0.926614 0.628386 0.000000
0.957461 0.628386 0.000000
0.988220 0.628386 0.000000
1.000000 0.628386 0.000000
1.000000 0.628386 0.000000
1.000000 0.628386 0.000000
0.020000 0.659598 0.000000
0.063709 0.659598 0.000000
0.102702 0.659598 0.000000
0.140093 0.659598 0.000000
0.176482 0.659598 0.000000
0.212141 0.659598 0.000000
0.247231 0.659598 0.000000
0.281853 0.659598 0.000000
0.316081 0.659598 0.000000
0.349967 0.659598 0.000000
0.383553 0.659598 0.000000
0.416871 0.659598 0.000000
0.449947 0.659598 0.000000
0.482803 0.659598 0.000000
0.515457 0.659598 0.000000
0.547925 0.659598 0.000000
0.580220 0.659598 0.000000
0.612353 0.659598 0.000000
0.644336 0.659598 0.000000
0.676177 0.659598 0.000000
0.707884 0.659598 0.000000
0.739465 0.659598 0.000000
0.770925 0.659598 0.000000
0.802271 0.659598 0.000000
0.833509 0.659598 0.000000
0.864642 0.659598 0.000000
0.895676 0.659598 0.000000
0.926614 0.659598 0.000000
0.957461 0.659598 0.000000
0.988220 0.659598 0.000000
1.000000 0.659598 0.000000
1.000000 0.659598 0.000000
1.000000 0.659598 0.000000
0.020000 0.690749 0.000000
0.063709 0.690749 0.000000
0.102702 0.690749 0.000000
0.140093 0.690749 0.000000
0.176482 0.690749 0.000000
0.212141 0.690749 0.000000
0.247231 0.690749 0.000000
0.281853 0.690749 0.000000
0.316081 0.690749 0.000000
0.349967 0.690749 0.000000
0.383553 0.690749 0.000000
0.416871 0.690749 0.000000
0.449947 0.690749 0.000000
0.482803 0.690749 0.000000
0.515457 0.690749 0.000000
0.547925 0.690749 0.000000
0.580220 0.690749 0.000000
0.612353 0.690749 0.000000
0.644336 0.690749 0.000000
0.676177 0.690749 0.000000
0.707884 0.690749 0.000000
0.739465 0.690749 0.000000
0.770925 0.690749 0.000000
0.802271 0.690749 0.000000
0.833509 0.690749 0.000000
0.864642 0.690749 0.000000
0.895676 0.690749 0.000000
0.926614 0.690749 0.000000
0.957461 0.690749 0.000000
0.988220 0.690749 0.000000
1.000000 0.690749 0.000000
1.000000 0.690749 0.000000
1.000000 0.690749 0.000000
0.020000 0.721839 0.000000
0.063709 0.721839 0.000000
0.102702 0.721839 0.000000
0.140093 0.721839 0.000000
0.176482 0.721839 0.000000
0.212141 0.721839 0.000000
0.247231 0.721839 0.000000
0.281853 0.721839 0.000000
0.316081 0.721839 0.000000
0.349967 0.721839 0.000000
0.383553 0.721839 0.000000
0.416871 0.721839 0.000000
0.449947 0.721839 0.000000
0.482803 0.721839 0.000000
0.515457 0.721839 0.000000
0.547925 0.721839 0.000000
0.580220 0.721839 0.000000
0.612353 0.721839 0.000000
0.644336 0.721839 0.000000
0.676177 0.721839 0.000000
0.707884 0.721839 0.000000
0.739465 0.721839 0.000000
0.770925 0.721839 0.000000
0.802271 0.721839 0.000000
0.833509 0.721839 0.000000
0.864642 0.721839 0.000000
0.895676 0.721839 0.000000
0.926614 0.721839 0.000000
0.957461 0.721839 0.000000
0.988220 0.721839 0.000000
1.000000 0.721839 0.000000
1.000000 0.721839 0.000000
1.000000 0.721839 0.000000
0.020000 0.752874 0.000000
0.063709 0.752874 0.000000
0.102702 0.752874 0.000000
0.140093 0.752874 0.000000
0.176482 0.752874 0.000000
0.212141 0.752874 0.000000
0.247231 0.752874 0.000000
0.281853 0.752874 0.000000
0.316081 0.752874 0.000000
0.349967 0.752874 0.000000
0.383553 0.752874 0.000000
0.416871 0.752874 0.000000
0.449947 0.752874 0.000000
0.482803 0.752874 0.000000
0.515457 0.752874 0.000000
0.547925 0.752874 0.000000
0.580220 0.752874 0.000000
0.612353 0.752874 0.000000
0.644336 0.752874 0.000000
0.676177 0.752874 0.000000
0.707884 0.752874 0.000000
0.739465 0.752874 0.000000
0.770925 0.752874 0.000000
0.802271 0.752874 0.000000
0.833509 0.752874 0.000000
0.864642 0.752874 0.000000
0.895676 0.752874 0.000000
0.926614 0.752874 0.000000
0.957461 0.752874 0.000000
0.988220 0.752874 0.000000
1.000000 0.752874 0.000000
1.000000 0.752874 0.000000
1.000000 0.752874 0.000000
0.020000 0.783854 0.000000
0.063709 0.783854 0.000000
0.102702 0.783854 0.000000
0.140093 0.783854 0.000000
0.176482 0.783854 0.000000
0.212141 0.783854 0.000000
0.247231 0.783854 0.000000
0.281853 0.783854 0.000000
0.316081 0.783854 0.000000
0.349967 0.783854 0.000000
0.383553 0.783854 0.000000
0.416871 0.783854 0.000000
0.449947 0.783854 0.000000
0.482803 0.783854 0.000000
0.515457 0.783854 0.000000
0.547925 0.783854 0.000000
0.580220 0.783854 0.000000
0.612353 0.783854 0.000000
0.644336 0.783854 0.000000
0.676177 0.783854 0.000000
0.707884 0.783854 0.000000
0.739465 0.783854 0.000000
0.770925 0.783854 0.000000
0.802271 0.783854 0.000000
0.833509 0.783854 0.000000
0.864642 0.783854 0.000000
0.895676 0.783854 0.000000
0.926614 0.783854 0.000000
0.957461 0.783854 0.000000
0.988220 0.783854 0.000000
1.000000 0.783854 0.000000
1.000000 0.783854 0.000000
1.000000 0.783854 0.000000
0.020000 0.814783 0.000000
0.063709 0.814783 0.000000
0.102702 0.814783 0.000000
0.140093 0.814783 0.000000
0.176482 0.814783 0.000000
0.212141 0.814783 0.000000
0.247231 0.814783 0.000000
0.281853 0.814783 0.000000
0.316081 0.814783 0.000000
0.349967 0.814783 0.000000
0.383553 0.814783 0.000000
0.416871 0.814783 0.000000
0.449947 0.814783 0.000000
0.482803 0.814783 0.000000
0.515457 0.814783 0.000000
0.547925 0.814783 0.000000
0.580220 0.814783 0.000000
0.612353 0.814783 0.000000
0.644336 0.814783 0.000000
0.676177 0.814783 0.000000
0.707884 0.814783 0.000000
0.739465 0.814783 0.000000
0.770925 0.814783 0.000000
0.802271 0.814783 0.000000
0.833509 0.814783 0.000000
0.864642 0.814783 0.000000
0.895676 0.814783 0.000000
0.926614 0.814783 0.000000
0.957461 0.814783 0.000000
0.988220 0.814783 0.000000
1.000000 0.814783 0.000000
1.000000 0.814783 0.000000
1.000000 0.814783 0.000000
0.020000 0.845662 0.000000
0.063709 0.845662 0.000000
0.102702 0.845662 0.000000
0.140093 0.845662 0.000000
0.176482 0.845662 0.000000
0.212141 0.845662 0.000000
0.247231 0.845662 0.000000
0.281853 0.845662 0.000000
0.316081 0.845662 0.000000
0.349967 0.845662 0.000000
0.383553 0.845662 0.000000
0.416871 0.845662 0.000000
0.449947 0.845662 0.000000
0.482803 0.845662 0.000000
0.515457 0.845662 0.000000
0.547925 0.845662 0.000000
0.580220 0.845662 0.000000
0.612353 0.845662 0.000000
0.644336 0.845662 0.000000
0.676177 0.845662 0.000000
0.707884 0.845662 0.000000
0.739465 0.845662 0.000000
0.770925 0.845662 0.000000
0.802271 0.845662 0.000000
0.833509 0.845662 0.000000
0.864642 0.845662 0.000000
0.895676 0.845662 0.000000
