app/src/main/assets/luts/kodak_gold.cube
TITLE "Kodak Gold"
LUT_3D_SIZE 5
DOMAIN_MIN 0.0 0.0 0.0
DOMAIN_MAX 1.0 1.0 1.0
0.020000 0.010000 0.000000
0.316081 0.010000 0.000000
0.580220 0.010000 0.000000
0.833509 0.010000 0.000000
1.000000 0.010000 0.000000
0.020000 0.279540 0.000000
0.316081 0.279540 0.000000
0.580220 0.279540 0.000000
0.833509 0.279540 0.000000
1.000000 0.279540 0.000000
0.020000 0.534338 0.000000
0.316081 0.534338 0.000000
0.580220 0.534338 0.000000
0.833509 0.534338 0.000000
1.000000 0.534338 0.000000
0.020000 0.783854 0.000000
0.316081 0.783854 0.000000
0.580220 0.783854 0.000000
0.833509 0.783854 0.000000
1.000000 0.783854 0.000000
0.020000 1.000000 0.000000
0.316081 1.000000 0.000000
0.580220 1.000000 0.000000
0.833509 1.000000 0.000000
1.000000 1.000000 0.000000
0.010499 0.000000 0.210331
0.316081 0.000000 0.206876
0.580220 0.000000 0.203844
0.833509 0.000000 0.202764
1.000000 0.000000 0.202354
0.000000 0.279540 0.204998
0.316081 0.274058 0.194468
0.580220 0.234438 0.154848
0.833509 0.196444 0.116854
1.000000 0.171471 0.091881
0.000000 0.534338 0.197732
0.283343 0.534338 0.161730
0.580220 0.527456 0.154848
0.833509 0.489462 0.116854
1.000000 0.464489 0.091881
0.000000 0.783854 0.195314
0.245915 0.783854 0.124302
0.549674 0.783854 0.124302
0.833509 0.776406 0.116854
1.000000 0.751432 0.091881
0.000000 1.000000 0.194215
0.213493 1.000000 0.091881
0.517252 1.000000 0.091881
0.808535 1.000000 0.091881
1.000000 1.000000 0.091881
0.010230 0.000000 0.444647
0.313123 0.000000 0.444647
0.580220 0.000000 0.442270
0.833509 0.000000 0.439925
1.000000 0.000000 0.439037
0.000000 0.271763 0.444647
0.296796 0.254773 0.444647
0.580220 0.234438 0.424311
0.833509 0.196444 0.386318
1.000000 0.171471 0.361344
0.000000 0.534338 0.441159
0.283343 0.534338 0.431193
0.580220 0.527456 0.424311
0.833509 0.489462 0.386318
1.000000 0.464489 0.361344
0.000000 0.783854 0.435766
0.245915 0.783854 0.393766
0.549674 0.783854 0.393766
0.833509 0.776406 0.386318
1.000000 0.751432 0.361344
0.000000 1.000000 0.433313
0.213493 1.000000 0.361344
0.517252 1.000000 0.361344
0.808535 1.000000 0.361344
1.000000 1.000000 0.361344
0.010147 0.000000 0.688960
0.310589 0.000000 0.688960
0.578618 0.000000 0.688960
0.833509 0.000000 0.687205
1.000000 0.000000 0.685818
0.000000 0.267299 0.688960
0.260149 0.218127 0.688960
0.563908 0.218127 0.688960
0.833509 0.196444 0.667278
1.000000 0.171471 0.642304
0.000000 0.529715 0.688960
0.260149 0.511145 0.688960
0.563908 0.511145 0.688960
0.833509 0.489462 0.667278
1.000000 0.464489 0.642304
0.000000 0.783854 0.686475
0.245915 0.783854 0.674726
0.549674 0.783854 0.674726
0.833509 0.776406 0.667278
1.000000 0.751432 0.642304
0.000000 1.000000 0.682612
0.213493 1.000000 0.642304
0.517252 1.000000 0.642304
0.808535 1.000000 0.642304
1.000000 1.000000 0.642304
0.010108 0.000000 0.940000
0.309372 0.000000 0.940000
0.576351 0.000000 0.940000
0.832364 0.000000 0.940000
1.000000 0.000000 0.939394
0.000000 0.265182 0.940000
0.222493 0.180471 0.940000
0.526252 0.180471 0.940000
0.817535 0.180471 0.940000
1.000000 0.171471 0.931000
0.000000 0.525519 0.940000
0.222493 0.473489 0.940000
0.526252 0.473489 0.940000
0.817535 0.473489 0.940000
1.000000 0.464489 0.931000
0.000000 0.780459 0.940000
0.222493 0.760432 0.940000
0.526252 0.760432 0.940000
0.817535 0.760432 0.940000
1.000000 0.751432 0.931000
0.000000 1.000000 0.938776
0.213493 1.000000 0.931000
0.517252 1.000000 0.931000
0.808535 1.000000 0.931000
1.000000 1.000000 0.931000
