app/src/main/assets/luts/kodak_gold.cube
TITLE "Kodak Gold"
LUT_3D_SIZE 9
DOMAIN_MIN 0.0 0.0 0.0
DOMAIN_MAX 1.0 1.0 1.0
0.020000 0.010000 0.000000
0.176482 0.010000 0.000000
0.316081 0.010000 0.000000
0.449947 0.010000 0.000000
0.580220 0.010000 0.000000
0.707884 0.010000 0.000000
0.833509 0.010000 0.000000
0.957461 0.010000 0.000000
1.000000 0.010000 0.000000
0.020000 0.148559 0.000000
0.176482 0.148559 0.000000
0.316081 0.148559 0.000000
0.449947 0.148559 0.000000
0.580220 0.148559 0.000000
0.707884 0.148559 0.000000
0.833509 0.148559 0.000000
0.957461 0.148559 0.000000
1.000000 0.148559 0.000000
0.020000 0.279540 0.000000
0.176482 0.279540 0.000000
0.316081 0.279540 0.000000
0.449947 0.279540 0.000000
0.580220 0.279540 0.000000
0.707884 0.279540 0.000000
0.833509 0.279540 0.000000
0.957461 0.279540 0.000000
1.000000 0.279540 0.000000
0.020000 0.407805 0.000000
0.176482 0.407805 0.000000
0.316081 0.407805 0.000000
0.449947 0.407805 0.000000
0.580220 0.407805 0.000000
0.707884 0.407805 0.000000
0.833509 0.407805 0.000000
0.957461 0.407805 0.000000
1.000000 0.407805 0.000000
0.020000 0.534338 0.000000
0.176482 0.534338 0.000000
0.316081 0.534338 0.000000
0.449947 0.534338 0.000000
0.580220 0.534338 0.000000
0.707884 0.534338 0.000000
0.833509 0.534338 0.000000
0.957461 0.534338 0.000000
1.000000 0.534338 0.000000
0.020000 0.659598 0.000000
0.176482 0.659598 0.000000
0.316081 0.659598 0.000000
0.449947 0.659598 0.000000
0.580220 0.659598 0.000000
0.707884 0.659598 0.000000
0.833509 0.659598 0.000000
0.957461 0.659598 0.000000
1.000000 0.659598 0.000000
0.020000 0.783854 0.000000
0.176482 0.783854 0.000000
0.316081 0.783854 0.000000
0.449947 0.783854 0.000000
0.580220 0.783854 0.000000
0.707884 0.783854 0.000000
0.833509 0.783854 0.000000
0.957461 0.783854 0.000000
1.000000 0.783854 0.000000
0.020000 0.907280 0.000000
0.176482 0.907280 0.000000
0.316081 0.907280 0.000000
0.449947 0.907280 0.000000
0.580220 0.907280 0.000000
0.707884 0.907280 0.000000
0.833509 0.907280 0.000000
0.957461 0.907280 0.000000
1.000000 0.907280 0.000000
0.020000 1.000000 0.000000
0.176482 1.000000 0.000000
0.316081 1.000000 0.000000
0.449947 1.000000 0.000000
0.580220 1.000000 0.000000
0.707884 1.000000 0.000000
0.833509 1.000000 0.000000
0.957461 1.000000 0.000000
1.000000 1.000000 0.000000
0.011117 0.000000 0.099493
0.176482 0.000000 0.094868
0.316081 0.000000 0.092416
0.449947 0.000000 0.091527
0.580220 0.000000 0.091062
0.707884 0.000000 0.090775
0.833509 0.000000 0.090579
0.957461 0.000000 0.090437
1.000000 0.000000 0.090397
0.000716 0.148559 0.092133
0.176482 0.144370 0.087944
0.316081 0.123430 0.067004
0.449947 0.103350 0.046924
0.580220 0.083810 0.027384
0.707884 0.064660 0.008234
0.833509 0.055717 0.000000
0.957461 0.054756 0.000000
1.000000 0.054487 0.000000
0.000000 0.279540 0.085618
0.161023 0.279540 0.072486
0.316081 0.274058 0.067004
0.449947 0.253979 0.046924
0.580220 0.234438 0.027384
0.707884 0.215288 0.008234
0.833509 0.204452 0.000000
0.957461 0.200926 0.000000
1.000000 0.199940 0.000000
0.000000 0.407805 0.083592
0.141783 0.407805 0.053246
0.302323 0.407805 0.053246
0.449947 0.401484 0.046924
0.580220 0.381943 0.027384
0.707884 0.362793 0.008234
0.833509 0.350103 0.000000
0.957461 0.344065 0.000000
1.000000 0.342376 0.000000
0.000000 0.534338 0.082584
0.122803 0.534338 0.034266
0.283343 0.534338 0.034266
0.437288 0.534338 0.034266
0.580220 0.527456 0.027384
0.707884 0.508306 0.008234
0.833509 0.493787 0.000000
0.957461 0.485271 0.000000
1.000000 0.482889 0.000000
0.000000 0.659598 0.081978
0.104014 0.659598 0.015477
0.264553 0.659598 0.015477
0.418499 0.659598 0.015477
0.568313 0.659598 0.015477
0.707884 0.652356 0.008234
0.833509 0.636026 0.000000
0.957461 0.625057 0.000000
1.000000 0.621989 0.000000
0.000000 0.783854 0.081574
0.088182 0.783854 0.000000
0.248076 0.783854 0.000000
0.401403 0.783854 0.000000
0.550615 0.783854 0.000000
0.696840 0.783854 0.000000
0.833509 0.777123 0.000000
0.957461 0.763722 0.000000
1.000000 0.759973 0.000000
0.000000 0.907280 0.081284
0.086471 0.907280 0.000000
0.243265 0.907280 0.000000
0.393618 0.907280 0.000000
0.539937 0.907280 0.000000
0.683326 0.907280 0.000000
0.824423 0.907280 0.000000
0.957461 0.901461 0.000000
1.000000 0.897036 0.000000
0.000000 1.000000 0.081115
0.085495 1.000000 0.000000
0.240518 1.000000 0.000000
0.389174 1.000000 0.000000
0.533840 1.000000 0.000000
0.675610 1.000000 0.000000
0.815114 1.000000 0.000000
0.952761 1.000000 0.000000
1.000000 1.000000 0.000000
0.010499 0.000000 0.210331
0.174792 0.000000 0.210331
0.316081 0.000000 0.206876
0.449947 0.000000 0.204884
0.580220 0.000000 0.203844
0.707884 0.000000 0.203201
0.833509 0.000000 0.202764
0.957461 0.000000 0.202445
1.000000 0.000000 0.202354
0.000000 0.142068 0.210331
0.171404 0.139293 0.210331
0.316081 0.123430 0.194468
0.449947 0.103350 0.174389
0.580220 0.083810 0.154848
0.707884 0.064660 0.135698
0.833509 0.045816 0.116854
0.957461 0.027223 0.098261
1.000000 0.020842 0.091881
0.000000 0.279540 0.204998
0.161023 0.279540 0.199950
0.316081 0.274058 0.194468
0.449947 0.253979 0.174389
0.580220 0.234438 0.154848
0.707884 0.215288 0.135698
0.833509 0.196444 0.116854
0.957461 0.177851 0.098261
1.000000 0.171471 0.091881
0.000000 0.407805 0.200147
0.141783 0.407805 0.180710
0.302323 0.407805 0.180710
0.449947 0.401484 0.174389
0.580220 0.381943 0.154848
0.707884 0.362793 0.135698
0.833509 0.343949 0.116854
0.957461 0.325357 0.098261
1.000000 0.318976 0.091881
0.000000 0.534338 0.197732
0.122803 0.534338 0.161730
0.283343 0.534338 0.161730
0.437288 0.534338 0.161730
0.580220 0.527456 0.154848
0.707884 0.508306 0.135698
0.833509 0.489462 0.116854
0.957461 0.470870 0.098261
1.000000 0.464489 0.091881
0.000000 0.659598 0.196282
0.104014 0.659598 0.142941
0.264553 0.659598 0.142941
0.418499 0.659598 0.142941
0.568313 0.659598 0.142941
0.707884 0.652356 0.135698
0.833509 0.633512 0.116854
0.957461 0.614919 0.098261
1.000000 0.608538 0.091881
0.000000 0.783854 0.195314
0.085376 0.783854 0.124302
0.245915 0.783854 0.124302
0.399861 0.783854 0.124302
0.549674 0.783854 0.124302
0.696489 0.783854 0.124302
0.833509 0.776406 0.116854
0.957461 0.757813 0.098261
1.000000 0.751432 0.091881
0.000000 0.907280 0.194621
0.066862 0.907280 0.105789
0.227401 0.907280 0.105789
0.381347 0.907280 0.105789
0.531161 0.907280 0.105789
0.677975 0.907280 0.105789
0.822443 0.907280 0.105789
0.957461 0.899753 0.098261
1.000000 0.893372 0.091881
0.000000 1.000000 0.194215
0.052954 1.000000 0.091881
0.213493 1.000000 0.091881
0.367439 1.000000 0.091881
0.517252 1.000000 0.091881
0.664067 1.000000 0.091881
0.808535 1.000000 0.091881
0.951080 1.000000 0.091881
1.000000 1.000000 0.091881
0.010317 0.000000 0.325898
0.171752 0.000000 0.325898
0.315770 0.000000 0.325898
0.449947 0.000000 0.323078
0.580220 0.000000 0.321438
0.707884 0.000000 0.320424
0.833509 0.000000 0.319734
0.957461 0.000000 0.319232
1.000000 0.000000 0.319089
0.000000 0.136964 0.325898
0.154069 0.121958 0.325898
0.314609 0.121958 0.325898
0.449947 0.103350 0.307291
0.580220 0.083810 0.287750
0.707884 0.064660 0.268600
0.833509 0.045816 0.249756
0.957461 0.027223 0.231163
1.000000 0.020842 0.224783
0.000000 0.276509 0.325898
0.154069 0.272586 0.325898
0.314609 0.272586 0.325898
0.449947 0.253979 0.307291
0.580220 0.234438 0.287750
0.707884 0.215288 0.268600
0.833509 0.196444 0.249756
0.957461 0.177851 0.231163
1.000000 0.171471 0.224783
0.000000 0.407805 0.321674
0.141783 0.407805 0.313612
0.302323 0.407805 0.313612
0.449947 0.401484 0.307291
0.580220 0.381943 0.287750
0.707884 0.362793 0.268600
0.833509 0.343949 0.249756
0.957461 0.325357 0.231163
1.000000 0.318976 0.224783
0.000000 0.534338 0.317793
0.122803 0.534338 0.294632
0.283343 0.534338 0.294632
0.437288 0.534338 0.294632
0.580220 0.527456 0.287750
0.707884 0.508306 0.268600
0.833509 0.489462 0.249756
0.957461 0.470870 0.231163
1.000000 0.464489 0.224783
0.000000 0.659598 0.315463
0.104014 0.659598 0.275843
0.264553 0.659598 0.275843
0.418499 0.659598 0.275843
0.568313 0.659598 0.275843
0.707884 0.652356 0.268600
0.833509 0.633512 0.249756
0.957461 0.614919 0.231163
1.000000 0.608538 0.224783
0.000000 0.783854 0.313907
0.085376 0.783854 0.257205
0.245915 0.783854 0.257205
0.399861 0.783854 0.257205
0.549674 0.783854 0.257205
0.696489 0.783854 0.257205
0.833509 0.776406 0.249756
0.957461 0.757813 0.231163
1.000000 0.751432 0.224783
0.000000 0.907280 0.312793
0.066862 0.907280 0.238691
0.227401 0.907280 0.238691
0.381347 0.907280 0.238691
0.531161 0.907280 0.238691
0.677975 0.907280 0.238691
0.822443 0.907280 0.238691
0.957461 0.899753 0.231163
1.000000 0.893372 0.224783
0.000000 1.000000 0.312141
0.052954 1.000000 0.224783
0.213493 1.000000 0.224783
0.367439 1.000000 0.224783
0.517252 1.000000 0.224783
0.664067 1.000000 0.224783
0.808535 1.000000 0.224783
0.951080 1.000000 0.224783
1.000000 1.000000 0.224783
0.010230 0.000000 0.444647
0.170312 0.000000 0.444647
0.313123 0.000000 0.444647
0.449947 0.000000 0.444527
0.580220 0.000000 0.442270
0.707884 0.000000 0.440875
0.833509 0.000000 0.439925
0.957461 0.000000 0.439235
1.000000 0.000000 0.439037
0.000000 0.134614 0.444647
0.136257 0.104145 0.444647
0.296796 0.104145 0.444647
0.449947 0.103350 0.443852
0.580220 0.083810 0.424311
0.707884 0.064660 0.405161
0.833509 0.045816 0.386318
0.957461 0.027223 0.367725
1.000000 0.020842 0.361344
0.000000 0.271763 0.444647
0.136257 0.254773 0.444647
0.296796 0.254773 0.444647
0.449947 0.253979 0.443852
0.580220 0.234438 0.424311
0.707884 0.215288 0.405161
0.833509 0.196444 0.386318
0.957461 0.177851 0.367725
1.000000 0.171471 0.361344
0.000000 0.406070 0.444647
0.136257 0.402279 0.444647
0.296796 0.402279 0.444647
0.449947 0.401484 0.443852
0.580220 0.381943 0.424311
0.707884 0.362793 0.405161
0.833509 0.343949 0.386318
0.957461 0.325357 0.367725
1.000000 0.318976 0.361344
0.000000 0.534338 0.441159
0.122803 0.534338 0.431193
0.283343 0.534338 0.431193
0.437288 0.534338 0.431193
0.580220 0.527456 0.424311
0.707884 0.508306 0.405161
0.833509 0.489462 0.386318
0.957461 0.470870 0.367725
1.000000 0.464489 0.361344
0.000000 0.659598 0.437926
0.104014 0.659598 0.412404
0.264553 0.659598 0.412404
0.418499 0.659598 0.412404
0.568313 0.659598 0.412404
0.707884 0.652356 0.405161
0.833509 0.633512 0.386318
0.957461 0.614919 0.367725
1.000000 0.608538 0.361344
0.000000 0.783854 0.435766
0.085376 0.783854 0.393766
0.245915 0.783854 0.393766
0.399861 0.783854 0.393766
0.549674 0.783854 0.393766
0.696489 0.783854 0.393766
0.833509 0.776406 0.386318
0.957461 0.757813 0.367725
1.000000 0.751432 0.361344
0.000000 0.907280 0.434219
0.066862 0.907280 0.375252
0.227401 0.907280 0.375252
0.381347 0.907280 0.375252
0.531161 0.907280 0.375252
0.677975 0.907280 0.375252
0.822443 0.907280 0.375252
0.957461 0.899753 0.367725
1.000000 0.893372 0.361344
0.000000 1.000000 0.433313
0.052954 1.000000 0.361344
0.213493 1.000000 0.361344
0.367439 1.000000 0.361344
0.517252 1.000000 0.361344
0.664067 1.000000 0.361344
0.808535 1.000000 0.361344
0.951080 1.000000 0.361344
1.000000 1.000000 0.361344
0.010180 0.000000 0.565820
0.169477 0.000000 0.565820
0.311588 0.000000 0.565820
0.447862 0.000000 0.565820
0.580220 0.000000 0.565567
0.707884 0.000000 0.563784
0.833509 0.000000 0.562569
0.957461 0.000000 0.561686
1.000000 0.000000 0.561434
0.000000 0.133269 0.565820
0.118081 0.085970 0.565820
0.278620 0.085970 0.565820
0.432566 0.085970 0.565820
0.580220 0.083810 0.563660
0.707884 0.064660 0.544510
0.833509 0.045816 0.525667
0.957461 0.027223 0.507074
1.000000 0.020842 0.500693
0.000000 0.269050 0.565820
0.118081 0.236598 0.565820
0.278620 0.236598 0.565820
0.432566 0.236598 0.565820
0.580220 0.234438 0.563660
0.707884 0.215288 0.544510
0.833509 0.196444 0.525667
0.957461 0.177851 0.507074
1.000000 0.171471 0.500693
0.000000 0.402015 0.565820
0.118081 0.384103 0.565820
0.278620 0.384103 0.565820
0.432566 0.384103 0.565820
0.580220 0.381943 0.563660
0.707884 0.362793 0.544510
0.833509 0.343949 0.525667
0.957461 0.325357 0.507074
1.000000 0.318976 0.500693
0.000000 0.533184 0.565820
0.118081 0.529616 0.565820
0.278620 0.529616 0.565820
0.432566 0.529616 0.565820
0.580220 0.527456 0.563660
0.707884 0.508306 0.544510
0.833509 0.489462 0.525667
0.957461 0.470870 0.507074
1.000000 0.464489 0.500693
0.000000 0.659598 0.562888
0.104014 0.659598 0.551753
0.264553 0.659598 0.551753
0.418499 0.659598 0.551753
0.568313 0.659598 0.551753
0.707884 0.652356 0.544510
0.833509 0.633512 0.525667
0.957461 0.614919 0.507074
1.000000 0.608538 0.500693
0.000000 0.783854 0.560111
0.085376 0.783854 0.533115
0.245915 0.783854 0.533115
0.399861 0.783854 0.533115
0.549674 0.783854 0.533115
0.696489 0.783854 0.533115
0.833509 0.776406 0.525667
0.957461 0.757813 0.507074
1.000000 0.751432 0.500693
0.000000 0.907280 0.558123
0.066862 0.907280 0.514601
0.227401 0.907280 0.514601
0.381347 0.907280 0.514601
0.531161 0.907280 0.514601
0.677975 0.907280 0.514601
0.822443 0.907280 0.514601
0.957461 0.899753 0.507074
1.000000 0.893372 0.500693
0.000000 1.000000 0.556959
0.052954 1.000000 0.500693
0.213493 1.000000 0.500693
0.367439 1.000000 0.500693
0.517252 1.000000 0.500693
0.664067 1.000000 0.500693
0.808535 1.000000 0.500693
0.951080 1.000000 0.500693
1.000000 1.000000 0.500693
0.010147 0.000000 0.688960
0.168934 0.000000 0.688960
0.310589 0.000000 0.688960
0.446426 0.000000 0.688960
0.578618 0.000000 0.688960
0.707884 0.000000 0.688689
0.833509 0.000000 0.687205
0.957461 0.000000 0.686126
1.000000 0.000000 0.685818
0.000000 0.132402 0.688960
0.099610 0.067498 0.688960
0.260149 0.067498 0.688960
0.414095 0.067498 0.688960
0.563908 0.067498 0.688960
0.707884 0.064660 0.686121
0.833509 0.045816 0.667278
0.957461 0.027223 0.648685
1.000000 0.020842 0.642304
0.000000 0.267299 0.688960
0.099610 0.218127 0.688960
0.260149 0.218127 0.688960
0.414095 0.218127 0.688960
0.563908 0.218127 0.688960
0.707884 0.215288 0.686121
0.833509 0.196444 0.667278
0.957461 0.177851 0.648685
1.000000 0.171471 0.642304
0.000000 0.399399 0.688960
0.099610 0.365632 0.688960
0.260149 0.365632 0.688960
0.414095 0.365632 0.688960
0.563908 0.365632 0.688960
0.707884 0.362793 0.686121
0.833509 0.343949 0.667278
0.957461 0.325357 0.648685
1.000000 0.318976 0.642304
0.000000 0.529715 0.688960
0.099610 0.511145 0.688960
0.260149 0.511145 0.688960
0.414095 0.511145 0.688960
0.563908 0.511145 0.688960
0.707884 0.508306 0.686121
0.833509 0.489462 0.667278
0.957461 0.470870 0.648685
1.000000 0.464489 0.642304
0.000000 0.658721 0.688960
0.099610 0.655194 0.688960
0.260149 0.655194 0.688960
0.414095 0.655194 0.688960
0.563908 0.655194 0.688960
0.707884 0.652356 0.686121
0.833509 0.633512 0.667278
0.957461 0.614919 0.648685
1.000000 0.608538 0.642304
0.000000 0.783854 0.686475
0.085376 0.783854 0.674726
0.245915 0.783854 0.674726
0.399861 0.783854 0.674726
0.549674 0.783854 0.674726
0.696489 0.783854 0.674726
0.833509 0.776406 0.667278
0.957461 0.757813 0.648685
1.000000 0.751432 0.642304
0.000000 0.907280 0.684039
0.066862 0.907280 0.656212
0.227401 0.907280 0.656212
0.381347 0.907280 0.656212
0.531161 0.907280 0.656212
0.677975 0.907280 0.656212
0.822443 0.907280 0.656212
0.957461 0.899753 0.648685
1.000000 0.893372 0.642304
0.000000 1.000000 0.682612
0.052954 1.000000 0.642304
0.213493 1.000000 0.642304
0.367439 1.000000 0.642304
0.517252 1.000000 0.642304
0.664067 1.000000 0.642304
0.808535 1.000000 0.642304
0.951080 1.000000 0.642304
1.000000 1.000000 0.642304
0.010124 0.000000 0.813760
0.168553 0.000000 0.813760
0.309889 0.000000 0.813760
0.445420 0.000000 0.813760
0.577314 0.000000 0.813760
0.706567 0.000000 0.813760
0.833509 0.000000 0.813521
0.957461 0.000000 0.812244
1.000000 0.000000 0.811879
0.000000 0.131798 0.813760
0.080890 0.048778 0.813760
0.241429 0.048778 0.813760
0.395375 0.048778 0.813760
0.545188 0.048778 0.813760
0.692003 0.048778 0.813760
0.833509 0.045816 0.810798
0.957461 0.027223 0.792205
1.000000 0.020842 0.785824
0.000000 0.266079 0.813760
0.080890 0.199406 0.813760
0.241429 0.199406 0.813760
0.395375 0.199406 0.813760
0.545188 0.199406 0.813760
0.692003 0.199406 0.813760
0.833509 0.196444 0.810798
0.957461 0.177851 0.792205
1.000000 0.171471 0.785824
0.000000 0.397576 0.813760
0.080890 0.346912 0.813760
0.241429 0.346912 0.813760
0.395375 0.346912 0.813760
0.545188 0.346912 0.813760
0.692003 0.346912 0.813760
0.833509 0.343949 0.810798
0.957461 0.325357 0.792205
1.000000 0.318976 0.785824
0.000000 0.527298 0.813760
0.080890 0.492425 0.813760
0.241429 0.492425 0.813760
0.395375 0.492425 0.813760
0.545188 0.492425 0.813760
0.692003 0.492425 0.813760
0.833509 0.489462 0.810798
0.957461 0.470870 0.792205
1.000000 0.464489 0.785824
0.000000 0.655714 0.813760
0.080890 0.636474 0.813760
0.241429 0.636474 0.813760
0.395375 0.636474 0.813760
0.545188 0.636474 0.813760
0.692003 0.636474 0.813760
0.833509 0.633512 0.810798
0.957461 0.614919 0.792205
1.000000 0.608538 0.785824
0.000000 0.783100 0.813760
0.080890 0.779368 0.813760
0.241429 0.779368 0.813760
0.395375 0.779368 0.813760
0.545188 0.779368 0.813760
0.692003 0.779368 0.813760
0.833509 0.776406 0.810798
0.957461 0.757813 0.792205
1.000000 0.751432 0.785824
0.000000 0.907280 0.811652
0.066862 0.907280 0.799732
0.227401 0.907280 0.799732
0.381347 0.907280 0.799732
0.531161 0.907280 0.799732
0.677975 0.907280 0.799732
0.822443 0.907280 0.799732
0.957461 0.899753 0.792205
1.000000 0.893372 0.785824
0.000000 1.000000 0.809960
0.052954 1.000000 0.785824
0.213493 1.000000 0.785824
0.367439 1.000000 0.785824
0.517252 1.000000 0.785824
0.664067 1.000000 0.785824
0.808535 1.000000 0.785824
0.951080 1.000000 0.785824
1.000000 1.000000 0.785824
0.010108 0.000000 0.940000
0.168272 0.000000 0.940000
0.309372 0.000000 0.940000
0.444677 0.000000 0.940000
0.576351 0.000000 0.940000
0.705389 0.000000 0.940000
0.832364 0.000000 0.940000
0.957461 0.000000 0.939816
1.000000 0.000000 0.939394
0.000000 0.131353 0.940000
0.061954 0.029842 0.940000
0.222493 0.029842 0.940000
0.376439 0.029842 0.940000
0.526252 0.029842 0.940000
0.673067 0.029842 0.940000
0.817535 0.029842 0.940000
0.957461 0.027223 0.937381
1.000000 0.020842 0.931000
0.000000 0.265182 0.940000
0.061954 0.180471 0.940000
0.222493 0.180471 0.940000
0.376439 0.180471 0.940000
0.526252 0.180471 0.940000
0.673067 0.180471 0.940000
0.817535 0.180471 0.940000
0.957461 0.177851 0.937381
1.000000 0.171471 0.931000
0.000000 0.396235 0.940000
0.061954 0.327976 0.940000
0.222493 0.327976 0.940000
0.376439 0.327976 0.940000
0.526252 0.327976 0.940000
0.673067 0.327976 0.940000
0.817535 0.327976 0.940000
0.957461 0.325357 0.937381
1.000000 0.318976 0.931000
0.000000 0.525519 0.940000
0.061954 0.473489 0.940000
0.222493 0.473489 0.940000
0.376439 0.473489 0.940000
0.526252 0.473489 0.940000
0.673067 0.473489 0.940000
0.817535 0.473489 0.940000
0.957461 0.470870 0.937381
1.000000 0.464489 0.931000
0.000000 0.653503 0.940000
0.061954 0.617538 0.940000
0.222493 0.617538 0.940000
0.376439 0.617538 0.940000
0.526252 0.617538 0.940000
0.673067 0.617538 0.940000
0.817535 0.617538 0.940000
0.957461 0.614919 0.937381
1.000000 0.608538 0.931000
0.000000 0.780459 0.940000
0.061954 0.760432 0.940000
0.222493 0.760432 0.940000
0.376439 0.760432 0.940000
0.526252 0.760432 0.940000
0.673067 0.760432 0.940000
0.817535 0.760432 0.940000
0.957461 0.757813 0.937381
1.000000 0.751432 0.931000
0.000000 0.906569 0.940000
0.061954 0.902372 0.940000
0.222493 0.902372 0.940000
0.376439 0.902372 0.940000
0.526252 0.902372 0.940000
0.673067 0.902372 0.940000
0.817535 0.902372 0.940000
0.957461 0.899753 0.937381
1.000000 0.893372 0.931000
0.000000 1.000000 0.938776
0.052954 1.000000 0.931000
0.213493 1.000000 0.931000
0.367439 1.000000 0.931000
0.517252 1.000000 0.931000
0.664067 1.000000 0.931000
0.808535 1.000000 0.931000
0.951080 1.000000 0.931000
1.000000 1.000000 0.931000
