app/src/main/assets/luts/lomo.cube
TITLE "Lomo"
LUT_3D_SIZE 9
DOMAIN_MIN 0.0 0.0 0.0
DOMAIN_MAX 1.0 1.0 1.0
0.000000 0.000000 0.000000
0.092005 0.000000 0.000000
0.223439 0.000000 0.000000
0.363365 0.000000 0.000000
0.509108 0.000000 0.000000
0.659334 0.000000 0.000000
0.813233 0.000000 0.000000
0.970255 0.000000 0.000000
1.000000 0.000000 0.000000
0.000000 0.155005 0.000000
0.092005 0.155005 0.000000
0.223439 0.155005 0.000000
0.363365 0.155005 0.000000
0.509108 0.155005 0.000000
0.659334 0.155005 0.000000
0.813233 0.155005 0.000000
0.970255 0.155005 0.000000
1.000000 0.155005 0.000000
0.000000 0.293288 0.000000
0.092005 0.293288 0.000000
0.223439 0.293288 0.000000
0.363365 0.293288 0.000000
0.509108 0.293288 0.000000
0.659334 0.293288 0.000000
0.813233 0.293288 0.000000
0.970255 0.293288 0.000000
1.000000 0.293288 0.000000
0.000000 0.425891 0.000000
0.092005 0.425891 0.000000
0.223439 0.425891 0.000000
0.363365 0.425891 0.000000
0.509108 0.425891 0.000000
0.659334 0.425891 0.000000
0.813233 0.425891 0.000000
0.970255 0.425891 0.000000
1.000000 0.425891 0.000000
0.000000 0.554934 0.000000
0.092005 0.554934 0.000000
0.223439 0.554934 0.000000
0.363365 0.554934 0.000000
0.509108 0.554934 0.000000
0.659334 0.554934 0.000000
0.813233 0.554934 0.000000
0.970255 0.554934 0.000000
1.000000 0.554934 0.000000
0.000000 0.681395 0.000000
0.092005 0.681395 0.000000
0.223439 0.681395 0.000000
0.363365 0.681395 0.000000
0.509108 0.681395 0.000000
0.659334 0.681395 0.000000
0.813233 0.681395 0.000000
0.970255 0.681395 0.000000
1.000000 0.681395 0.000000
0.000000 0.805834 0.000000
0.092005 0.805834 0.000000
0.223439 0.805834 0.000000
0.363365 0.805834 0.000000
0.509108 0.805834 0.000000
0.659334 0.805834 0.000000
0.813233 0.805834 0.000000
0.970255 0.805834 0.000000
1.000000 0.805834 0.000000
0.000000 0.928617 0.000000
0.092005 0.928617 0.000000
0.223439 0.928617 0.000000
0.363365 0.928617 0.000000
0.509108 0.928617 0.000000
0.659334 0.928617 0.000000
0.813233 0.928617 0.000000
0.970255 0.928617 0.000000
1.000000 0.928617 0.000000
0.000000 1.000000 0.000000
0.092005 1.000000 0.000000
0.223439 1.000000 0.000000
0.363365 1.000000 0.000000
0.509108 1.000000 0.000000
0.659334 1.000000 0.000000
0.813233 1.000000 0.000000
0.970255 1.000000 0.000000
1.000000 1.000000 0.000000
0.000000 0.000000 0.070609
0.092005 0.000000 0.070609
0.223439 0.000000 0.070609
0.363365 0.000000 0.070609
0.509108 0.000000 0.070609
0.659334 0.000000 0.070609
0.813233 0.000000 0.070609
0.970255 0.000000 0.070609
1.000000 0.000000 0.070609
0.000000 0.155005 0.070609
0.069955 0.155005 0.041071
0.223439 0.131053 0.017119
0.363365 0.104751 0.000000
0.509108 0.097986 0.000000
0.659334 0.094518 0.000000
0.813233 0.092421 0.000000
0.970255 0.091020 0.000000
1.000000 0.090808 0.000000
0.000000 0.293288 0.070609
0.028180 0.293288 0.000000
0.201291 0.293288 0.000000
0.363365 0.276386 0.000000
0.509108 0.258535 0.000000
0.659334 0.249386 0.000000
0.813233 0.243851 0.000000
0.970255 0.240156 0.000000
1.000000 0.239596 0.000000
0.000000 0.425891 0.070609
0.025648 0.425891 0.000000
0.183204 0.425891 0.000000
0.350939 0.425891 0.000000
0.509108 0.412491 0.000000
0.659334 0.397892 0.000000
0.813233 0.389062 0.000000
0.970255 0.383166 0.000000
1.000000 0.382273 0.000000
0.000000 0.554934 0.070609
0.024515 0.554934 0.000000
0.175111 0.554934 0.000000
0.335437 0.554934 0.000000
0.502427 0.554934 0.000000
0.659334 0.542413 0.000000
0.813233 0.530375 0.000000
0.970255 0.522338 0.000000
1.000000 0.521121 0.000000
0.000000 0.681395 0.070609
0.023869 0.681395 0.000000
0.170498 0.681395 0.000000
0.326600 0.681395 0.000000
0.489191 0.681395 0.000000
0.656784 0.681395 0.000000
0.813233 0.668860 0.000000
0.970255 0.658724 0.000000
1.000000 0.657189 0.000000
0.000000 0.805834 0.070609
0.023451 0.805834 0.000000
0.167508 0.805834 0.000000
0.320872 0.805834 0.000000
0.480611 0.805834 0.000000
0.645265 0.805834 0.000000
0.813233 0.805131 0.000000
0.970255 0.792930 0.000000
1.000000 0.791083 0.000000
0.000000 0.928617 0.070609
0.023156 0.928617 0.000000
0.165407 0.928617 0.000000
0.316848 0.928617 0.000000
0.474585 0.928617 0.000000
0.637174 0.928617 0.000000
0.803738 0.928617 0.000000
0.970255 0.925349 0.000000
1.000000 0.923194 0.000000
0.000000 1.000000 0.070609
0.023021 1.000000 0.000000
0.164441 1.000000 0.000000
0.314998 1.000000 0.000000
0.471813 1.000000 0.000000
0.633453 1.000000 0.000000
0.799044 1.000000 0.000000
0.967995 1.000000 0.000000
1.000000 1.000000 0.000000
0.000000 0.000000 0.167938
0.092005 0.000000 0.167938
0.223439 0.000000 0.167938
0.363365 0.000000 0.167938
0.509108 0.000000 0.167938
0.659334 0.000000 0.167938
0.813233 0.000000 0.167938
0.970255 0.000000 0.167938
1.000000 0.000000 0.167938
0.000000 0.155005 0.167938
0.065428 0.150479 0.167938
0.223439 0.131053 0.148512
0.363365 0.082079 0.099538
0.509108 0.031069 0.048528
0.659334 0.000000 0.016907
0.813233 0.000000 0.015978
0.970255 0.000000 0.015391
1.000000 0.000000 0.015305
0.000000 0.293288 0.167938
0.021556 0.293288 0.124065
0.198992 0.293288 0.124065
0.363365 0.268761 0.099538
0.509108 0.217751 0.048528
0.659334 0.168189 0.000000
0.813233 0.157972 0.000000
0.970255 0.151588 0.000000
1.000000 0.150650 0.000000
0.000000 0.425891 0.167938
0.000000 0.425891 0.096857
0.152581 0.425891 0.077654
0.341482 0.425891 0.077654
0.509108 0.396765 0.048528
0.659334 0.346110 0.000000
0.813233 0.325085 0.000000
0.970255 0.311946 0.000000
1.000000 0.310016 0.000000
0.000000 0.554934 0.167938
0.000000 0.554934 0.091024
0.107416 0.554934 0.032489
0.296316 0.554934 0.032489
0.493069 0.554934 0.032489
0.659334 0.519255 0.000000
0.813233 0.487712 0.000000
0.970255 0.468001 0.000000
1.000000 0.465105 0.000000
0.000000 0.681395 0.167938
0.000000 0.681395 0.087786
0.073654 0.681395 0.000000
0.259347 0.681395 0.000000
0.452757 0.681395 0.000000
0.652119 0.681395 0.000000
0.813233 0.647084 0.000000
0.970255 0.620932 0.000000
1.000000 0.617090 0.000000
0.000000 0.805834 0.167938
0.000000 0.805834 0.085720
0.070113 0.805834 0.000000
0.246877 0.805834 0.000000
0.430989 0.805834 0.000000
0.620765 0.805834 0.000000
0.813233 0.803909 0.000000
0.970255 0.771418 0.000000
1.000000 0.766645 0.000000
0.000000 0.928617 0.167938
0.000000 0.928617 0.084284
0.067755 0.928617 0.000000
0.238573 0.928617 0.000000
0.416491 0.928617 0.000000
0.599884 0.928617 0.000000
0.787759 0.928617 0.000000
0.970255 0.919902 0.000000
1.000000 0.914210 0.000000
0.000000 1.000000 0.167938
0.000000 1.000000 0.083627
0.066703 1.000000 0.000000
0.234871 1.000000 0.000000
0.410030 1.000000 0.000000
0.590576 1.000000 0.000000
0.775537 1.000000 0.000000
0.964251 1.000000 0.000000
1.000000 1.000000 0.000000
0.000000 0.000000 0.278781
0.092005 0.000000 0.278781
0.223439 0.000000 0.278781
0.363365 0.000000 0.278781
0.509108 0.000000 0.278781
0.659334 0.000000 0.278781
0.813233 0.000000 0.278781
0.970255 0.000000 0.278781
1.000000 0.000000 0.278781
0.000000 0.155005 0.278781
0.026633 0.111684 0.278781
0.204070 0.111684 0.278781
0.363365 0.082079 0.249176
0.509108 0.031069 0.198166
0.659334 0.000000 0.161818
0.813233 0.000000 0.152923
0.970255 0.000000 0.147309
1.000000 0.000000 0.146481
0.000000 0.293288 0.278781
0.021556 0.293288 0.273703
0.198992 0.293288 0.273703
0.363365 0.268761 0.249176
0.509108 0.217751 0.198166
0.659334 0.165172 0.145587
0.813233 0.111307 0.091722
0.970255 0.056350 0.036765
1.000000 0.045939 0.026354
0.000000 0.425891 0.278781
0.000000 0.425891 0.238243
0.152581 0.425891 0.227292
0.341482 0.425891 0.227292
0.509108 0.396765 0.198166
0.659334 0.344185 0.145587
0.813233 0.290321 0.091722
0.970255 0.235363 0.036765
1.000000 0.224952 0.026354
0.000000 0.554934 0.278781
0.000000 0.554934 0.223897
0.107416 0.554934 0.182127
0.296316 0.554934 0.182127
0.493069 0.554934 0.182127
0.659334 0.518395 0.145587
0.813233 0.464530 0.091722
0.970255 0.409572 0.036765
1.000000 0.399162 0.026354
0.000000 0.681395 0.278781
0.000000 0.681395 0.215932
0.063155 0.681395 0.137866
0.252055 0.681395 0.137866
0.448807 0.681395 0.137866
0.651613 0.681395 0.137866
0.813233 0.635252 0.091722
0.970255 0.580294 0.036765
1.000000 0.569883 0.026354
0.000000 0.805834 0.278781
0.000000 0.805834 0.210849
0.019601 0.805834 0.094312
0.208501 0.805834 0.094312
0.405254 0.805834 0.094312
0.608059 0.805834 0.094312
0.813233 0.803245 0.091722
0.970255 0.748287 0.036765
1.000000 0.737876 0.026354
0.000000 0.928617 0.278781
0.000000 0.928617 0.207316
0.000000 0.928617 0.072877
0.165527 0.928617 0.051338
0.362280 0.928617 0.051338
0.565085 0.928617 0.051338
0.772849 0.928617 0.051338
0.970255 0.914044 0.036765
1.000000 0.903633 0.026354
0.000000 1.000000 0.278781
0.000000 1.000000 0.205701
0.000000 1.000000 0.071265
0.140543 1.000000 0.026354
0.337296 1.000000 0.026354
0.540101 1.000000 0.026354
0.747865 1.000000 0.026354
0.959844 1.000000 0.026354
1.000000 1.000000 0.026354
0.000000 0.000000 0.399426
0.092005 0.000000 0.399426
0.223439 0.000000 0.399426
0.363365 0.000000 0.399426
0.509108 0.000000 0.399426
0.659334 0.000000 0.399426
0.813233 0.000000 0.399426
0.970255 0.000000 0.399426
1.000000 0.000000 0.399426
0.000000 0.155005 0.399426
0.000000 0.081855 0.399426
0.161844 0.069458 0.399426
0.350744 0.069458 0.399426
0.509108 0.031069 0.361037
0.659334 0.000000 0.319543
0.813233 0.000000 0.301979
0.970255 0.000000 0.290893
1.000000 0.000000 0.289257
0.000000 0.293288 0.399426
0.000000 0.261523 0.399426
0.161844 0.256140 0.399426
0.350744 0.256140 0.399426
0.509108 0.217751 0.361037
0.659334 0.165172 0.308458
0.813233 0.111307 0.254593
0.970255 0.056350 0.199636
1.000000 0.045939 0.189225
0.000000 0.425891 0.399426
0.000000 0.425891 0.392133
0.152581 0.425891 0.390163
0.341482 0.425891 0.390163
0.509108 0.396765 0.361037
0.659334 0.344185 0.308458
0.813233 0.290321 0.254593
0.970255 0.235363 0.199636
1.000000 0.224952 0.189225
0.000000 0.554934 0.399426
0.000000 0.554934 0.368519
0.107416 0.554934 0.344998
0.296316 0.554934 0.344998
0.493069 0.554934 0.344998
0.659334 0.518395 0.308458
0.813233 0.464530 0.254593
0.970255 0.409572 0.199636
1.000000 0.399162 0.189225
0.000000 0.681395 0.399426
0.000000 0.681395 0.355410
0.063155 0.681395 0.300737
0.252055 0.681395 0.300737
0.448807 0.681395 0.300737
0.651613 0.681395 0.300737
0.813233 0.635252 0.254593
0.970255 0.580294 0.199636
1.000000 0.569883 0.189225
0.000000 0.805834 0.399426
0.000000 0.805834 0.347044
0.019601 0.805834 0.257183
0.208501 0.805834 0.257183
0.405254 0.805834 0.257183
0.608059 0.805834 0.257183
0.813233 0.803245 0.254593
0.970255 0.748287 0.199636
1.000000 0.737876 0.189225
0.000000 0.928617 0.399426
0.000000 0.928617 0.341229
0.000000 0.928617 0.231749
0.165527 0.928617 0.214209
0.362280 0.928617 0.214209
0.565085 0.928617 0.214209
0.772849 0.928617 0.214209
0.970255 0.914044 0.199636
1.000000 0.903633 0.189225
0.000000 1.000000 0.399426
0.000000 1.000000 0.338571
0.000000 1.000000 0.226623
0.140543 1.000000 0.189225
0.337296 1.000000 0.189225
0.540101 1.000000 0.189225
0.747865 1.000000 0.189225
0.959844 1.000000 0.189225
1.000000 1.000000 0.189225
0.000000 0.000000 0.527927
0.092005 0.000000 0.527927
0.223439 0.000000 0.527927
0.363365 0.000000 0.527927
0.509108 0.000000 0.527927
0.659334 0.000000 0.527927
0.813233 0.000000 0.527927
0.970255 0.000000 0.527927
1.000000 0.000000 0.527927
0.000000 0.155005 0.527927
0.000000 0.076297 0.527927
0.116869 0.024483 0.527927
0.305769 0.024483 0.527927
0.502521 0.024483 0.527927
0.659334 0.000000 0.487539
0.813233 0.000000 0.460740
0.970255 0.000000 0.443826
1.000000 0.000000 0.441330
0.000000 0.293288 0.527927
0.000000 0.243765 0.527927
0.116869 0.211164 0.527927
0.305769 0.211164 0.527927
0.502521 0.211164 0.527927
0.659334 0.165172 0.481934
0.813233 0.111307 0.428069
0.970255 0.056350 0.373112
1.000000 0.045939 0.362701
0.000000 0.425891 0.527927
0.000000 0.404355 0.527927
0.116869 0.390178 0.527927
0.305769 0.390178 0.527927
0.502521 0.390178 0.527927
0.659334 0.344185 0.481934
0.813233 0.290321 0.428069
0.970255 0.235363 0.373112
1.000000 0.224952 0.362701
0.000000 0.554934 0.527927
0.000000 0.554934 0.522559
0.107416 0.554934 0.518474
0.296316 0.554934 0.518474
0.493069 0.554934 0.518474
0.659334 0.518395 0.481934
0.813233 0.464530 0.428069
0.970255 0.409572 0.373112
1.000000 0.399162 0.362701
0.000000 0.681395 0.527927
0.000000 0.681395 0.503970
0.063155 0.681395 0.474213
0.252055 0.681395 0.474213
0.448807 0.681395 0.474213
0.651613 0.681395 0.474213
0.813233 0.635252 0.428069
0.970255 0.580294 0.373112
1.000000 0.569883 0.362701
0.000000 0.805834 0.527927
0.000000 0.805834 0.492107
0.019601 0.805834 0.430659
0.208501 0.805834 0.430659
0.405254 0.805834 0.430659
0.608059 0.805834 0.430659
0.813233 0.803245 0.428069
0.970255 0.748287 0.373112
1.000000 0.737876 0.362701
0.000000 0.928617 0.527927
0.000000 0.928617 0.483861
0.000000 0.928617 0.400966
0.165527 0.928617 0.387685
0.362280 0.928617 0.387685
0.565085 0.928617 0.387685
0.772849 0.928617 0.387685
0.970255 0.914044 0.373112
1.000000 0.903633 0.362701
0.000000 1.000000 0.527927
0.000000 1.000000 0.480093
0.000000 1.000000 0.392097
0.140543 1.000000 0.362701
0.337296 1.000000 0.362701
0.540101 1.000000 0.362701
0.747865 1.000000 0.362701
0.959844 1.000000 0.362701
1.000000 1.000000 0.362701
0.000000 0.000000 0.663056
0.092005 0.000000 0.663056
0.223439 0.000000 0.663056
0.363365 0.000000 0.663056
0.509108 0.000000 0.663056
0.659334 0.000000 0.663056
0.813233 0.000000 0.663056
0.970255 0.000000 0.663056
1.000000 0.000000 0.663056
0.000000 0.155005 0.663056
0.000000 0.073151 0.663056
0.089313 0.000000 0.663056
0.271930 0.000000 0.663056
0.462139 0.000000 0.663056
0.658199 0.000000 0.663056
0.813233 0.000000 0.627691
0.970255 0.000000 0.604648
1.000000 0.000000 0.601247
0.000000 0.293288 0.663056
0.000000 0.233713 0.663056
0.069573 0.163869 0.663056
0.258474 0.163869 0.663056
0.455226 0.163869 0.663056
0.658032 0.163869 0.663056
0.813233 0.111307 0.610494
0.970255 0.056350 0.555536
1.000000 0.045939 0.545126
0.000000 0.425891 0.663056
0.000000 0.387680 0.663056
0.069573 0.342883 0.663056
0.258474 0.342883 0.663056
0.455226 0.342883 0.663056
0.658032 0.342883 0.663056
0.813233 0.290321 0.610494
0.970255 0.235363 0.555536
1.000000 0.224952 0.545126
0.000000 0.554934 0.663056
0.000000 0.537514 0.663056
0.069573 0.517092 0.663056
0.258474 0.517092 0.663056
0.455226 0.517092 0.663056
0.658032 0.517092 0.663056
0.813233 0.464530 0.610494
0.970255 0.409572 0.555536
1.000000 0.399162 0.545126
0.000000 0.681395 0.663056
0.000000 0.681395 0.660193
0.063155 0.681395 0.656637
0.252055 0.681395 0.656637
0.448807 0.681395 0.656637
0.651613 0.681395 0.656637
0.813233 0.635252 0.610494
0.970255 0.580294 0.555536
1.000000 0.569883 0.545126
0.000000 0.805834 0.663056
0.000000 0.805834 0.644653
0.019601 0.805834 0.613084
0.208501 0.805834 0.613084
0.405254 0.805834 0.613084
0.608059 0.805834 0.613084
0.813233 0.803245 0.610494
0.970255 0.748287 0.555536
1.000000 0.737876 0.545126
0.000000 0.928617 0.663056
0.000000 0.928617 0.633851
0.000000 0.928617 0.578912
0.165527 0.928617 0.570110
0.362280 0.928617 0.570110
0.565085 0.928617 0.570110
0.772849 0.928617 0.570110
0.970255 0.914044 0.555536
1.000000 0.903633 0.545126
0.000000 1.000000 0.663056
0.000000 1.000000 0.628914
0.000000 1.000000 0.566107
0.140543 1.000000 0.545126
0.337296 1.000000 0.545126
0.540101 1.000000 0.545126
0.747865 1.000000 0.545126
0.959844 1.000000 0.545126
1.000000 1.000000 0.545126
0.000000 0.000000 0.803959
0.092005 0.000000 0.803959
0.223439 0.000000 0.803959
0.363365 0.000000 0.803959
0.509108 0.000000 0.803959
0.659334 0.000000 0.803959
0.813233 0.000000 0.803959
0.970255 0.000000 0.803959
1.000000 0.000000 0.803959
0.000000 0.155005 0.803959
0.000000 0.071142 0.803959
0.084780 0.000000 0.803959
0.258128 0.000000 0.803959
0.438682 0.000000 0.803959
0.624790 0.000000 0.803959
0.813233 0.000000 0.801775
0.970255 0.000000 0.772340
1.000000 0.000000 0.767997
0.000000 0.293288 0.803959
0.000000 0.227295 0.803959
0.020258 0.114553 0.803959
0.209158 0.114553 0.803959
0.405910 0.114553 0.803959
0.608716 0.114553 0.803959
0.813233 0.111307 0.800713
0.970255 0.056350 0.745755
1.000000 0.045939 0.735344
0.000000 0.425891 0.803959
0.000000 0.377033 0.803959
0.020258 0.293567 0.803959
0.209158 0.293567 0.803959
0.405910 0.293567 0.803959
0.608716 0.293567 0.803959
0.813233 0.290321 0.800713
0.970255 0.235363 0.745755
1.000000 0.224952 0.735344
0.000000 0.554934 0.803959
0.000000 0.522753 0.803959
0.020258 0.467776 0.803959
0.209158 0.467776 0.803959
0.405910 0.467776 0.803959
0.608716 0.467776 0.803959
0.813233 0.464530 0.800713
0.970255 0.409572 0.745755
1.000000 0.399162 0.735344
0.000000 0.681395 0.803959
0.000000 0.665556 0.803959
0.020258 0.638498 0.803959
0.209158 0.638498 0.803959
0.405910 0.638498 0.803959
0.608716 0.638498 0.803959
0.813233 0.635252 0.800713
0.970255 0.580294 0.745755
1.000000 0.569883 0.735344
0.000000 0.805834 0.803959
0.000000 0.805834 0.803717
0.019601 0.805834 0.803302
0.208501 0.805834 0.803302
0.405254 0.805834 0.803302
0.608059 0.805834 0.803302
0.813233 0.803245 0.800713
0.970255 0.748287 0.745755
1.000000 0.737876 0.735344
0.000000 0.928617 0.803959
0.000000 0.928617 0.790249
0.000000 0.928617 0.764460
0.165527 0.928617 0.760328
0.362280 0.928617 0.760328
0.565085 0.928617 0.760328
0.772849 0.928617 0.760328
0.970255 0.914044 0.745755
1.000000 0.903633 0.735344
0.000000 1.000000 0.803959
0.000000 1.000000 0.784094
0.000000 1.000000 0.747552
0.140543 1.000000 0.735344
0.337296 1.000000 0.735344
0.540101 1.000000 0.735344
0.747865 1.000000 0.735344
0.959844 1.000000 0.735344
1.000000 1.000000 0.735344
0.000000 0.000000 0.950000
0.092005 0.000000 0.950000
0.223439 0.000000 0.950000
0.363365 0.000000 0.950000
0.509108 0.000000 0.950000
0.659334 0.000000 0.950000
0.813233 0.000000 0.950000
0.970255 0.000000 0.950000
1.000000 0.000000 0.950000
0.000000 0.155005 0.950000
0.000000 0.069756 0.950000
0.081777 0.000000 0.950000
0.248985 0.000000 0.950000
0.423144 0.000000 0.950000
0.602661 0.000000 0.950000
0.786567 0.000000 0.950000
0.970255 0.000000 0.946149
1.000000 0.000000 0.940828
0.000000 0.293288 0.950000
0.000000 0.222867 0.950000
0.000000 0.091329 0.950000
0.158043 0.063439 0.950000
0.354796 0.063439 0.950000
0.557601 0.063439 0.950000
0.765365 0.063439 0.950000
0.970255 0.056350 0.942911
1.000000 0.045939 0.932500
0.000000 0.425891 0.950000
0.000000 0.369689 0.950000
0.000000 0.264711 0.950000
0.158043 0.242452 0.950000
0.354796 0.242452 0.950000
0.557601 0.242452 0.950000
0.765365 0.242452 0.950000
0.970255 0.235363 0.942911
1.000000 0.224952 0.932500
0.000000 0.554934 0.950000
0.000000 0.512571 0.950000
0.000000 0.433440 0.950000
0.158043 0.416662 0.950000
0.354796 0.416662 0.950000
0.557601 0.416662 0.950000
0.765365 0.416662 0.950000
0.970255 0.409572 0.942911
1.000000 0.399162 0.932500
0.000000 0.681395 0.950000
0.000000 0.652592 0.950000
0.000000 0.598791 0.950000
0.158043 0.587383 0.950000
0.354796 0.587383 0.950000
0.557601 0.587383 0.950000
0.765365 0.587383 0.950000
0.970255 0.580294 0.942911
1.000000 0.569883 0.932500
0.000000 0.805834 0.950000
0.000000 0.790375 0.950000
0.000000 0.761499 0.950000
0.158043 0.755376 0.950000
0.354796 0.755376 0.950000
0.557601 0.755376 0.950000
0.765365 0.755376 0.950000
0.970255 0.748287 0.942911
1.000000 0.737876 0.932500
0.000000 0.928617 0.950000
0.000000 0.926324 0.950000
0.000000 0.922041 0.950000
0.158043 0.921133 0.950000
0.354796 0.921133 0.950000
0.557601 0.921133 0.950000
0.765365 0.921133 0.950000
0.970255 0.914044 0.942911
1.000000 0.903633 0.932500
0.000000 1.000000 0.950000
0.000000 1.000000 0.944934
0.000000 1.000000 0.935614
0.140543 1.000000 0.932500
0.337296 1.000000 0.932500
0.540101 1.000000 0.932500
0.747865 1.000000 0.932500
0.959844 1.000000 0.932500
1.000000 1.000000 0.932500
