app/src/main/assets/luts/lomo.cube
TITLE "Lomo"
LUT_3D_SIZE 5
DOMAIN_MIN 0.0 0.0 0.0
DOMAIN_MAX 1.0 1.0 1.0
0.000000 0.000000 0.000000
0.223439 0.000000 0.000000
0.509108 0.000000 0.000000
0.813233 0.000000 0.000000
1.000000 0.000000 0.000000
0.000000 0.293288 0.000000
0.223439 0.293288 0.000000
0.509108 0.293288 0.000000
0.813233 0.293288 0.000000
1.000000 0.293288 0.000000
0.000000 0.554934 0.000000
0.223439 0.554934 0.000000
0.509108 0.554934 0.000000
0.813233 0.554934 0.000000
1.000000 0.554934 0.000000
0.000000 0.805834 0.000000
0.223439 0.805834 0.000000
0.509108 0.805834 0.000000
0.813233 0.805834 0.000000
1.000000 0.805834 0.000000
0.000000 1.000000 0.000000
0.223439 1.000000 0.000000
0.509108 1.000000 0.000000
0.813233 1.000000 0.000000
1.000000 1.000000 0.000000
0.000000 0.000000 0.167938
0.223439 0.000000 0.167938
0.509108 0.000000 0.167938
0.813233 0.000000 0.167938
1.000000 0.000000 0.167938
0.000000 0.293288 0.167938
0.198992 0.293288 0.124065
0.509108 0.217751 0.048528
0.813233 0.157972 0.000000
1.000000 0.150650 0.000000
0.000000 0.554934 0.167938
0.107416 0.554934 0.032489
0.493069 0.554934 0.032489
0.813233 0.487712 0.000000
1.000000 0.465105 0.000000
0.000000 0.805834 0.167938
0.070113 0.805834 0.000000
0.430989 0.805834 0.000000
0.813233 0.803909 0.000000
1.000000 0.766645 0.000000
0.000000 1.000000 0.167938
0.066703 1.000000 0.000000
0.410030 1.000000 0.000000
0.775537 1.000000 0.000000
1.000000 1.000000 0.000000
0.000000 0.000000 0.399426
0.223439 0.000000 0.399426
0.509108 0.000000 0.399426
0.813233 0.000000 0.399426
1.000000 0.000000 0.399426
0.000000 0.293288 0.399426
0.161844 0.256140 0.399426
0.509108 0.217751 0.361037
0.813233 0.111307 0.254593
1.000000 0.045939 0.189225
0.000000 0.554934 0.399426
0.107416 0.554934 0.344998
0.493069 0.554934 0.344998
0.813233 0.464530 0.254593
1.000000 0.399162 0.189225
0.000000 0.805834 0.399426
0.019601 0.805834 0.257183
0.405254 0.805834 0.257183
0.813233 0.803245 0.254593
1.000000 0.737876 0.189225
0.000000 1.000000 0.399426
0.000000 1.000000 0.226623
0.337296 1.000000 0.189225
0.747865 1.000000 0.189225
1.000000 1.000000 0.189225
0.000000 0.000000 0.663056
0.223439 0.000000 0.663056
0.509108 0.000000 0.663056
0.813233 0.000000 0.663056
1.000000 0.000000 0.663056
0.000000 0.293288 0.663056
0.069573 0.163869 0.663056
0.455226 0.163869 0.663056
0.813233 0.111307 0.610494
1.000000 0.045939 0.545126
0.000000 0.554934 0.663056
0.069573 0.517092 0.663056
0.455226 0.517092 0.663056
0.813233 0.464530 0.610494
1.000000 0.399162 0.545126
0.000000 0.805834 0.663056
0.019601 0.805834 0.613084
0.405254 0.805834 0.613084
0.813233 0.803245 0.610494
1.000000 0.737876 0.545126
0.000000 1.000000 0.663056
0.000000 1.000000 0.566107
0.337296 1.000000 0.545126
0.747865 1.000000 0.545126
1.000000 1.000000 0.545126
0.000000 0.000000 0.950000
0.223439 0.000000 0.950000
0.509108 0.000000 0.950000
0.813233 0.000000 0.950000
1.000000 0.000000 0.950000
0.000000 0.293288 0.950000
0.000000 0.091329 0.950000
0.354796 0.063439 0.950000
0.765365 0.063439 0.950000
1.000000 0.045939 0.932500
0.000000 0.554934 0.950000
0.000000 0.433440 0.950000
0.354796 0.416662 0.950000
0.765365 0.416662 0.950000
1.000000 0.399162 0.932500
0.000000 0.805834 0.950000
0.000000 0.761499 0.950000
0.354796 0.755376 0.950000
0.765365 0.755376 0.950000
1.000000 0.737876 0.932500
0.000000 1.000000 0.950000
0.000000 1.000000 0.935614
0.337296 1.000000 0.932500
0.747865 1.000000 0.932500
1.000000 1.000000 0.932500
