app/src/main/assets/luts/lomo.cube
TITLE "Lomo"
LUT_3D_SIZE 33
DOMAIN_MIN 0.0 0.0 0.0
DOMAIN_MAX 1.0 1.0 1.0
0.000000 0.000000 0.000000
0.003710 0.000000 0.000000
0.031533 0.000000 0.000000
0.061153 0.000000 0.000000
0.092005 0.000000 0.000000
0.123806 0.000000 0.000000
0.156384 0.000000 0.000000
0.189623 0.000000 0.000000
0.223439 0.000000 0.000000
0.257768 0.000000 0.000000
0.292557 0.000000 0.000000
0.327768 0.000000 0.000000
0.363365 0.000000 0.000000
0.399321 0.000000 0.000000
0.435610 0.000000 0.000000
0.472212 0.000000 0.000000
0.509108 0.000000 0.000000
0.546282 0.000000 0.000000
0.583719 0.000000 0.000000
0.621407 0.000000 0.000000
0.659334 0.000000 0.000000
0.697489 0.000000 0.000000
0.735863 0.000000 0.000000
0.774447 0.000000 0.000000
0.813233 0.000000 0.000000
0.852213 0.000000 0.000000
0.891381 0.000000 0.000000
0.930730 0.000000 0.000000
0.970255 0.000000 0.000000
1.000000 0.000000 0.000000
1.000000 0.000000 0.000000
1.000000 0.000000 0.000000
1.000000 0.000000 0.000000
0.000000 0.043296 0.000000
0.003710 0.043296 0.000000
0.031533 0.043296 0.000000
0.061153 0.043296 0.000000
0.092005 0.043296 0.000000
0.123806 0.043296 0.000000
0.156384 0.043296 0.000000
0.189623 0.043296 0.000000
0.223439 0.043296 0.000000
0.257768 0.043296 0.000000
0.292557 0.043296 0.000000
0.327768 0.043296 0.000000
0.363365 0.043296 0.000000
0.399321 0.043296 0.000000
0.435610 0.043296 0.000000
0.472212 0.043296 0.000000
0.509108 0.043296 0.000000
0.546282 0.043296 0.000000
0.583719 0.043296 0.000000
0.621407 0.043296 0.000000
0.659334 0.043296 0.000000
0.697489 0.043296 0.000000
0.735863 0.043296 0.000000
0.774447 0.043296 0.000000
0.813233 0.043296 0.000000
0.852213 0.043296 0.000000
0.891381 0.043296 0.000000
0.930730 0.043296 0.000000
0.970255 0.043296 0.000000
1.000000 0.043296 0.000000
1.000000 0.043296 0.000000
1.000000 0.043296 0.000000
1.000000 0.043296 0.000000
0.000000 0.081922 0.000000
0.003710 0.081922 0.000000
0.031533 0.081922 0.000000
0.061153 0.081922 0.000000
0.092005 0.081922 0.000000
0.123806 0.081922 0.000000
0.156384 0.081922 0.000000
0.189623 0.081922 0.000000
0.223439 0.081922 0.000000
0.257768 0.081922 0.000000
0.292557 0.081922 0.000000
0.327768 0.081922 0.000000
0.363365 0.081922 0.000000
0.399321 0.081922 0.000000
0.435610 0.081922 0.000000
0.472212 0.081922 0.000000
0.509108 0.081922 0.000000
0.546282 0.081922 0.000000
0.583719 0.081922 0.000000
0.621407 0.081922 0.000000
0.659334 0.081922 0.000000
0.697489 0.081922 0.000000
0.735863 0.081922 0.000000
0.774447 0.081922 0.000000
0.813233 0.081922 0.000000
0.852213 0.081922 0.000000
0.891381 0.081922 0.000000
0.930730 0.081922 0.000000
0.970255 0.081922 0.000000
1.000000 0.081922 0.000000
1.000000 0.081922 0.000000
1.000000 0.081922 0.000000
1.000000 0.081922 0.000000
0.000000 0.118961 0.000000
0.003710 0.118961 0.000000
0.031533 0.118961 0.000000
0.061153 0.118961 0.000000
0.092005 0.118961 0.000000
0.123806 0.118961 0.000000
0.156384 0.118961 0.000000
0.189623 0.118961 0.000000
0.223439 0.118961 0.000000
0.257768 0.118961 0.000000
0.292557 0.118961 0.000000
0.327768 0.118961 0.000000
0.363365 0.118961 0.000000
0.399321 0.118961 0.000000
0.435610 0.118961 0.000000
0.472212 0.118961 0.000000
0.509108 0.118961 0.000000
0.546282 0.118961 0.000000
0.583719 0.118961 0.000000
0.621407 0.118961 0.000000
0.659334 0.118961 0.000000
0.697489 0.118961 0.000000
0.735863 0.118961 0.000000
0.774447 0.118961 0.000000
0.813233 0.118961 0.000000
0.852213 0.118961 0.000000
0.891381 0.118961 0.000000
0.930730 0.118961 0.000000
0.970255 0.118961 0.000000
1.000000 0.118961 0.000000
1.000000 0.118961 0.000000
1.000000 0.118961 0.000000
1.000000 0.118961 0.000000
0.000000 0.155005 0.000000
0.003710 0.155005 0.000000
0.031533 0.155005 0.000000
0.061153 0.155005 0.000000
0.092005 0.155005 0.000000
0.123806 0.155005 0.000000
0.156384 0.155005 0.000000
0.189623 0.155005 0.000000
0.223439 0.155005 0.000000
0.257768 0.155005 0.000000
0.292557 0.155005 0.000000
0.327768 0.155005 0.000000
0.363365 0.155005 0.000000
0.399321 0.155005 0.000000
0.435610 0.155005 0.000000
0.472212 0.155005 0.000000
0.509108 0.155005 0.000000
0.546282 0.155005 0.000000
0.583719 0.155005 0.000000
0.621407 0.155005 0.000000
0.659334 0.155005 0.000000
0.697489 0.155005 0.000000
0.735863 0.155005 0.000000
0.774447 0.155005 0.000000
0.813233 0.155005 0.000000
0.852213 0.155005 0.000000
0.891381 0.155005 0.000000
0.930730 0.155005 0.000000
0.970255 0.155005 0.000000
1.000000 0.155005 0.000000
1.000000 0.155005 0.000000
1.000000 0.155005 0.000000
1.000000 0.155005 0.000000
0.000000 0.190328 0.000000
0.003710 0.190328 0.000000
0.031533 0.190328 0.000000
0.061153 0.190328 0.000000
0.092005 0.190328 0.000000
0.123806 0.190328 0.000000
0.156384 0.190328 0.000000
0.189623 0.190328 0.000000
0.223439 0.190328 0.000000
0.257768 0.190328 0.000000
0.292557 0.190328 0.000000
0.327768 0.190328 0.000000
0.363365 0.190328 0.000000
0.399321 0.190328 0.000000
0.435610 0.190328 0.000000
0.472212 0.190328 0.000000
0.509108 0.190328 0.000000
0.546282 0.190328 0.000000
0.583719 0.190328 0.000000
0.621407 0.190328 0.000000
0.659334 0.190328 0.000000
0.697489 0.190328 0.000000
0.735863 0.190328 0.000000
0.774447 0.190328 0.000000
0.813233 0.190328 0.000000
0.852213 0.190328 0.000000
0.891381 0.190328 0.000000
0.930730 0.190328 0.000000
0.970255 0.190328 0.000000
1.000000 0.190328 0.000000
1.000000 0.190328 0.000000
1.000000 0.190328 0.000000
1.000000 0.190328 0.000000
0.000000 0.225087 0.000000
0.003710 0.225087 0.000000
0.031533 0.225087 0.000000
0.061153 0.225087 0.000000
0.092005 0.225087 0.000000
0.123806 0.225087 0.000000
0.156384 0.225087 0.000000
0.189623 0.225087 0.000000
0.223439 0.225087 0.000000
0.257768 0.225087 0.000000
0.292557 0.225087 0.000000
0.327768 0.225087 0.000000
0.363365 0.225087 0.000000
0.399321 0.225087 0.000000
0.435610 0.225087 0.000000
0.472212 0.225087 0.000000
0.509108 0.225087 0.000000
0.546282 0.225087 0.000000
0.583719 0.225087 0.000000
0.621407 0.225087 0.000000
0.659334 0.225087 0.000000
0.697489 0.225087 0.000000
0.735863 0.225087 0.000000
0.774447 0.225087 0.000000
0.813233 0.225087 0.000000
0.852213 0.225087 0.000000
0.891381 0.225087 0.000000
0.930730 0.225087 0.000000
0.970255 0.225087 0.000000
1.000000 0.225087 0.000000
1.000000 0.225087 0.000000
1.000000 0.225087 0.000000
1.000000 0.225087 0.000000
0.000000 0.259383 0.000000
0.003710 0.259383 0.000000
0.031533 0.259383 0.000000
0.061153 0.259383 0.000000
0.092005 0.259383 0.000000
0.123806 0.259383 0.000000
0.156384 0.259383 0.000000
0.189623 0.259383 0.000000
0.223439 0.259383 0.000000
0.257768 0.259383 0.000000
0.292557 0.259383 0.000000
0.327768 0.259383 0.000000
0.363365 0.259383 0.000000
0.399321 0.259383 0.000000
0.435610 0.259383 0.000000
0.472212 0.259383 0.000000
0.509108 0.259383 0.000000
0.546282 0.259383 0.000000
0.583719 0.259383 0.000000
0.621407 0.259383 0.000000
0.659334 0.259383 0.000000
0.697489 0.259383 0.000000
0.735863 0.259383 0.000000
0.774447 0.259383 0.000000
0.813233 0.259383 0.000000
0.852213 0.259383 0.000000
0.891381 0.259383 0.000000
0.930730 0.259383 0.000000
0.970255 0.259383 0.000000
1.000000 0.259383 0.000000
1.000000 0.259383 0.000000
1.000000 0.259383 0.000000
1.000000 0.259383 0.000000
0.000000 0.293288 0.000000
0.003710 0.293288 0.000000
0.031533 0.293288 0.000000
0.061153 0.293288 0.000000
0.092005 0.293288 0.000000
0.123806 0.293288 0.000000
0.156384 0.293288 0.000000
0.189623 0.293288 0.000000
0.223439 0.293288 0.000000
0.257768 0.293288 0.000000
0.292557 0.293288 0.000000
0.327768 0.293288 0.000000
0.363365 0.293288 0.000000
0.399321 0.293288 0.000000
0.435610 0.293288 0.000000
0.472212 0.293288 0.000000
0.509108 0.293288 0.000000
0.546282 0.293288 0.000000
0.583719 0.293288 0.000000
0.621407 0.293288 0.000000
0.659334 0.293288 0.000000
0.697489 0.293288 0.000000
0.735863 0.293288 0.000000
0.774447 0.293288 0.000000
0.813233 0.293288 0.000000
0.852213 0.293288 0.000000
0.891381 0.293288 0.000000
0.930730 0.293288 0.000000
0.970255 0.293288 0.000000
1.000000 0.293288 0.000000
1.000000 0.293288 0.000000
1.000000 0.293288 0.000000
1.000000 0.293288 0.000000
0.000000 0.326854 0.000000
0.003710 0.326854 0.000000
0.031533 0.326854 0.000000
0.061153 0.326854 0.000000
0.092005 0.326854 0.000000
0.123806 0.326854 0.000000
0.156384 0.326854 0.000000
0.189623 0.326854 0.000000
0.223439 0.326854 0.000000
0.257768 0.326854 0.000000
0.292557 0.326854 0.000000
0.327768 0.326854 0.000000
0.363365 0.326854 0.000000
0.399321 0.326854 0.000000
0.435610 0.326854 0.000000
0.472212 0.326854 0.000000
0.509108 0.326854 0.000000
0.546282 0.326854 0.000000
0.583719 0.326854 0.000000
0.621407 0.326854 0.000000
0.659334 0.326854 0.000000
0.697489 0.326854 0.000000
0.735863 0.326854 0.000000
0.774447 0.326854 0.000000
0.813233 0.326854 0.000000
0.852213 0.326854 0.000000
0.891381 0.326854 0.000000
0.930730 0.326854 0.000000
0.970255 0.326854 0.000000
1.000000 0.326854 0.000000
1.000000 0.326854 0.000000
1.000000 0.326854 0.000000
1.000000 0.326854 0.000000
0.000000 0.360123 0.000000
0.003710 0.360123 0.000000
0.031533 0.360123 0.000000
0.061153 0.360123 0.000000
0.092005 0.360123 0.000000
0.123806 0.360123 0.000000
0.156384 0.360123 0.000000
0.189623 0.360123 0.000000
0.223439 0.360123 0.000000
0.257768 0.360123 0.000000
0.292557 0.360123 0.000000
0.327768 0.360123 0.000000
0.363365 0.360123 0.000000
0.399321 0.360123 0.000000
0.435610 0.360123 0.000000
0.472212 0.360123 0.000000
0.509108 0.360123 0.000000
0.546282 0.360123 0.000000
0.583719 0.360123 0.000000
0.621407 0.360123 0.000000
0.659334 0.360123 0.000000
0.697489 0.360123 0.000000
0.735863 0.360123 0.000000
0.774447 0.360123 0.000000
0.813233 0.360123 0.000000
0.852213 0.360123 0.000000
0.891381 0.360123 0.000000
0.930730 0.360123 0.000000
0.970255 0.360123 0.000000
1.000000 0.360123 0.000000
1.000000 0.360123 0.000000
1.000000 0.360123 0.000000
1.000000 0.360123 0.000000
0.000000 0.393127 0.000000
0.003710 0.393127 0.000000
0.031533 0.393127 0.000000
0.061153 0.393127 0.000000
0.092005 0.393127 0.000000
0.123806 0.393127 0.000000
0.156384 0.393127 0.000000
0.189623 0.393127 0.000000
0.223439 0.393127 0.000000
0.257768 0.393127 0.000000
0.292557 0.393127 0.000000
0.327768 0.393127 0.000000
0.363365 0.393127 0.000000
0.399321 0.393127 0.000000
0.435610 0.393127 0.000000
0.472212 0.393127 0.000000
0.509108 0.393127 0.000000
0.546282 0.393127 0.000000
0.583719 0.393127 0.000000
0.621407 0.393127 0.000000
0.659334 0.393127 0.000000
0.697489 0.393127 0.000000
0.735863 0.393127 0.000000
0.774447 0.393127 0.000000
0.813233 0.393127 0.000000
0.852213 0.393127 0.000000
0.891381 0.393127 0.000000
0.930730 0.393127 0.000000
0.970255 0.393127 0.000000
1.000000 0.393127 0.000000
1.000000 0.393127 0.000000
1.000000 0.393127 0.000000
1.000000 0.393127 0.000000
0.000000 0.425891 0.000000
0.003710 0.425891 0.000000
0.031533 0.425891 0.000000
0.061153 0.425891 0.000000
0.092005 0.425891 0.000000
0.123806 0.425891 0.000000
0.156384 0.425891 0.000000
0.189623 0.425891 0.000000
0.223439 0.425891 0.000000
0.257768 0.425891 0.000000
0.292557 0.425891 0.000000
0.327768 0.425891 0.000000
0.363365 0.425891 0.000000
0.399321 0.425891 0.000000
0.435610 0.425891 0.000000
0.472212 0.425891 0.000000
0.509108 0.425891 0.000000
0.546282 0.425891 0.000000
0.583719 0.425891 0.000000
0.621407 0.425891 0.000000
0.659334 0.425891 0.000000
0.697489 0.425891 0.000000
0.735863 0.425891 0.000000
0.774447 0.425891 0.000000
0.813233 0.425891 0.000000
0.852213 0.425891 0.000000
0.891381 0.425891 0.000000
0.930730 0.425891 0.000000
0.970255 0.425891 0.000000
1.000000 0.425891 0.000000
1.000000 0.425891 0.000000
1.000000 0.425891 0.000000
1.000000 0.425891 0.000000
0.000000 0.458437 0.000000
0.003710 0.458437 0.000000
0.031533 0.458437 0.000000
0.061153 0.458437 0.000000
0.092005 0.458437 0.000000
0.123806 0.458437 0.000000
0.156384 0.458437 0.000000
0.189623 0.458437 0.000000
0.223439 0.458437 0.000000
0.257768 0.458437 0.000000
0.292557 0.458437 0.000000
0.327768 0.458437 0.000000
0.363365 0.458437 0.000000
0.399321 0.458437 0.000000
0.435610 0.458437 0.000000
0.472212 0.458437 0.000000
0.509108 0.458437 0.000000
0.546282 0.458437 0.000000
0.583719 0.458437 0.000000
0.621407 0.458437 0.000000
0.659334 0.458437 0.000000
0.697489 0.458437 0.000000
0.735863 0.458437 0.000000
0.774447 0.458437 0.000000
0.813233 0.458437 0.000000
0.852213 0.458437 0.000000
0.891381 0.458437 0.000000
0.930730 0.458437 0.000000
0.970255 0.458437 0.000000
1.000000 0.458437 0.000000
1.000000 0.458437 0.000000
1.000000 0.458437 0.000000
1.000000 0.458437 0.000000
0.000000 0.490783 0.000000
0.003710 0.490783 0.000000
0.031533 0.490783 0.000000
0.061153 0.490783 0.000000
0.092005 0.490783 0.000000
0.123806 0.490783 0.000000
0.156384 0.490783 0.000000
0.189623 0.490783 0.000000
0.223439 0.490783 0.000000
0.257768 0.490783 0.000000
0.292557 0.490783 0.000000
0.327768 0.490783 0.000000
0.363365 0.490783 0.000000
0.399321 0.490783 0.000000
0.435610 0.490783 0.000000
0.472212 0.490783 0.000000
0.509108 0.490783 0.000000
0.546282 0.490783 0.000000
0.583719 0.490783 0.000000
0.621407 0.490783 0.000000
0.659334 0.490783 0.000000
0.697489 0.490783 0.000000
0.735863 0.490783 0.000000
0.774447 0.490783 0.000000
0.813233 0.490783 0.000000
0.852213 0.490783 0.000000
0.891381 0.490783 0.000000
0.930730 0.490783 0.000000
0.970255 0.490783 0.000000
1.000000 0.490783 0.000000
1.000000 0.490783 0.000000
1.000000 0.490783 0.000000
1.000000 0.490783 0.000000
0.000000 0.522944 0.000000
0.003710 0.522944 0.000000
0.031533 0.522944 0.000000
0.061153 0.522944 0.000000
0.092005 0.522944 0.000000
0.123806 0.522944 0.000000
0.156384 0.522944 0.000000
0.189623 0.522944 0.000000
0.223439 0.522944 0.000000
0.257768 0.522944 0.000000
0.292557 0.522944 0.000000
0.327768 0.522944 0.000000
0.363365 0.522944 0.000000
0.399321 0.522944 0.000000
0.435610 0.522944 0.000000
0.472212 0.522944 0.000000
0.509108 0.522944 0.000000
0.546282 0.522944 0.000000
0.583719 0.522944 0.000000
0.621407 0.522944 0.000000
0.659334 0.522944 0.000000
0.697489 0.522944 0.000000
0.735863 0.522944 0.000000
0.774447 0.522944 0.000000
0.813233 0.522944 0.000000
0.852213 0.522944 0.000000
0.891381 0.522944 0.000000
0.930730 0.522944 0.000000
0.970255 0.522944 0.000000
1.000000 0.522944 0.000000
1.000000 0.522944 0.000000
1.000000 0.522944 0.000000
1.000000 0.522944 0.000000
0.000000 0.554934 0.000000
0.003710 0.554934 0.000000
0.031533 0.554934 0.000000
0.061153 0.554934 0.000000
0.092005 0.554934 0.000000
0.123806 0.554934 0.000000
0.156384 0.554934 0.000000
0.189623 0.554934 0.000000
0.223439 0.554934 0.000000
0.257768 0.554934 0.000000
0.292557 0.554934 0.000000
0.327768 0.554934 0.000000
0.363365 0.554934 0.000000
0.399321 0.554934 0.000000
0.435610 0.554934 0.000000
0.472212 0.554934 0.000000
0.509108 0.554934 0.000000
0.546282 0.554934 0.000000
0.583719 0.554934 0.000000
0.621407 0.554934 0.000000
0.659334 0.554934 0.000000
0.697489 0.554934 0.000000
0.735863 0.554934 0.000000
0.774447 0.554934 0.000000
0.813233 0.554934 0.000000
0.852213 0.554934 0.000000
0.891381 0.554934 0.000000
0.930730 0.554934 0.000000
0.970255 0.554934 0.000000
1.000000 0.554934 0.000000
1.000000 0.554934 0.000000
1.000000 0.554934 0.000000
1.000000 0.554934 0.000000
0.000000 0.586765 0.000000
0.003710 0.586765 0.000000
0.031533 0.586765 0.000000
0.061153 0.586765 0.000000
0.092005 0.586765 0.000000
0.123806 0.586765 0.000000
0.156384 0.586765 0.000000
0.189623 0.586765 0.000000
0.223439 0.586765 0.000000
0.257768 0.586765 0.000000
0.292557 0.586765 0.000000
0.327768 0.586765 0.000000
0.363365 0.586765 0.000000
0.399321 0.586765 0.000000
0.435610 0.586765 0.000000
0.472212 0.586765 0.000000
0.509108 0.586765 0.000000
0.546282 0.586765 0.000000
0.583719 0.586765 0.000000
0.621407 0.586765 0.000000
0.659334 0.586765 0.000000
0.697489 0.586765 0.000000
0.735863 0.586765 0.000000
0.774447 0.586765 0.000000
0.813233 0.586765 0.000000
0.852213 0.586765 0.000000
0.891381 0.586765 0.000000
0.930730 0.586765 0.000000
0.970255 0.586765 0.000000
1.000000 0.586765 0.000000
1.000000 0.586765 0.000000
1.000000 0.586765 0.000000
1.000000 0.586765 0.000000
0.000000 0.618446 0.000000
0.003710 0.618446 0.000000
0.031533 0.618446 0.000000
0.061153 0.618446 0.000000
0.092005 0.618446 0.000000
0.123806 0.618446 0.000000
0.156384 0.618446 0.000000
0.189623 0.618446 0.000000
0.223439 0.618446 0.000000
0.257768 0.618446 0.000000
0.292557 0.618446 0.000000
0.327768 0.618446 0.000000
0.363365 0.618446 0.000000
0.399321 0.618446 0.000000
0.435610 0.618446 0.000000
0.472212 0.618446 0.000000
0.509108 0.618446 0.000000
0.546282 0.618446 0.000000
0.583719 0.618446 0.000000
0.621407 0.618446 0.000000
0.659334 0.618446 0.000000
0.697489 0.618446 0.000000
0.735863 0.618446 0.000000
0.774447 0.618446 0.000000
0.813233 0.618446 0.000000
0.852213 0.618446 0.000000
0.891381 0.618446 0.000000
0.930730 0.618446 0.000000
0.970255 0.618446 0.000000
1.000000 0.618446 0.000000
1.000000 0.618446 0.000000
1.000000 0.618446 0.000000
1.000000 0.618446 0.000000
0.000000 0.649987 0.000000
0.003710 0.649987 0.000000
0.031533 0.649987 0.000000
0.061153 0.649987 0.000000
0.092005 0.649987 0.000000
0.123806 0.649987 0.000000
0.156384 0.649987 0.000000
0.189623 0.649987 0.000000
0.223439 0.649987 0.000000
0.257768 0.649987 0.000000
0.292557 0.649987 0.000000
0.327768 0.649987 0.000000
0.363365 0.649987 0.000000
0.399321 0.649987 0.000000
0.435610 0.649987 0.000000
0.472212 0.649987 0.000000
0.509108 0.649987 0.000000
0.546282 0.649987 0.000000
0.583719 0.649987 0.000000
0.621407 0.649987 0.000000
0.659334 0.649987 0.000000
0.697489 0.649987 0.000000
0.735863 0.649987 0.000000
0.774447 0.649987 0.000000
0.813233 0.649987 0.000000
0.852213 0.649987 0.000000
0.891381 0.649987 0.000000
0.930730 0.649987 0.000000
0.970255 0.649987 0.000000
1.000000 0.649987 0.000000
1.000000 0.649987 0.000000
1.000000 0.649987 0.000000
1.000000 0.649987 0.000000
0.000000 0.681395 0.000000
0.003710 0.681395 0.000000
0.031533 0.681395 0.000000
0.061153 0.681395 0.000000
0.092005 0.681395 0.000000
0.123806 0.681395 0.000000
0.156384 0.681395 0.000000
0.189623 0.681395 0.000000
0.223439 0.681395 0.000000
0.257768 0.681395 0.000000
0.292557 0.681395 0.000000
0.327768 0.681395 0.000000
0.363365 0.681395 0.000000
0.399321 0.681395 0.000000
0.435610 0.681395 0.000000
0.472212 0.681395 0.000000
0.509108 0.681395 0.000000
0.546282 0.681395 0.000000
0.583719 0.681395 0.000000
0.621407 0.681395 0.000000
0.659334 0.681395 0.000000
0.697489 0.681395 0.000000
0.735863 0.681395 0.000000
0.774447 0.681395 0.000000
0.813233 0.681395 0.000000
0.852213 0.681395 0.000000
0.891381 0.681395 0.000000
0.930730 0.681395 0.000000
0.970255 0.681395 0.000000
1.000000 0.681395 0.000000
1.000000 0.681395 0.000000
1.000000 0.681395 0.000000
1.000000 0.681395 0.000000
0.000000 0.712678 0.000000
0.003710 0.712678 0.000000
0.031533 0.712678 0.000000
0.061153 0.712678 0.000000
0.092005 0.712678 0.000000
0.123806 0.712678 0.000000
0.156384 0.712678 0.000000
0.189623 0.712678 0.000000
0.223439 0.712678 0.000000
0.257768 0.712678 0.000000
0.292557 0.712678 0.000000
0.327768 0.712678 0.000000
0.363365 0.712678 0.000000
0.399321 0.712678 0.000000
0.435610 0.712678 0.000000
0.472212 0.712678 0.000000
0.509108 0.712678 0.000000
0.546282 0.712678 0.000000
0.583719 0.712678 0.000000
0.621407 0.712678 0.000000
0.659334 0.712678 0.000000
0.697489 0.712678 0.000000
0.735863 0.712678 0.000000
0.774447 0.712678 0.000000
0.813233 0.712678 0.000000
0.852213 0.712678 0.000000
0.891381 0.712678 0.000000
0.930730 0.712678 0.000000
0.970255 0.712678 0.000000
1.000000 0.712678 0.000000
1.000000 0.712678 0.000000
1.000000 0.712678 0.000000
1.000000 0.712678 0.000000
0.000000 0.743841 0.000000
0.003710 0.743841 0.000000
0.031533 0.743841 0.000000
0.061153 0.743841 0.000000
0.092005 0.743841 0.000000
0.123806 0.743841 0.000000
0.156384 0.743841 0.000000
0.189623 0.743841 0.000000
0.223439 0.743841 0.000000
0.257768 0.743841 0.000000
0.292557 0.743841 0.000000
0.327768 0.743841 0.000000
0.363365 0.743841 0.000000
0.399321 0.743841 0.000000
0.435610 0.743841 0.000000
0.472212 0.743841 0.000000
0.509108 0.743841 0.000000
0.546282 0.743841 0.000000
0.583719 0.743841 0.000000
0.621407 0.743841 0.000000
0.659334 0.743841 0.000000
0.697489 0.743841 0.000000
0.735863 0.743841 0.000000
0.774447 0.743841 0.000000
0.813233 0.743841 0.000000
0.852213 0.743841 0.000000
0.891381 0.743841 0.000000
0.930730 0.743841 0.000000
0.970255 0.743841 0.000000
1.000000 0.743841 0.000000
1.000000 0.743841 0.000000
1.000000 0.743841 0.000000
1.000000 0.743841 0.000000
0.000000 0.774892 0.000000
0.003710 0.774892 0.000000
0.031533 0.774892 0.000000
0.061153 0.774892 0.000000
0.092005 0.774892 0.000000
0.123806 0.774892 0.000000
0.156384 0.774892 0.000000
0.189623 0.774892 0.000000
0.223439 0.774892 0.000000
0.257768 0.774892 0.000000
0.292557 0.774892 0.000000
0.327768 0.774892 0.000000
0.363365 0.774892 0.000000
0.399321 0.774892 0.000000
0.435610 0.774892 0.000000
0.472212 0.774892 0.000000
0.509108 0.774892 0.000000
0.546282 0.774892 0.000000
0.583719 0.774892 0.000000
0.621407 0.774892 0.000000
0.659334 0.774892 0.000000
0.697489 0.774892 0.000000
0.735863 0.774892 0.000000
0.774447 0.774892 0.000000
0.813233 0.774892 0.000000
0.852213 0.774892 0.000000
0.891381 0.774892 0.000000
0.930730 0.774892 0.000000
0.970255 0.774892 0.000000
1.000000 0.774892 0.000000
1.000000 0.774892 0.000000
1.000000 0.774892 0.000000
1.000000 0.774892 0.000000
0.000000 0.805834 0.000000
0.003710 0.805834 0.000000
0.031533 0.805834 0.000000
0.061153 0.805834 0.000000
0.092005 0.805834 0.000000
0.123806 0.805834 0.000000
0.156384 0.805834 0.000000
0.189623 0.805834 0.000000
0.223439 0.805834 0.000000
0.257768 0.805834 0.000000
0.292557 0.805834 0.000000
0.327768 0.805834 0.000000
0.363365 0.805834 0.000000
0.399321 0.805834 0.000000
0.435610 0.805834 0.000000
0.472212 0.805834 0.000000
0.509108 0.805834 0.000000
0.546282 0.805834 0.000000
0.583719 0.805834 0.000000
0.621407 0.805834 0.000000
0.659334 0.805834 0.000000
0.697489 0.805834 0.000000
0.735863 0.805834 0.000000
0.774447 0.805834 0.000000
0.813233 0.805834 0.000000
0.852213 0.805834 0.000000
0.891381 0.805834 0.000000
0.930730 0.805834 0.000000
0.970255 0.805834 0.000000
1.000000 0.805834 0.000000
1.000000 0.805834 0.000000
1.000000 0.805834 0.000000
1.000000 0.805834 0.000000
0.000000 0.836674 0.000000
0.003710 0.836674 0.000000
0.031533 0.836674 0.000000
0.061153 0.836674 0.000000
0.092005 0.836674 0.000000
0.123806 0.836674 0.000000
0.156384 0.836674 0.000000
0.189623 0.836674 0.000000
0.223439 0.836674 0.000000
0.257768 0.836674 0.000000
0.292557 0.836674 0.000000
0.327768 0.836674 0.000000
0.363365 0.836674 0.000000
0.399321 0.836674 0.000000
0.435610 0.836674 0.000000
0.472212 0.836674 0.000000
0.509108 0.836674 0.000000
0.546282 0.836674 0.000000
0.583719 0.836674 0.000000
0.621407 0.836674 0.000000
0.659334 0.836674 0.000000
0.697489 0.836674 0.000000
0.735863 0.836674 0.000000
0.774447 0.836674 0.000000
0.813233 0.836674 0.000000
0.852213 0.836674 0.000000
0.891381 0.836674 0.000000
0.930730 0.836674 0.000000
0.970255 0.836674 0.000000
1.000000 0.836674 0.000000
1.000000 0.836674 0.000000
1.000000 0.836674 0.000000
1.000000 0.836674 0.000000
0.000000 0.867415 0.000000
0.003710 0.867415 0.000000
0.031533 0.867415 0.000000
0.061153 0.867415 0.000000
0.092005 0.867415 0.000000
0.123806 0.867415 0.000000
0.156384 0.867415 0.000000
0.189623 0.867415 0.000000
0.223439 0.867415 0.000000
0.257768 0.867415 0.000000
0.292557 0.867415 0.000000
0.327768 0.867415 0.000000
0.363365 0.867415 0.000000
0.399321 0.867415 0.000000
0.435610 0.867415 0.000000
0.472212 0.867415 0.000000
0.509108 0.867415 0.000000
0.546282 0.867415 0.000000
0.583719 0.867415 0.000000
0.621407 0.867415 0.000000
0.659334 0.867415 0.000000
0.697489 0.867415 0.000000
0.735863 0.867415 0.000000
0.774447 0.867415 0.000000
0.813233 0.867415 0.000000
0.852213 0.867415 0.000000
0.891381 0.867415 0.000000
0.930730 0.867415 0.000000
