app/src/main/assets/luts/matte_black.cube
TITLE "Matte Black"
LUT_3D_SIZE 33
DOMAIN_MIN 0.0 0.0 0.0
DOMAIN_MAX 1.0 1.0 1.0
0.083000 0.083000 0.090000
0.098562 0.085568 0.092568
0.119788 0.091936 0.098936
0.142151 0.098645 0.105645
0.165287 0.105586 0.112586
0.189014 0.112704 0.119704
0.213223 0.119967 0.126967
0.237842 0.127353 0.134353
0.262816 0.134845 0.141845
0.288104 0.142431 0.149431
0.313676 0.150103 0.157103
0.339505 0.157852 0.164852
0.365571 0.165671 0.172671
0.391854 0.173556 0.180556
0.418341 0.181502 0.188502
0.445018 0.189506 0.196506
0.471874 0.197562 0.204562
0.498898 0.205669 0.212669
0.526081 0.213824 0.220824
0.553416 0.222025 0.229025
0.580896 0.230269 0.237269
0.608513 0.238554 0.245554
0.636262 0.246879 0.253879
0.664137 0.255241 0.262241
0.692134 0.263640 0.270640
0.720248 0.272074 0.279074
0.748475 0.280542 0.287542
0.776810 0.289043 0.296043
0.805251 0.297575 0.304575
0.833793 0.306138 0.313138
0.862434 0.314730 0.321730
0.891171 0.323351 0.330351
0.920000 0.332000 0.339000
0.085568 0.098562 0.092568
0.098562 0.098562 0.092568
0.119788 0.104929 0.098936
0.142151 0.111638 0.105645
0.165287 0.118579 0.112586
0.189014 0.125697 0.119704
0.213223 0.132960 0.126967
0.237842 0.140346 0.134353
0.262816 0.147838 0.141845
0.288104 0.155424 0.149431
0.313676 0.163096 0.157103
0.339505 0.170845 0.164852
0.365571 0.178664 0.172671
0.391854 0.186549 0.180556
0.418341 0.194496 0.188502
0.445018 0.202499 0.196506
0.471874 0.210555 0.204562
0.498898 0.218662 0.212669
0.526081 0.226817 0.220824
0.553416 0.235018 0.229025
0.580896 0.243262 0.237269
0.608513 0.251547 0.245554
0.636262 0.259872 0.253879
0.664137 0.268234 0.262241
0.692134 0.276633 0.270640
0.720248 0.285068 0.279074
0.748475 0.293536 0.287542
0.776810 0.302036 0.296043
0.805251 0.310568 0.304575
0.833793 0.319131 0.313138
0.862434 0.327723 0.321730
0.891171 0.336344 0.330351
0.920000 0.344993 0.339000
0.091936 0.119788 0.098936
0.104929 0.119788 0.098936
0.119788 0.119788 0.098936
0.142151 0.126497 0.105645
0.165287 0.133437 0.112586
0.189014 0.140555 0.119704
0.213223 0.147818 0.126967
0.237842 0.155204 0.134353
0.262816 0.162696 0.141845
0.288104 0.170283 0.149431
0.313676 0.177954 0.157103
0.339505 0.185703 0.164852
0.365571 0.193523 0.172671
0.391854 0.201408 0.180556
0.418341 0.209354 0.188502
0.445018 0.217357 0.196506
0.471874 0.225413 0.204562
0.498898 0.233521 0.212669
0.526081 0.241676 0.220824
0.553416 0.249876 0.229025
0.580896 0.258120 0.237269
0.608513 0.266405 0.245554
0.636262 0.274730 0.253879
0.664137 0.283092 0.262241
0.692134 0.291492 0.270640
0.720248 0.299926 0.279074
0.748475 0.308394 0.287542
0.776810 0.316894 0.296043
0.805251 0.325426 0.304575
0.833793 0.333989 0.313138
0.862434 0.342581 0.321730
0.891171 0.351202 0.330351
0.920000 0.359851 0.339000
0.098645 0.142151 0.105645
0.111638 0.142151 0.105645
0.126497 0.142151 0.105645
0.142151 0.142151 0.105645
0.165287 0.149092 0.112586
0.189014 0.156210 0.119704
0.213223 0.163473 0.126967
0.237842 0.170858 0.134353
0.262816 0.178350 0.141845
0.288104 0.185937 0.149431
0.313676 0.193608 0.157103
0.339505 0.201357 0.164852
0.365571 0.209177 0.172671
0.391854 0.217062 0.180556
0.418341 0.225008 0.188502
0.445018 0.233011 0.196506
0.471874 0.241068 0.204562
0.498898 0.249175 0.212669
0.526081 0.257330 0.220824
0.553416 0.265531 0.229025
0.580896 0.273774 0.237269
0.608513 0.282060 0.245554
0.636262 0.290384 0.253879
0.664137 0.298747 0.262241
0.692134 0.307146 0.270640
0.720248 0.315580 0.279074
0.748475 0.324048 0.287542
0.776810 0.332549 0.296043
0.805251 0.341081 0.304575
0.833793 0.349644 0.313138
0.862434 0.358236 0.321730
0.891171 0.366857 0.330351
0.920000 0.375506 0.339000
0.105586 0.165287 0.112586
0.118579 0.165287 0.112586
0.133437 0.165287 0.112586
0.149092 0.165287 0.112586
0.165287 0.165287 0.112586
0.189014 0.172405 0.119704
0.213223 0.179668 0.126967
0.237842 0.187053 0.134353
0.262816 0.194545 0.141845
0.288104 0.202132 0.149431
0.313676 0.209803 0.157103
0.339505 0.217552 0.164852
0.365571 0.225372 0.172671
0.391854 0.233257 0.180556
0.418341 0.241203 0.188502
0.445018 0.249206 0.196506
0.471874 0.257263 0.204562
0.498898 0.265370 0.212669
0.526081 0.273525 0.220824
0.553416 0.281725 0.229025
0.580896 0.289969 0.237269
0.608513 0.298254 0.245554
0.636262 0.306579 0.253879
0.664137 0.314942 0.262241
0.692134 0.323341 0.270640
0.720248 0.331775 0.279074
0.748475 0.340243 0.287542
0.776810 0.348744 0.296043
0.805251 0.357276 0.304575
0.833793 0.365838 0.313138
0.862434 0.374431 0.321730
0.891171 0.383052 0.330351
0.920000 0.391701 0.339000
0.112704 0.189014 0.119704
0.125697 0.189014 0.119704
0.140555 0.189014 0.119704
0.156210 0.189014 0.119704
0.172405 0.189014 0.119704
0.189014 0.189014 0.119704
0.213223 0.196277 0.126967
0.237842 0.203662 0.134353
0.262816 0.211154 0.141845
0.288104 0.218741 0.149431
0.313676 0.226412 0.157103
0.339505 0.234161 0.164852
0.365571 0.241981 0.172671
0.391854 0.249866 0.180556
0.418341 0.257812 0.188502
0.445018 0.265815 0.196506
0.471874 0.273872 0.204562
0.498898 0.281979 0.212669
0.526081 0.290134 0.220824
0.553416 0.298335 0.229025
0.580896 0.306578 0.237269
0.608513 0.314863 0.245554
0.636262 0.323188 0.253879
0.664137 0.331551 0.262241
0.692134 0.339950 0.270640
0.720248 0.348384 0.279074
0.748475 0.356852 0.287542
0.776810 0.365353 0.296043
0.805251 0.373885 0.304575
0.833793 0.382448 0.313138
0.862434 0.391040 0.321730
0.891171 0.399661 0.330351
0.920000 0.408310 0.339000
0.119967 0.213223 0.126967
0.132960 0.213223 0.126967
0.147818 0.213223 0.126967
0.163473 0.213223 0.126967
0.179668 0.213223 0.126967
0.196277 0.213223 0.126967
0.213223 0.213223 0.126967
0.237842 0.220609 0.134353
0.262816 0.228101 0.141845
0.288104 0.235688 0.149431
0.313676 0.243359 0.157103
0.339505 0.251108 0.164852
0.365571 0.258928 0.172671
0.391854 0.266813 0.180556
0.418341 0.274759 0.188502
0.445018 0.282762 0.196506
0.471874 0.290819 0.204562
0.498898 0.298926 0.212669
0.526081 0.307081 0.220824
0.553416 0.315281 0.229025
0.580896 0.323525 0.237269
0.608513 0.331810 0.245554
0.636262 0.340135 0.253879
0.664137 0.348498 0.262241
0.692134 0.356897 0.270640
0.720248 0.365331 0.279074
0.748475 0.373799 0.287542
0.776810 0.382299 0.296043
0.805251 0.390832 0.304575
0.833793 0.399394 0.313138
0.862434 0.407987 0.321730
0.891171 0.416608 0.330351
0.920000 0.425256 0.339000
0.127353 0.237842 0.134353
0.140346 0.237842 0.134353
0.155204 0.237842 0.134353
0.170858 0.237842 0.134353
0.187053 0.237842 0.134353
0.203662 0.237842 0.134353
0.220609 0.237842 0.134353
0.237842 0.237842 0.134353
0.262816 0.245334 0.141845
0.288104 0.252921 0.149431
0.313676 0.260592 0.157103
0.339505 0.268341 0.164852
0.365571 0.276161 0.172671
0.391854 0.284046 0.180556
0.418341 0.291992 0.188502
0.445018 0.299995 0.196506
0.471874 0.308051 0.204562
0.498898 0.316159 0.212669
0.526081 0.324314 0.220824
0.553416 0.332514 0.229025
0.580896 0.340758 0.237269
0.608513 0.349043 0.245554
0.636262 0.357368 0.253879
0.664137 0.365730 0.262241
0.692134 0.374130 0.270640
0.720248 0.382564 0.279074
0.748475 0.391032 0.287542
0.776810 0.399532 0.296043
0.805251 0.408064 0.304575
0.833793 0.416627 0.313138
0.862434 0.425219 0.321730
0.891171 0.433840 0.330351
0.920000 0.442489 0.339000
0.134845 0.262816 0.141845
0.147838 0.262816 0.141845
0.162696 0.262816 0.141845
0.178350 0.262816 0.141845
0.194545 0.262816 0.141845
0.211154 0.262816 0.141845
0.228101 0.262816 0.141845
0.245334 0.262816 0.141845
0.262816 0.262816 0.141845
0.288104 0.270402 0.149431
0.313676 0.278074 0.157103
0.339505 0.285823 0.164852
0.365571 0.293642 0.172671
0.391854 0.301527 0.180556
0.418341 0.309473 0.188502
0.445018 0.317476 0.196506
0.471874 0.325533 0.204562
0.498898 0.333640 0.212669
0.526081 0.341795 0.220824
0.553416 0.349996 0.229025
0.580896 0.358240 0.237269
0.608513 0.366525 0.245554
0.636262 0.374849 0.253879
0.664137 0.383212 0.262241
0.692134 0.391611 0.270640
0.720248 0.400045 0.279074
0.748475 0.408513 0.287542
0.776810 0.417014 0.296043
0.805251 0.425546 0.304575
0.833793 0.434109 0.313138
0.862434 0.442701 0.321730
0.891171 0.451322 0.330351
0.920000 0.459971 0.339000
0.142431 0.288104 0.149431
0.155424 0.288104 0.149431
0.170283 0.288104 0.149431
0.185937 0.288104 0.149431
0.202132 0.288104 0.149431
0.218741 0.288104 0.149431
0.235688 0.288104 0.149431
0.252921 0.288104 0.149431
0.270402 0.288104 0.149431
0.288104 0.288104 0.149431
0.313676 0.295776 0.157103
0.339505 0.303525 0.164852
0.365571 0.311344 0.172671
0.391854 0.319229 0.180556
0.418341 0.327175 0.188502
0.445018 0.335179 0.196506
0.471874 0.343235 0.204562
0.498898 0.351342 0.212669
0.526081 0.359497 0.220824
0.553416 0.367698 0.229025
0.580896 0.375942 0.237269
0.608513 0.384227 0.245554
0.636262 0.392552 0.253879
0.664137 0.400914 0.262241
0.692134 0.409313 0.270640
0.720248 0.417747 0.279074
0.748475 0.426215 0.287542
0.776810 0.434716 0.296043
0.805251 0.443248 0.304575
0.833793 0.451811 0.313138
0.862434 0.460403 0.321730
0.891171 0.469024 0.330351
0.920000 0.477673 0.339000
0.150103 0.313676 0.157103
0.163096 0.313676 0.157103
0.177954 0.313676 0.157103
0.193608 0.313676 0.157103
0.209803 0.313676 0.157103
0.226412 0.313676 0.157103
0.243359 0.313676 0.157103
0.260592 0.313676 0.157103
0.278074 0.313676 0.157103
0.295776 0.313676 0.157103
0.313676 0.313676 0.157103
0.339505 0.321425 0.164852
0.365571 0.329244 0.172671
0.391854 0.337130 0.180556
0.418341 0.345076 0.188502
0.445018 0.353079 0.196506
0.471874 0.361135 0.204562
0.498898 0.369243 0.212669
0.526081 0.377398 0.220824
0.553416 0.385598 0.229025
0.580896 0.393842 0.237269
0.608513 0.402127 0.245554
0.636262 0.410452 0.253879
0.664137 0.418814 0.262241
0.692134 0.427214 0.270640
0.720248 0.435648 0.279074
0.748475 0.444116 0.287542
0.776810 0.452616 0.296043
0.805251 0.461148 0.304575
0.833793 0.469711 0.313138
0.862434 0.478303 0.321730
0.891171 0.486924 0.330351
0.920000 0.495573 0.339000
0.157852 0.339505 0.164852
0.170845 0.339505 0.164852
0.185703 0.339505 0.164852
0.201357 0.339505 0.164852
0.217552 0.339505 0.164852
0.234161 0.339505 0.164852
0.251108 0.339505 0.164852
0.268341 0.339505 0.164852
0.285823 0.339505 0.164852
0.303525 0.339505 0.164852
0.321425 0.339505 0.164852
0.339505 0.339505 0.164852
0.365571 0.347325 0.172671
0.391854 0.355210 0.180556
0.418341 0.363156 0.188502
0.445018 0.371159 0.196506
0.471874 0.379216 0.204562
0.498898 0.387323 0.212669
0.526081 0.395478 0.220824
0.553416 0.403679 0.229025
0.580896 0.411922 0.237269
0.608513 0.420208 0.245554
0.636262 0.428532 0.253879
0.664137 0.436895 0.262241
0.692134 0.445294 0.270640
0.720248 0.453728 0.279074
0.748475 0.462196 0.287542
0.776810 0.470697 0.296043
0.805251 0.479229 0.304575
0.833793 0.487792 0.313138
0.862434 0.496384 0.321730
0.891171 0.505005 0.330351
0.920000 0.513654 0.339000
0.165671 0.365571 0.172671
0.178664 0.365571 0.172671
0.193523 0.365571 0.172671
0.209177 0.365571 0.172671
0.225372 0.365571 0.172671
0.241981 0.365571 0.172671
0.258928 0.365571 0.172671
0.276161 0.365571 0.172671
0.293642 0.365571 0.172671
0.311344 0.365571 0.172671
0.329244 0.365571 0.172671
0.347325 0.365571 0.172671
0.365571 0.365571 0.172671
0.391854 0.373456 0.180556
0.418341 0.381402 0.188502
0.445018 0.389405 0.196506
0.471874 0.397462 0.204562
0.498898 0.405569 0.212669
0.526081 0.413724 0.220824
0.553416 0.421924 0.229025
0.580896 0.430168 0.237269
0.608513 0.438453 0.245554
0.636262 0.446778 0.253879
0.664137 0.455141 0.262241
0.692134 0.463540 0.270640
0.720248 0.471974 0.279074
0.748475 0.480442 0.287542
0.776810 0.488943 0.296043
0.805251 0.497475 0.304575
0.833793 0.506037 0.313138
0.862434 0.514630 0.321730
0.891171 0.523251 0.330351
0.920000 0.531900 0.339000
0.173556 0.391854 0.180556
0.186549 0.391854 0.180556
0.201408 0.391854 0.180556
0.217062 0.391854 0.180556
0.233257 0.391854 0.180556
0.249866 0.391854 0.180556
0.266813 0.391854 0.180556
0.284046 0.391854 0.180556
0.301527 0.391854 0.180556
0.319229 0.391854 0.180556
0.337130 0.391854 0.180556
0.355210 0.391854 0.180556
0.373456 0.391854 0.180556
0.391854 0.391854 0.180556
0.418341 0.399801 0.188502
0.445018 0.407804 0.196506
0.471874 0.415860 0.204562
0.498898 0.423967 0.212669
0.526081 0.432123 0.220824
0.553416 0.440323 0.229025
0.580896 0.448567 0.237269
0.608513 0.456852 0.245554
0.636262 0.465177 0.253879
0.664137 0.473539 0.262241
0.692134 0.481938 0.270640
0.720248 0.490373 0.279074
0.748475 0.498841 0.287542
0.776810 0.507341 0.296043
0.805251 0.515873 0.304575
0.833793 0.524436 0.313138
0.862434 0.533028 0.321730
0.891171 0.541649 0.330351
0.920000 0.550298 0.339000
0.181502 0.418341 0.188502
0.194496 0.418341 0.188502
0.209354 0.418341 0.188502
0.225008 0.418341 0.188502
0.241203 0.418341 0.188502
0.257812 0.418341 0.188502
0.274759 0.418341 0.188502
0.291992 0.418341 0.188502
0.309473 0.418341 0.188502
0.327175 0.418341 0.188502
0.345076 0.418341 0.188502
0.363156 0.418341 0.188502
0.381402 0.418341 0.188502
0.399801 0.418341 0.188502
0.418341 0.418341 0.188502
0.445018 0.426344 0.196506
0.471874 0.434401 0.204562
0.498898 0.442508 0.212669
0.526081 0.450663 0.220824
0.553416 0.458864 0.229025
0.580896 0.467108 0.237269
0.608513 0.475393 0.245554
0.636262 0.483718 0.253879
0.664137 0.492080 0.262241
0.692134 0.500479 0.270640
0.720248 0.508913 0.279074
0.748475 0.517381 0.287542
0.776810 0.525882 0.296043
0.805251 0.534414 0.304575
0.833793 0.542977 0.313138
0.862434 0.551569 0.321730
0.891171 0.560190 0.330351
0.920000 0.568839 0.339000
0.189506 0.445018 0.196506
0.202499 0.445018 0.196506
0.217357 0.445018 0.196506
0.233011 0.445018 0.196506
0.249206 0.445018 0.196506
0.265815 0.445018 0.196506
0.282762 0.445018 0.196506
0.299995 0.445018 0.196506
0.317476 0.445018 0.196506
0.335179 0.445018 0.196506
0.353079 0.445018 0.196506
0.371159 0.445018 0.196506
0.389405 0.445018 0.196506
0.407804 0.445018 0.196506
0.426344 0.445018 0.196506
0.445018 0.445018 0.196506
0.471874 0.453075 0.204562
0.498898 0.461182 0.212669
0.526081 0.469337 0.220824
0.553416 0.477538 0.229025
0.580896 0.485782 0.237269
0.608513 0.494067 0.245554
0.636262 0.502391 0.253879
0.664137 0.510754 0.262241
0.692134 0.519153 0.270640
0.720248 0.527587 0.279074
0.748475 0.536055 0.287542
0.776810 0.544556 0.296043
0.805251 0.553088 0.304575
0.833793 0.561651 0.313138
0.862434 0.570243 0.321730
0.891171 0.578864 0.330351
0.920000 0.587513 0.339000
0.197562 0.471874 0.204562
0.210555 0.471874 0.204562
0.225413 0.471874 0.204562
0.241068 0.471874 0.204562
0.257263 0.471874 0.204562
0.273872 0.471874 0.204562
0.290819 0.471874 0.204562
0.308051 0.471874 0.204562
0.325533 0.471874 0.204562
0.343235 0.471874 0.204562
0.361135 0.471874 0.204562
0.379216 0.471874 0.204562
0.397462 0.471874 0.204562
0.415860 0.471874 0.204562
0.434401 0.471874 0.204562
0.453075 0.471874 0.204562
0.471874 0.471874 0.204562
0.498898 0.479981 0.212669
0.526081 0.488136 0.220824
0.553416 0.496337 0.229025
0.580896 0.504580 0.237269
0.608513 0.512866 0.245554
0.636262 0.521190 0.253879
0.664137 0.529553 0.262241
0.692134 0.537952 0.270640
0.720248 0.546386 0.279074
0.748475 0.554854 0.287542
0.776810 0.563355 0.296043
0.805251 0.571887 0.304575
0.833793 0.580450 0.313138
0.862434 0.589042 0.321730
0.891171 0.597663 0.330351
0.920000 0.606312 0.339000
0.205669 0.498898 0.212669
0.218662 0.498898 0.212669
0.233521 0.498898 0.212669
0.249175 0.498898 0.212669
0.265370 0.498898 0.212669
0.281979 0.498898 0.212669
0.298926 0.498898 0.212669
0.316159 0.498898 0.212669
0.333640 0.498898 0.212669
0.351342 0.498898 0.212669
0.369243 0.498898 0.212669
0.387323 0.498898 0.212669
0.405569 0.498898 0.212669
0.423967 0.498898 0.212669
0.442508 0.498898 0.212669
0.461182 0.498898 0.212669
0.479981 0.498898 0.212669
0.498898 0.498898 0.212669
0.526081 0.507053 0.220824
0.553416 0.515253 0.229025
0.580896 0.523497 0.237269
0.608513 0.531782 0.245554
0.636262 0.540107 0.253879
0.664137 0.548470 0.262241
0.692134 0.556869 0.270640
0.720248 0.565303 0.279074
0.748475 0.573771 0.287542
0.776810 0.582272 0.296043
0.805251 0.590804 0.304575
0.833793 0.599366 0.313138
0.862434 0.607959 0.321730
0.891171 0.616580 0.330351
0.920000 0.625228 0.339000
0.213824 0.526081 0.220824
0.226817 0.526081 0.220824
0.241676 0.526081 0.220824
0.257330 0.526081 0.220824
0.273525 0.526081 0.220824
0.290134 0.526081 0.220824
0.307081 0.526081 0.220824
0.324314 0.526081 0.220824
0.341795 0.526081 0.220824
0.359497 0.526081 0.220824
0.377398 0.526081 0.220824
0.395478 0.526081 0.220824
0.413724 0.526081 0.220824
0.432123 0.526081 0.220824
0.450663 0.526081 0.220824
0.469337 0.526081 0.220824
0.488136 0.526081 0.220824
0.507053 0.526081 0.220824
0.526081 0.526081 0.220824
0.553416 0.534282 0.229025
0.580896 0.542526 0.237269
0.608513 0.550811 0.245554
0.636262 0.559135 0.253879
0.664137 0.567498 0.262241
0.692134 0.575897 0.270640
0.720248 0.584331 0.279074
0.748475 0.592799 0.287542
0.776810 0.601300 0.296043
0.805251 0.609832 0.304575
0.833793 0.618395 0.313138
0.862434 0.626987 0.321730
0.891171 0.635608 0.330351
0.920000 0.644257 0.339000
0.222025 0.553416 0.229025
0.235018 0.553416 0.229025
0.249876 0.553416 0.229025
0.265531 0.553416 0.229025
0.281725 0.553416 0.229025
0.298335 0.553416 0.229025
0.315281 0.553416 0.229025
0.332514 0.553416 0.229025
0.349996 0.553416 0.229025
0.367698 0.553416 0.229025
0.385598 0.553416 0.229025
0.403679 0.553416 0.229025
0.421924 0.553416 0.229025
0.440323 0.553416 0.229025
0.458864 0.553416 0.229025
0.477538 0.553416 0.229025
0.496337 0.553416 0.229025
0.515253 0.553416 0.229025
0.534282 0.553416 0.229025
0.553416 0.553416 0.229025
0.580896 0.561660 0.237269
0.608513 0.569945 0.245554
0.636262 0.578270 0.253879
0.664137 0.586633 0.262241
0.692134 0.595032 0.270640
0.720248 0.603466 0.279074
0.748475 0.611934 0.287542
0.776810 0.620434 0.296043
0.805251 0.628967 0.304575
0.833793 0.637529 0.313138
0.862434 0.646122 0.321730
0.891171 0.654743 0.330351
0.920000 0.663391 0.339000
0.230269 0.580896 0.237269
0.243262 0.580896 0.237269
0.258120 0.580896 0.237269
0.273774 0.580896 0.237269
0.289969 0.580896 0.237269
0.306578 0.580896 0.237269
0.323525 0.580896 0.237269
0.340758 0.580896 0.237269
0.358240 0.580896 0.237269
0.375942 0.580896 0.237269
0.393842 0.580896 0.237269
0.411922 0.580896 0.237269
0.430168 0.580896 0.237269
0.448567 0.580896 0.237269
0.467108 0.580896 0.237269
0.485782 0.580896 0.237269
0.504580 0.580896 0.237269
0.523497 0.580896 0.237269
0.542526 0.580896 0.237269
0.561660 0.580896 0.237269
0.580896 0.580896 0.237269
0.608513 0.589181 0.245554
0.636262 0.597506 0.253879
0.664137 0.605868 0.262241
0.692134 0.614267 0.270640
0.720248 0.622701 0.279074
0.748475 0.631169 0.287542
0.776810 0.639670 0.296043
0.805251 0.648202 0.304575
0.833793 0.656765 0.313138
0.862434 0.665357 0.321730
0.891171 0.673978 0.330351
0.920000 0.682627 0.339000
0.238554 0.608513 0.245554
0.251547 0.608513 0.245554
0.266405 0.608513 0.245554
0.282060 0.608513 0.245554
0.298254 0.608513 0.245554
0.314863 0.608513 0.245554
0.331810 0.608513 0.245554
0.349043 0.608513 0.245554
0.366525 0.608513 0.245554
0.384227 0.608513 0.245554
0.402127 0.608513 0.245554
0.420208 0.608513 0.245554
0.438453 0.608513 0.245554
0.456852 0.608513 0.245554
0.475393 0.608513 0.245554
0.494067 0.608513 0.245554
0.512866 0.608513 0.245554
0.531782 0.608513 0.245554
0.550811 0.608513 0.245554
0.569945 0.608513 0.245554
0.589181 0.608513 0.245554
0.608513 0.608513 0.245554
0.636262 0.616838 0.253879
0.664137 0.625200 0.262241
0.692134 0.633599 0.270640
0.720248 0.642033 0.279074
0.748475 0.650501 0.287542
0.776810 0.659002 0.296043
0.805251 0.667534 0.304575
0.833793 0.676097 0.313138
0.862434 0.684689 0.321730
0.891171 0.693310 0.330351
0.920000 0.701959 0.339000
0.246879 0.636262 0.253879
0.259872 0.636262 0.253879
0.274730 0.636262 0.253879
0.290384 0.636262 0.253879
0.306579 0.636262 0.253879
0.323188 0.636262 0.253879
0.340135 0.636262 0.253879
0.357368 0.636262 0.253879
0.374849 0.636262 0.253879
0.392552 0.636262 0.253879
0.410452 0.636262 0.253879
0.428532 0.636262 0.253879
0.446778 0.636262 0.253879
0.465177 0.636262 0.253879
0.483718 0.636262 0.253879
0.502391 0.636262 0.253879
0.521190 0.636262 0.253879
0.540107 0.636262 0.253879
0.559135 0.636262 0.253879
0.578270 0.636262 0.253879
0.597506 0.636262 0.253879
0.616838 0.636262 0.253879
0.636262 0.636262 0.253879
0.664137 0.644624 0.262241
0.692134 0.653024 0.270640
0.720248 0.661458 0.279074
0.748475 0.669926 0.287542
0.776810 0.678426 0.296043
0.805251 0.686958 0.304575
0.833793 0.695521 0.313138
0.862434 0.704113 0.321730
0.891171 0.712734 0.330351
0.920000 0.721383 0.339000
0.255241 0.664137 0.262241
0.268234 0.664137 0.262241
0.283092 0.664137 0.262241
0.298747 0.664137 0.262241
0.314942 0.664137 0.262241
0.331551 0.664137 0.262241
0.348498 0.664137 0.262241
0.365730 0.664137 0.262241
0.383212 0.664137 0.262241
0.400914 0.664137 0.262241
0.418814 0.664137 0.262241
0.436895 0.664137 0.262241
0.455141 0.664137 0.262241
0.473539 0.664137 0.262241
0.492080 0.664137 0.262241
0.510754 0.664137 0.262241
0.529553 0.664137 0.262241
0.548470 0.664137 0.262241
0.567498 0.664137 0.262241
0.586633 0.664137 0.262241
0.605868 0.664137 0.262241
0.625200 0.664137 0.262241
0.644624 0.664137 0.262241
0.664137 0.664137 0.262241
0.692134 0.672536 0.270640
0.720248 0.680971 0.279074
0.748475 0.689439 0.287542
0.776810 0.697939 0.296043
0.805251 0.706471 0.304575
0.833793 0.715034 0.313138
0.862434 0.723626 0.321730
0.891171 0.732247 0.330351
0.920000 0.740896 0.339000
0.263640 0.692134 0.270640
0.276633 0.692134 0.270640
0.291492 0.692134 0.270640
0.307146 0.692134 0.270640
0.323341 0.692134 0.270640
0.339950 0.692134 0.270640
0.356897 0.692134 0.270640
0.374130 0.692134 0.270640
0.391611 0.692134 0.270640
0.409313 0.692134 0.270640
0.427214 0.692134 0.270640
0.445294 0.692134 0.270640
0.463540 0.692134 0.270640
0.481938 0.692134 0.270640
0.500479 0.692134 0.270640
0.519153 0.692134 0.270640
0.537952 0.692134 0.270640
0.556869 0.692134 0.270640
0.575897 0.692134 0.270640
0.595032 0.692134 0.270640
0.614267 0.692134 0.270640
0.633599 0.692134 0.270640
0.653024 0.692134 0.270640
0.672536 0.692134 0.270640
0.692134 0.692134 0.270640
0.720248 0.700568 0.279074
0.748475 0.709036 0.287542
0.776810 0.717537 0.296043
0.805251 0.726069 0.304575
0.833793 0.734632 0.313138
0.862434 0.743224 0.321730
0.891171 0.751845 0.330351
0.920000 0.760494 0.339000
0.272074 0.720248 0.279074
0.285068 0.720248 0.279074
0.299926 0.720248 0.279074
0.315580 0.720248 0.279074
0.331775 0.720248 0.279074
0.348384 0.720248 0.279074
0.365331 0.720248 0.279074
0.382564 0.720248 0.279074
0.400045 0.720248 0.279074
0.417747 0.720248 0.279074
0.435648 0.720248 0.279074
0.453728 0.720248 0.279074
0.471974 0.720248 0.279074
0.490373 0.720248 0.279074
0.508913 0.720248 0.279074
0.527587 0.720248 0.279074
0.546386 0.720248 0.279074
0.565303 0.720248 0.279074
0.584331 0.720248 0.279074
0.603466 0.720248 0.279074
0.622701 0.720248 0.279074
0.642033 0.720248 0.279074
0.661458 0.720248 0.279074
0.680971 0.720248 0.279074
0.700568 0.720248 0.279074
0.720248 0.720248 0.279074
0.748475 0.728716 0.287542
0.776810 0.737217 0.296043
0.805251 0.745749 0.304575
0.833793 0.754312 0.313138
0.862434 0.762904 0.321730
0.891171 0.771525 0.330351
0.920000 0.780174 0.339000
0.280542 0.748475 0.287542
0.293536 0.748475 0.287542
0.308394 0.748475 0.287542
0.324048 0.748475 0.287542
0.340243 0.748475 0.287542
0.356852 0.748475 0.287542
0.373799 0.748475 0.287542
0.391032 0.748475 0.287542
0.408513 0.748475 0.287542
0.426215 0.748475 0.287542
0.444116 0.748475 0.287542
0.462196 0.748475 0.287542
0.480442 0.748475 0.287542
0.498841 0.748475 0.287542
0.517381 0.748475 0.287542
0.536055 0.748475 0.287542
0.554854 0.748475 0.287542
0.573771 0.748475 0.287542
0.592799 0.748475 0.287542
0.611934 0.748475 0.287542
0.631169 0.748475 0.287542
0.650501 0.748475 0.287542
0.669926 0.748475 0.287542
0.689439 0.748475 0.287542
0.709036 0.748475 0.287542
0.728716 0.748475 0.287542
0.748475 0.748475 0.287542
