app/src/main/assets/luts/matte_black.cube
TITLE "Matte Black"
LUT_3D_SIZE 5
DOMAIN_MIN 0.0 0.0 0.0
DOMAIN_MAX 1.0 1.0 1.0
0.083000 0.083000 0.090000
0.262816 0.134845 0.141845
0.471874 0.197562 0.204562
0.692134 0.263640 0.270640
0.920000 0.332000 0.339000
0.134845 0.262816 0.141845
0.262816 0.262816 0.141845
0.471874 0.325533 0.204562
0.692134 0.391611 0.270640
0.920000 0.459971 0.339000
0.197562 0.471874 0.204562
0.325533 0.471874 0.204562
0.471874 0.471874 0.204562
0.692134 0.537952 0.270640
0.920000 0.606312 0.339000
0.263640 0.692134 0.270640
0.391611 0.692134 0.270640
0.537952 0.692134 0.270640
0.692134 0.692134 0.270640
0.920000 0.760494 0.339000
0.332000 0.920000 0.339000
0.459971 0.920000 0.339000
0.606312 0.920000 0.339000
0.760494 0.920000 0.339000
0.920000 0.920000 0.339000
0.138498 0.138498 0.274992
0.266469 0.138498 0.274992
0.471874 0.197562 0.334057
0.692134 0.263640 0.400135
0.920000 0.332000 0.468494
0.138498 0.266469 0.274992
0.266469 0.266469 0.274992
0.471874 0.325533 0.334057
0.692134 0.391611 0.400135
0.920000 0.459971 0.468494
0.197562 0.471874 0.334057
0.325533 0.471874 0.334057
0.471874 0.471874 0.334057
0.692134 0.537952 0.400135
0.920000 0.606312 0.468494
0.263640 0.692134 0.400135
0.391611 0.692134 0.400135
0.537952 0.692134 0.400135
0.692134 0.692134 0.400135
0.920000 0.760494 0.468494
0.332000 0.920000 0.468494
0.459971 0.920000 0.468494
0.606312 0.920000 0.468494
0.760494 0.920000 0.468494
0.920000 0.920000 0.468494
0.201962 0.201962 0.486539
0.329933 0.201962 0.486539
0.476273 0.201962 0.486539
0.692134 0.263640 0.548218
0.920000 0.332000 0.616577
0.201962 0.329933 0.486539
0.329933 0.329933 0.486539
0.476273 0.329933 0.486539
0.692134 0.391611 0.548218
0.920000 0.459971 0.616577
0.201962 0.476273 0.486539
0.329933 0.476273 0.486539
0.476273 0.476273 0.486539
0.692134 0.537952 0.548218
0.920000 0.606312 0.616577
0.263640 0.692134 0.548218
0.391611 0.692134 0.548218
0.537952 0.692134 0.548218
0.692134 0.692134 0.548218
0.920000 0.760494 0.616577
0.332000 0.920000 0.616577
0.459971 0.920000 0.616577
0.606312 0.920000 0.616577
0.760494 0.920000 0.616577
0.920000 0.920000 0.616577
0.268826 0.268826 0.709422
0.396797 0.268826 0.709422
0.543138 0.268826 0.709422
0.697320 0.268826 0.709422
0.920000 0.332000 0.772595
0.268826 0.396797 0.709422
0.396797 0.396797 0.709422
0.543138 0.396797 0.709422
0.697320 0.396797 0.709422
0.920000 0.459971 0.772595
0.268826 0.543138 0.709422
0.396797 0.543138 0.709422
0.543138 0.543138 0.709422
0.697320 0.543138 0.709422
0.920000 0.606312 0.772595
0.268826 0.697320 0.709422
0.396797 0.697320 0.709422
0.543138 0.697320 0.709422
0.697320 0.697320 0.709422
0.920000 0.760494 0.772595
0.332000 0.920000 0.772595
0.459971 0.920000 0.772595
0.606312 0.920000 0.772595
0.760494 0.920000 0.772595
0.920000 0.920000 0.772595
0.338000 0.338000 0.940000
0.465971 0.338000 0.940000
0.612312 0.338000 0.940000
0.766494 0.338000 0.940000
0.926000 0.338000 0.940000
0.338000 0.465971 0.940000
0.465971 0.465971 0.940000
0.612312 0.465971 0.940000
0.766494 0.465971 0.940000
0.926000 0.465971 0.940000
0.338000 0.612312 0.940000
0.465971 0.612312 0.940000
0.612312 0.612312 0.940000
0.766494 0.612312 0.940000
0.926000 0.612312 0.940000
0.338000 0.766494 0.940000
0.465971 0.766494 0.940000
0.612312 0.766494 0.940000
0.766494 0.766494 0.940000
0.926000 0.766494 0.940000
0.338000 0.926000 0.940000
0.465971 0.926000 0.940000
0.612312 0.926000 0.940000
0.766494 0.926000 0.940000
0.926000 0.926000 0.940000
