app/src/main/assets/luts/matte_black.cube
TITLE "Matte Black"
LUT_3D_SIZE 9
DOMAIN_MIN 0.0 0.0 0.0
DOMAIN_MAX 1.0 1.0 1.0
0.083000 0.083000 0.090000
0.165287 0.105586 0.112586
0.262816 0.134845 0.141845
0.365571 0.165671 0.172671
0.471874 0.197562 0.204562
0.580896 0.230269 0.237269
0.692134 0.263640 0.270640
0.805251 0.297575 0.304575
0.920000 0.332000 0.339000
0.105586 0.165287 0.112586
0.165287 0.165287 0.112586
0.262816 0.194545 0.141845
0.365571 0.225372 0.172671
0.471874 0.257263 0.204562
0.580896 0.289969 0.237269
0.692134 0.323341 0.270640
0.805251 0.357276 0.304575
0.920000 0.391701 0.339000
0.134845 0.262816 0.141845
0.194545 0.262816 0.141845
0.262816 0.262816 0.141845
0.365571 0.293642 0.172671
0.471874 0.325533 0.204562
0.580896 0.358240 0.237269
0.692134 0.391611 0.270640
0.805251 0.425546 0.304575
0.920000 0.459971 0.339000
0.165671 0.365571 0.172671
0.225372 0.365571 0.172671
0.293642 0.365571 0.172671
0.365571 0.365571 0.172671
0.471874 0.397462 0.204562
0.580896 0.430168 0.237269
0.692134 0.463540 0.270640
0.805251 0.497475 0.304575
0.920000 0.531900 0.339000
0.197562 0.471874 0.204562
0.257263 0.471874 0.204562
0.325533 0.471874 0.204562
0.397462 0.471874 0.204562
0.471874 0.471874 0.204562
0.580896 0.504580 0.237269
0.692134 0.537952 0.270640
0.805251 0.571887 0.304575
0.920000 0.606312 0.339000
0.230269 0.580896 0.237269
0.289969 0.580896 0.237269
0.358240 0.580896 0.237269
0.430168 0.580896 0.237269
0.504580 0.580896 0.237269
0.580896 0.580896 0.237269
0.692134 0.614267 0.270640
0.805251 0.648202 0.304575
0.920000 0.682627 0.339000
0.263640 0.692134 0.270640
0.323341 0.692134 0.270640
0.391611 0.692134 0.270640
0.463540 0.692134 0.270640
0.537952 0.692134 0.270640
0.614267 0.692134 0.270640
0.692134 0.692134 0.270640
0.805251 0.726069 0.304575
0.920000 0.760494 0.339000
0.297575 0.805251 0.304575
0.357276 0.805251 0.304575
0.425546 0.805251 0.304575
0.497475 0.805251 0.304575
0.571887 0.805251 0.304575
0.648202 0.805251 0.304575
0.726069 0.805251 0.304575
0.805251 0.805251 0.304575
0.920000 0.839675 0.339000
0.332000 0.920000 0.339000
0.391701 0.920000 0.339000
0.459971 0.920000 0.339000
0.531900 0.920000 0.339000
0.606312 0.920000 0.339000
0.682627 0.920000 0.339000
0.760494 0.920000 0.339000
0.839675 0.920000 0.339000
0.920000 0.920000 0.339000
0.108891 0.108891 0.176302
0.168591 0.108891 0.176302
0.262816 0.134845 0.202256
0.365571 0.165671 0.233082
0.471874 0.197562 0.264973
0.580896 0.230269 0.297680
0.692134 0.263640 0.331052
0.805251 0.297575 0.364986
0.920000 0.332000 0.399411
0.108891 0.168591 0.176302
0.168591 0.168591 0.176302
0.262816 0.194545 0.202256
0.365571 0.225372 0.233082
0.471874 0.257263 0.264973
0.580896 0.289969 0.297680
0.692134 0.323341 0.331052
0.805251 0.357276 0.364986
0.920000 0.391701 0.399411
0.134845 0.262816 0.202256
0.194545 0.262816 0.202256
0.262816 0.262816 0.202256
0.365571 0.293642 0.233082
0.471874 0.325533 0.264973
0.580896 0.358240 0.297680
0.692134 0.391611 0.331052
0.805251 0.425546 0.364986
0.920000 0.459971 0.399411
0.165671 0.365571 0.233082
0.225372 0.365571 0.233082
0.293642 0.365571 0.233082
0.365571 0.365571 0.233082
0.471874 0.397462 0.264973
0.580896 0.430168 0.297680
0.692134 0.463540 0.331052
0.805251 0.497475 0.364986
0.920000 0.531900 0.399411
0.197562 0.471874 0.264973
0.257263 0.471874 0.264973
0.325533 0.471874 0.264973
0.397462 0.471874 0.264973
0.471874 0.471874 0.264973
0.580896 0.504580 0.297680
0.692134 0.537952 0.331052
0.805251 0.571887 0.364986
0.920000 0.606312 0.399411
0.230269 0.580896 0.297680
0.289969 0.580896 0.297680
0.358240 0.580896 0.297680
0.430168 0.580896 0.297680
0.504580 0.580896 0.297680
0.580896 0.580896 0.297680
0.692134 0.614267 0.331052
0.805251 0.648202 0.364986
0.920000 0.682627 0.399411
0.263640 0.692134 0.331052
0.323341 0.692134 0.331052
0.391611 0.692134 0.331052
0.463540 0.692134 0.331052
0.537952 0.692134 0.331052
0.614267 0.692134 0.331052
0.692134 0.692134 0.331052
0.805251 0.726069 0.364986
0.920000 0.760494 0.399411
0.297575 0.805251 0.364986
0.357276 0.805251 0.364986
0.425546 0.805251 0.364986
0.497475 0.805251 0.364986
0.571887 0.805251 0.364986
0.648202 0.805251 0.364986
0.726069 0.805251 0.364986
0.805251 0.805251 0.364986
0.920000 0.839675 0.399411
0.332000 0.920000 0.399411
0.391701 0.920000 0.399411
0.459971 0.920000 0.399411
0.531900 0.920000 0.399411
0.606312 0.920000 0.399411
0.682627 0.920000 0.399411
0.760494 0.920000 0.399411
0.839675 0.920000 0.399411
0.920000 0.920000 0.399411
0.138498 0.138498 0.274992
0.198198 0.138498 0.274992
0.266469 0.138498 0.274992
0.365571 0.165671 0.302166
0.471874 0.197562 0.334057
0.580896 0.230269 0.366763
0.692134 0.263640 0.400135
0.805251 0.297575 0.434070
0.920000 0.332000 0.468494
0.138498 0.198198 0.274992
0.198198 0.198198 0.274992
0.266469 0.198198 0.274992
0.365571 0.225372 0.302166
0.471874 0.257263 0.334057
0.580896 0.289969 0.366763
0.692134 0.323341 0.400135
0.805251 0.357276 0.434070
0.920000 0.391701 0.468494
0.138498 0.266469 0.274992
0.198198 0.266469 0.274992
0.266469 0.266469 0.274992
0.365571 0.293642 0.302166
0.471874 0.325533 0.334057
0.580896 0.358240 0.366763
0.692134 0.391611 0.400135
0.805251 0.425546 0.434070
0.920000 0.459971 0.468494
0.165671 0.365571 0.302166
0.225372 0.365571 0.302166
0.293642 0.365571 0.302166
0.365571 0.365571 0.302166
0.471874 0.397462 0.334057
0.580896 0.430168 0.366763
0.692134 0.463540 0.400135
0.805251 0.497475 0.434070
0.920000 0.531900 0.468494
0.197562 0.471874 0.334057
0.257263 0.471874 0.334057
0.325533 0.471874 0.334057
0.397462 0.471874 0.334057
0.471874 0.471874 0.334057
0.580896 0.504580 0.366763
0.692134 0.537952 0.400135
0.805251 0.571887 0.434070
0.920000 0.606312 0.468494
0.230269 0.580896 0.366763
0.289969 0.580896 0.366763
0.358240 0.580896 0.366763
0.430168 0.580896 0.366763
0.504580 0.580896 0.366763
0.580896 0.580896 0.366763
0.692134 0.614267 0.400135
0.805251 0.648202 0.434070
0.920000 0.682627 0.468494
0.263640 0.692134 0.400135
0.323341 0.692134 0.400135
0.391611 0.692134 0.400135
0.463540 0.692134 0.400135
0.537952 0.692134 0.400135
0.614267 0.692134 0.400135
0.692134 0.692134 0.400135
0.805251 0.726069 0.434070
0.920000 0.760494 0.468494
0.297575 0.805251 0.434070
0.357276 0.805251 0.434070
0.425546 0.805251 0.434070
0.497475 0.805251 0.434070
0.571887 0.805251 0.434070
0.648202 0.805251 0.434070
0.726069 0.805251 0.434070
0.805251 0.805251 0.434070
0.920000 0.839675 0.468494
0.332000 0.920000 0.468494
0.391701 0.920000 0.468494
0.459971 0.920000 0.468494
0.531900 0.920000 0.468494
0.606312 0.920000 0.468494
0.682627 0.920000 0.468494
0.760494 0.920000 0.468494
0.839675 0.920000 0.468494
0.920000 0.920000 0.468494
0.169691 0.169691 0.378970
0.229392 0.169691 0.378970
0.297662 0.169691 0.378970
0.369591 0.169691 0.378970
0.471874 0.197562 0.406841
0.580896 0.230269 0.439548
0.692134 0.263640 0.472920
0.805251 0.297575 0.506854
0.920000 0.332000 0.541279
0.169691 0.229392 0.378970
0.229392 0.229392 0.378970
0.297662 0.229392 0.378970
0.369591 0.229392 0.378970
0.471874 0.257263 0.406841
0.580896 0.289969 0.439548
0.692134 0.323341 0.472920
0.805251 0.357276 0.506854
0.920000 0.391701 0.541279
0.169691 0.297662 0.378970
0.229392 0.297662 0.378970
0.297662 0.297662 0.378970
0.369591 0.297662 0.378970
0.471874 0.325533 0.406841
0.580896 0.358240 0.439548
0.692134 0.391611 0.472920
0.805251 0.425546 0.506854
0.920000 0.459971 0.541279
0.169691 0.369591 0.378970
0.229392 0.369591 0.378970
0.297662 0.369591 0.378970
0.369591 0.369591 0.378970
0.471874 0.397462 0.406841
0.580896 0.430168 0.439548
0.692134 0.463540 0.472920
0.805251 0.497475 0.506854
0.920000 0.531900 0.541279
0.197562 0.471874 0.406841
0.257263 0.471874 0.406841
0.325533 0.471874 0.406841
0.397462 0.471874 0.406841
0.471874 0.471874 0.406841
0.580896 0.504580 0.439548
0.692134 0.537952 0.472920
0.805251 0.571887 0.506854
0.920000 0.606312 0.541279
0.230269 0.580896 0.439548
0.289969 0.580896 0.439548
0.358240 0.580896 0.439548
0.430168 0.580896 0.439548
0.504580 0.580896 0.439548
0.580896 0.580896 0.439548
0.692134 0.614267 0.472920
0.805251 0.648202 0.506854
0.920000 0.682627 0.541279
0.263640 0.692134 0.472920
0.323341 0.692134 0.472920
0.391611 0.692134 0.472920
0.463540 0.692134 0.472920
0.537952 0.692134 0.472920
0.614267 0.692134 0.472920
0.692134 0.692134 0.472920
0.805251 0.726069 0.506854
0.920000 0.760494 0.541279
0.297575 0.805251 0.506854
0.357276 0.805251 0.506854
0.425546 0.805251 0.506854
0.497475 0.805251 0.506854
0.571887 0.805251 0.506854
0.648202 0.805251 0.506854
0.726069 0.805251 0.506854
0.805251 0.805251 0.506854
0.920000 0.839675 0.541279
0.332000 0.920000 0.541279
0.391701 0.920000 0.541279
0.459971 0.920000 0.541279
0.531900 0.920000 0.541279
0.606312 0.920000 0.541279
0.682627 0.920000 0.541279
0.760494 0.920000 0.541279
0.839675 0.920000 0.541279
0.920000 0.920000 0.541279
0.201962 0.201962 0.486539
0.261662 0.201962 0.486539
0.329933 0.201962 0.486539
0.401861 0.201962 0.486539
0.476273 0.201962 0.486539
0.580896 0.230269 0.514846
0.692134 0.263640 0.548218
0.805251 0.297575 0.582153
0.920000 0.332000 0.616577
0.201962 0.261662 0.486539
0.261662 0.261662 0.486539
0.329933 0.261662 0.486539
0.401861 0.261662 0.486539
0.476273 0.261662 0.486539
0.580896 0.289969 0.514846
0.692134 0.323341 0.548218
0.805251 0.357276 0.582153
0.920000 0.391701 0.616577
0.201962 0.329933 0.486539
0.261662 0.329933 0.486539
0.329933 0.329933 0.486539
0.401861 0.329933 0.486539
0.476273 0.329933 0.486539
0.580896 0.358240 0.514846
0.692134 0.391611 0.548218
0.805251 0.425546 0.582153
0.920000 0.459971 0.616577
0.201962 0.401861 0.486539
0.261662 0.401861 0.486539
0.329933 0.401861 0.486539
0.401861 0.401861 0.486539
0.476273 0.401861 0.486539
0.580896 0.430168 0.514846
0.692134 0.463540 0.548218
0.805251 0.497475 0.582153
0.920000 0.531900 0.616577
0.201962 0.476273 0.486539
0.261662 0.476273 0.486539
0.329933 0.476273 0.486539
0.401861 0.476273 0.486539
0.476273 0.476273 0.486539
0.580896 0.504580 0.514846
0.692134 0.537952 0.548218
0.805251 0.571887 0.582153
0.920000 0.606312 0.616577
0.230269 0.580896 0.514846
0.289969 0.580896 0.514846
0.358240 0.580896 0.514846
0.430168 0.580896 0.514846
0.504580 0.580896 0.514846
0.580896 0.580896 0.514846
0.692134 0.614267 0.548218
0.805251 0.648202 0.582153
0.920000 0.682627 0.616577
0.263640 0.692134 0.548218
0.323341 0.692134 0.548218
0.391611 0.692134 0.548218
0.463540 0.692134 0.548218
0.537952 0.692134 0.548218
0.614267 0.692134 0.548218
0.692134 0.692134 0.548218
0.805251 0.726069 0.582153
0.920000 0.760494 0.616577
0.297575 0.805251 0.582153
0.357276 0.805251 0.582153
0.425546 0.805251 0.582153
0.497475 0.805251 0.582153
0.571887 0.805251 0.582153
0.648202 0.805251 0.582153
0.726069 0.805251 0.582153
0.805251 0.805251 0.582153
0.920000 0.839675 0.616577
0.332000 0.920000 0.616577
0.391701 0.920000 0.616577
0.459971 0.920000 0.616577
0.531900 0.920000 0.616577
0.606312 0.920000 0.616577
0.682627 0.920000 0.616577
0.760494 0.920000 0.616577
0.839675 0.920000 0.616577
0.920000 0.920000 0.616577
0.235058 0.235058 0.596859
0.294758 0.235058 0.596859
0.363029 0.235058 0.596859
0.434957 0.235058 0.596859
0.509369 0.235058 0.596859
0.585685 0.235058 0.596859
0.692134 0.263640 0.625441
0.805251 0.297575 0.659376
0.920000 0.332000 0.693801
0.235058 0.294758 0.596859
0.294758 0.294758 0.596859
0.363029 0.294758 0.596859
0.434957 0.294758 0.596859
0.509369 0.294758 0.596859
0.585685 0.294758 0.596859
0.692134 0.323341 0.625441
0.805251 0.357276 0.659376
0.920000 0.391701 0.693801
0.235058 0.363029 0.596859
0.294758 0.363029 0.596859
0.363029 0.363029 0.596859
0.434957 0.363029 0.596859
0.509369 0.363029 0.596859
0.585685 0.363029 0.596859
0.692134 0.391611 0.625441
0.805251 0.425546 0.659376
0.920000 0.459971 0.693801
0.235058 0.434957 0.596859
0.294758 0.434957 0.596859
0.363029 0.434957 0.596859
0.434957 0.434957 0.596859
0.509369 0.434957 0.596859
0.585685 0.434957 0.596859
0.692134 0.463540 0.625441
0.805251 0.497475 0.659376
0.920000 0.531900 0.693801
0.235058 0.509369 0.596859
0.294758 0.509369 0.596859
0.363029 0.509369 0.596859
0.434957 0.509369 0.596859
0.509369 0.509369 0.596859
0.585685 0.509369 0.596859
0.692134 0.537952 0.625441
0.805251 0.571887 0.659376
0.920000 0.606312 0.693801
0.235058 0.585685 0.596859
0.294758 0.585685 0.596859
0.363029 0.585685 0.596859
0.434957 0.585685 0.596859
0.509369 0.585685 0.596859
0.585685 0.585685 0.596859
0.692134 0.614267 0.625441
0.805251 0.648202 0.659376
0.920000 0.682627 0.693801
0.263640 0.692134 0.625441
0.323341 0.692134 0.625441
0.391611 0.692134 0.625441
0.463540 0.692134 0.625441
0.537952 0.692134 0.625441
0.614267 0.692134 0.625441
0.692134 0.692134 0.625441
0.805251 0.726069 0.659376
0.920000 0.760494 0.693801
0.297575 0.805251 0.659376
0.357276 0.805251 0.659376
0.425546 0.805251 0.659376
0.497475 0.805251 0.659376
0.571887 0.805251 0.659376
0.648202 0.805251 0.659376
0.726069 0.805251 0.659376
0.805251 0.805251 0.659376
0.920000 0.839675 0.693801
0.332000 0.920000 0.693801
0.391701 0.920000 0.693801
0.459971 0.920000 0.693801
0.531900 0.920000 0.693801
0.606312 0.920000 0.693801
0.682627 0.920000 0.693801
0.760494 0.920000 0.693801
0.839675 0.920000 0.693801
0.920000 0.920000 0.693801
0.268826 0.268826 0.709422
0.328527 0.268826 0.709422
0.396797 0.268826 0.709422
0.468726 0.268826 0.709422
0.543138 0.268826 0.709422
0.619453 0.268826 0.709422
0.697320 0.268826 0.709422
0.805251 0.297575 0.738170
0.920000 0.332000 0.772595
0.268826 0.328527 0.709422
0.328527 0.328527 0.709422
0.396797 0.328527 0.709422
0.468726 0.328527 0.709422
0.543138 0.328527 0.709422
0.619453 0.328527 0.709422
0.697320 0.328527 0.709422
0.805251 0.357276 0.738170
0.920000 0.391701 0.772595
0.268826 0.396797 0.709422
0.328527 0.396797 0.709422
0.396797 0.396797 0.709422
0.468726 0.396797 0.709422
0.543138 0.396797 0.709422
0.619453 0.396797 0.709422
0.697320 0.396797 0.709422
0.805251 0.425546 0.738170
0.920000 0.459971 0.772595
0.268826 0.468726 0.709422
0.328527 0.468726 0.709422
0.396797 0.468726 0.709422
0.468726 0.468726 0.709422
0.543138 0.468726 0.709422
0.619453 0.468726 0.709422
0.697320 0.468726 0.709422
0.805251 0.497475 0.738170
0.920000 0.531900 0.772595
0.268826 0.543138 0.709422
0.328527 0.543138 0.709422
0.396797 0.543138 0.709422
0.468726 0.543138 0.709422
0.543138 0.543138 0.709422
0.619453 0.543138 0.709422
0.697320 0.543138 0.709422
0.805251 0.571887 0.738170
0.920000 0.606312 0.772595
0.268826 0.619453 0.709422
0.328527 0.619453 0.709422
0.396797 0.619453 0.709422
0.468726 0.619453 0.709422
0.543138 0.619453 0.709422
0.619453 0.619453 0.709422
0.697320 0.619453 0.709422
0.805251 0.648202 0.738170
0.920000 0.682627 0.772595
0.268826 0.697320 0.709422
0.328527 0.697320 0.709422
0.396797 0.697320 0.709422
0.468726 0.697320 0.709422
0.543138 0.697320 0.709422
0.619453 0.697320 0.709422
0.697320 0.697320 0.709422
0.805251 0.726069 0.738170
0.920000 0.760494 0.772595
0.297575 0.805251 0.738170
0.357276 0.805251 0.738170
0.425546 0.805251 0.738170
0.497475 0.805251 0.738170
0.571887 0.805251 0.738170
0.648202 0.805251 0.738170
0.726069 0.805251 0.738170
0.805251 0.805251 0.738170
0.920000 0.839675 0.772595
0.332000 0.920000 0.772595
0.391701 0.920000 0.772595
0.459971 0.920000 0.772595
0.531900 0.920000 0.772595
0.606312 0.920000 0.772595
0.682627 0.920000 0.772595
0.760494 0.920000 0.772595
0.839675 0.920000 0.772595
0.920000 0.920000 0.772595
0.303165 0.303165 0.823885
0.362866 0.303165 0.823885
0.431136 0.303165 0.823885
0.503065 0.303165 0.823885
0.577477 0.303165 0.823885
0.653792 0.303165 0.823885
0.731659 0.303165 0.823885
0.810841 0.303165 0.823885
0.920000 0.332000 0.852719
0.303165 0.362866 0.823885
0.362866 0.362866 0.823885
0.431136 0.362866 0.823885
0.503065 0.362866 0.823885
0.577477 0.362866 0.823885
0.653792 0.362866 0.823885
0.731659 0.362866 0.823885
0.810841 0.362866 0.823885
0.920000 0.391701 0.852719
0.303165 0.431136 0.823885
0.362866 0.431136 0.823885
0.431136 0.431136 0.823885
0.503065 0.431136 0.823885
0.577477 0.431136 0.823885
0.653792 0.431136 0.823885
0.731659 0.431136 0.823885
0.810841 0.431136 0.823885
0.920000 0.459971 0.852719
0.303165 0.503065 0.823885
0.362866 0.503065 0.823885
0.431136 0.503065 0.823885
0.503065 0.503065 0.823885
0.577477 0.503065 0.823885
0.653792 0.503065 0.823885
0.731659 0.503065 0.823885
0.810841 0.503065 0.823885
0.920000 0.531900 0.852719
0.303165 0.577477 0.823885
0.362866 0.577477 0.823885
0.431136 0.577477 0.823885
0.503065 0.577477 0.823885
0.577477 0.577477 0.823885
0.653792 0.577477 0.823885
0.731659 0.577477 0.823885
0.810841 0.577477 0.823885
0.920000 0.606312 0.852719
0.303165 0.653792 0.823885
0.362866 0.653792 0.823885
0.431136 0.653792 0.823885
0.503065 0.653792 0.823885
0.577477 0.653792 0.823885
0.653792 0.653792 0.823885
0.731659 0.653792 0.823885
0.810841 0.653792 0.823885
0.920000 0.682627 0.852719
0.303165 0.731659 0.823885
0.362866 0.731659 0.823885
0.431136 0.731659 0.823885
0.503065 0.731659 0.823885
0.577477 0.731659 0.823885
0.653792 0.731659 0.823885
0.731659 0.731659 0.823885
0.810841 0.731659 0.823885
0.920000 0.760494 0.852719
0.303165 0.810841 0.823885
0.362866 0.810841 0.823885
0.431136 0.810841 0.823885
0.503065 0.810841 0.823885
0.577477 0.810841 0.823885
0.653792 0.810841 0.823885
0.731659 0.810841 0.823885
0.810841 0.810841 0.823885
0.920000 0.839675 0.852719
0.332000 0.920000 0.852719
0.391701 0.920000 0.852719
0.459971 0.920000 0.852719
0.531900 0.920000 0.852719
0.606312 0.920000 0.852719
0.682627 0.920000 0.852719
0.760494 0.920000 0.852719
0.839675 0.920000 0.852719
0.920000 0.920000 0.852719
0.338000 0.338000 0.940000
0.397701 0.338000 0.940000
0.465971 0.338000 0.940000
0.537900 0.338000 0.940000
0.612312 0.338000 0.940000
0.688627 0.338000 0.940000
0.766494 0.338000 0.940000
0.845675 0.338000 0.940000
0.926000 0.338000 0.940000
0.338000 0.397701 0.940000
0.397701 0.397701 0.940000
0.465971 0.397701 0.940000
0.537900 0.397701 0.940000
0.612312 0.397701 0.940000
0.688627 0.397701 0.940000
0.766494 0.397701 0.940000
0.845675 0.397701 0.940000
0.926000 0.397701 0.940000
0.338000 0.465971 0.940000
0.397701 0.465971 0.940000
0.465971 0.465971 0.940000
0.537900 0.465971 0.940000
0.612312 0.465971 0.940000
0.688627 0.465971 0.940000
0.766494 0.465971 0.940000
0.845675 0.465971 0.940000
0.926000 0.465971 0.940000
0.338000 0.537900 0.940000
0.397701 0.537900 0.940000
0.465971 0.537900 0.940000
0.537900 0.537900 0.940000
0.612312 0.537900 0.940000
0.688627 0.537900 0.940000
0.766494 0.537900 0.940000
0.845675 0.537900 0.940000
0.926000 0.537900 0.940000
0.338000 0.612312 0.940000
0.397701 0.612312 0.940000
0.465971 0.612312 0.940000
0.537900 0.612312 0.940000
0.612312 0.612312 0.940000
0.688627 0.612312 0.940000
0.766494 0.612312 0.940000
0.845675 0.612312 0.940000
0.926000 0.612312 0.940000
0.338000 0.688627 0.940000
0.397701 0.688627 0.940000
0.465971 0.688627 0.940000
0.537900 0.688627 0.940000
0.612312 0.688627 0.940000
0.688627 0.688627 0.940000
0.766494 0.688627 0.940000
0.845675 0.688627 0.940000
0.926000 0.688627 0.940000
0.338000 0.766494 0.940000
0.397701 0.766494 0.940000
0.465971 0.766494 0.940000
0.537900 0.766494 0.940000
0.612312 0.766494 0.940000
0.688627 0.766494 0.940000
0.766494 0.766494 0.940000
0.845675 0.766494 0.940000
0.926000 0.766494 0.940000
0.338000 0.845675 0.940000
0.397701 0.845675 0.940000
0.465971 0.845675 0.940000
0.537900 0.845675 0.940000
0.612312 0.845675 0.940000
0.688627 0.845675 0.940000
0.766494 0.845675 0.940000
0.845675 0.845675 0.940000
0.926000 0.845675 0.940000
0.338000 0.926000 0.940000
0.397701 0.926000 0.940000
0.465971 0.926000 0.940000
0.537900 0.926000 0.940000
0.612312 0.926000 0.940000
0.688627 0.926000 0.940000
0.766494 0.926000 0.940000
0.845675 0.926000 0.940000
0.926000 0.926000 0.940000
