app/src/main/assets/luts/moody.cube
# Generated 3D LUT
TITLE "Moody"
LUT_3D_SIZE 5
DOMAIN_MIN 0.000000 0.000000 0.000000
DOMAIN_MAX 0.903226 0.903226 0.903226
0.000000 0.000000 0.000000
0.114959 0.009265 0.012290
0.273419 0.022036 0.028236
0.453882 0.036580 0.045931
0.650304 0.052411 0.064869
0.022607 0.128060 0.027614
0.155330 0.147933 0.045256
0.320709 0.168357 0.064153
0.505940 0.189289 0.084039
0.706093 0.210695 0.104747
0.053769 0.304580 0.063439
0.197935 0.328043 0.083292
0.369439 0.351847 0.103972
0.559093 0.375977 0.125364
0.762778 0.400422 0.147386
0.089257 0.505610 0.103198
0.242469 0.531512 0.124566
0.419493 0.557669 0.146565
0.613277 0.584074 0.169131
0.820319 0.610719 0.192212
0.127884 0.724417 0.145746
0.288709 0.752216 0.168292
0.470772 0.780222 0.191354
0.668437 0.808430 0.214890
0.878679 0.836837 0.238864
0.002915 0.002776 0.118146
0.122606 0.013874 0.139966
0.282484 0.027407 0.162369
0.463903 0.042481 0.185301
0.661067 0.058728 0.208718
0.028222 0.135569 0.161535
0.163441 0.155658 0.184449
0.330064 0.176279 0.207848
0.516179 0.197396 0.231695
0.717033 0.218975 0.255959
0.060373 0.313485 0.206979
0.206441 0.337079 0.230810
0.379060 0.361009 0.255060
0.569537 0.385261 0.279700
0.773887 0.409822 0.304707
0.096538 0.515455 0.254160
0.251322 0.541455 0.278787
0.429358 0.567707 0.303781
0.623915 0.594205 0.329123
0.831590 0.620941 0.354795
0.135692 0.734991 0.302855
0.297872 0.762870 0.328185
0.480866 0.790953 0.353845
0.679259 0.819238 0.379820
0.890105 0.847719 0.406094
0.006932 0.006602 0.271429
0.130350 0.018816 0.296316
0.291608 0.032997 0.321557
0.473968 0.048551 0.347133
0.671864 0.065184 0.373027
0.034072 0.143163 0.320622
0.171632 0.163459 0.346186
0.339472 0.184274 0.372069
0.526459 0.205570 0.398255
0.728006 0.227318 0.424732
0.067124 0.322440 0.371111
0.215018 0.346164 0.397286
0.388729 0.370218 0.423753
0.580020 0.394589 0.450497
0.785028 0.419265 0.477509
0.103929 0.525338 0.422774
0.260237 0.551435 0.449509
0.439270 0.577782 0.476511
0.634589 0.604371 0.503771
0.842892 0.631196 0.531279
0.143591 0.745596 0.475513
0.307091 0.773553 0.502764
0.491003 0.801714 0.530263
0.690115 0.830074 0.558002
0.901561 0.858629 0.585973
0.011507 0.010959 0.441535
0.138187 0.024034 0.468459
0.300788 0.038785 0.495644
0.484075 0.054777 0.523079
0.682697 0.071771 0.550756
0.040130 0.150838 0.494639
0.179903 0.171336 0.522065
0.348933 0.192339 0.549734
0.536779 0.213810 0.577637
0.739013 0.235723 0.605766
0.074015 0.331446 0.548712
0.223663 0.355297 0.576606
0.398447 0.379474 0.604727
0.590540 0.403962 0.633068
0.796201 0.428751 0.661622
0.111428 0.535258 0.603689
0.269214 0.561451 0.632022
0.449226 0.587891 0.660568
0.645299 0.614571 0.689321
0.854224 0.641485 0.718276
0.151578 0.756231 0.659514
0.316366 0.784266 0.688260
0.501181 0.812504 0.717207
0.701005 0.840939 0.746351
0.913046 0.869567 0.775685
0.016487 0.015702 0.623579
0.146114 0.029491 0.652063
0.310026 0.044751 0.680755
0.494225 0.061147 0.709651
0.693564 0.078482 0.738744
0.046377 0.158591 0.679696
0.188251 0.179286 0.708584
0.358445 0.200471 0.737670
0.547139 0.222114 0.766948
0.750052 0.244188 0.796414
0.081036 0.340500 0.736596
0.232376 0.364477 0.765868
0.408213 0.388774 0.795327
0.601099 0.413379 0.824969
0.807405 0.438280 0.854789
0.119029 0.545215 0.794240
0.278251 0.571503 0.823875
0.459226 0.598035 0.853689
0.656045 0.624805 0.883678
0.865586 0.651806 0.913837
0.159649 0.766896 0.852589
0.325696 0.795009 0.882571
0.511401 0.823322 0.912724
0.711929 0.851831 0.943044
0.924559 0.880533 0.973528
