app/src/main/assets/luts/moody.cube
# Generated 3D LUT
TITLE "Moody"
LUT_3D_SIZE 8
DOMAIN_MIN 0.000000 0.000000 0.000000
DOMAIN_MAX 0.903226 0.903226 0.903226
0.000000 0.000000 0.000000
0.057114 0.004603 0.006279
0.135841 0.010948 0.014426
0.225500 0.018174 0.023467
0.323087 0.026039 0.033143
0.427028 0.034416 0.043319
0.536331 0.043225 0.053914
0.650304 0.052411 0.064869
0.011232 0.063623 0.014108
0.077172 0.073497 0.023122
0.159336 0.083644 0.032777
0.251363 0.094043 0.042937
0.350804 0.104678 0.053517
0.456288 0.115534 0.064460
0.566922 0.126598 0.075722
0.682071 0.137859 0.087272
0.026714 0.151323 0.032413
0.098339 0.162980 0.042555
0.183546 0.174806 0.053121
0.277771 0.186794 0.064051
0.378966 0.198939 0.075303
0.485927 0.211234 0.086842
0.597846 0.223673 0.098644
0.714137 0.236253 0.110686
0.044345 0.251199 0.052726
0.120464 0.264068 0.063643
0.208414 0.277063 0.074883
0.304691 0.290182 0.086413
0.407554 0.303420 0.098205
0.515933 0.316775 0.110239
0.629093 0.330243 0.122495
0.746493 0.343823 0.134960
0.063536 0.359908 0.074465
0.143437 0.373719 0.085984
0.233891 0.387633 0.097767
0.332096 0.401648 0.109792
0.436549 0.415761 0.122041
0.546292 0.429970 0.134498
0.660654 0.444275 0.147151
0.779133 0.458671 0.159989
0.083976 0.475695 0.097329
0.167173 0.490288 0.109345
0.259936 0.504968 0.121586
0.359961 0.519733 0.134036
0.465934 0.534584 0.146683
0.576993 0.549517 0.159513
0.692519 0.564532 0.172518
0.812048 0.579627 0.185689
0.105471 0.597455 0.121132
0.191604 0.612720 0.133575
0.286514 0.628062 0.146214
0.388264 0.643479 0.159038
0.495695 0.658971 0.172037
0.608023 0.674536 0.185202
0.724681 0.690172 0.198525
0.845232 0.705880 0.211998
0.127884 0.724417 0.145746
0.216676 0.740277 0.158563
0.313596 0.756204 0.171556
0.416987 0.772199 0.184715
0.525817 0.788261 0.198032
0.639374 0.804388 0.211500
0.757131 0.820581 0.225113
0.878679 0.836837 0.238864
0.001448 0.001379 0.060363
0.060914 0.006893 0.071512
0.140345 0.013616 0.082958
0.230478 0.021106 0.094675
0.328434 0.029177 0.106638
0.432680 0.037727 0.118831
0.542246 0.046685 0.131235
0.656450 0.056003 0.143838
0.014022 0.067354 0.082532
0.081201 0.077334 0.094239
0.163984 0.087580 0.106194
0.256450 0.098071 0.118378
0.356239 0.108792 0.130775
0.462015 0.119729 0.143371
0.572901 0.130869 0.156155
0.688276 0.142203 0.169116
0.029995 0.155747 0.105750
0.102565 0.167469 0.117926
0.188326 0.179358 0.130315
0.282960 0.191407 0.142905
0.384486 0.203609 0.155682
0.491726 0.215960 0.168636
0.603889 0.228453 0.181758
0.720398 0.241085 0.195041
0.047962 0.256090 0.129856
0.124863 0.269008 0.142438
0.213316 0.282051 0.155208
0.309976 0.295215 0.168156
0.413154 0.308498 0.181273
0.521802 0.321897 0.194549
0.635198 0.335408 0.207979
0.752810 0.349028 0.221554
0.067415 0.365161 0.154735
0.147990 0.379012 0.167677
0.238906 0.392965 0.180787
0.337472 0.407017 0.194058
0.442226 0.421167 0.207482
0.552228 0.435413 0.221052
0.666819 0.449753 0.234763
0.785504 0.464185 0.248609
0.088073 0.481248 0.180302
0.171865 0.495874 0.193567
0.265057 0.510587 0.206986
0.365424 0.525385 0.220551
0.471685 0.540267 0.234256
0.582994 0.555232 0.248097
0.698742 0.570277 0.262068
0.818472 0.585403 0.276163
0.109756 0.603266 0.206489
0.196425 0.618561 0.220049
0.291735 0.633932 0.233750
0.393810 0.649377 0.247585
0.501517 0.664897 0.261551
0.614087 0.680489 0.275643
0.730961 0.696153 0.289855
0.851707 0.711888 0.304185
0.132335 0.730456 0.233243
0.221616 0.746341 0.247074
0.318911 0.762295 0.261035
0.422612 0.778315 0.275122
0.531708 0.794402 0.289330
0.645499 0.810555 0.303656
0.763465 0.826771 0.318095
0.885205 0.843052 0.332644
0.003444 0.003280 0.138679
0.064761 0.009348 0.151394
0.144878 0.016394 0.164290
0.235479 0.024121 0.177358
0.333798 0.032385 0.190587
0.438347 0.041097 0.203972
0.548173 0.050198 0.217505
0.662607 0.059642 0.231180
0.016928 0.071127 0.163813
0.085271 0.081211 0.176874
0.168658 0.091552 0.190098
0.261557 0.102132 0.203477
0.361691 0.112937 0.217005
0.467756 0.123953 0.230674
0.578894 0.135168 0.244480
0.694491 0.146573 0.258417
0.033349 0.160196 0.189609
0.106826 0.171983 0.202982
0.193130 0.183933 0.216504
0.288168 0.196041 0.230169
0.390021 0.208301 0.243970
0.497539 0.220707 0.257902
0.609945 0.233253 0.271962
0.726671 0.245937 0.286143
0.051635 0.261000 0.216004
0.129292 0.273966 0.229664
0.218240 0.287056 0.243460
0.315279 0.300266 0.257388
0.418769 0.313593 0.271442
0.527684 0.327035 0.285619
0.641315 0.340588 0.299914
0.759138 0.354250 0.314324
0.071339 0.370430 0.242950
0.152570 0.384320 0.256873
0.243942 0.398311 0.270923
0.342865 0.412401 0.285095
0.447917 0.426588 0.299386
0.558177 0.440869 0.313792
0.672995 0.455245 0.328309
0.791885 0.469711 0.342933
0.092209 0.486815 0.270404
0.176583 0.501474 0.284572
0.270198 0.516219 0.298859
0.370903 0.531050 0.313260
0.477450 0.545963 0.327773
0.589007 0.560959 0.342393
0.704977 0.576035 0.357119
0.824906 0.591190 0.371946
0.114074 0.609089 0.298331
0.201269 0.624412 0.312728
0.296975 0.639812 0.327237
0.399372 0.655286 0.341853
0.507353 0.670833 0.356575
0.620163 0.686453 0.371399
0.737251 0.702144 0.386322
0.858193 0.717905 0.401341
0.136815 0.736504 0.326701
0.226577 0.752416 0.341314
0.324244 0.768395 0.356032
0.428252 0.784441 0.370852
0.537612 0.800553 0.385771
0.651636 0.816730 0.400787
0.769811 0.832971 0.415897
0.891740 0.849276 0.431100
0.005717 0.005445 0.225590
0.068654 0.011941 0.239346
0.149439 0.019269 0.253235
0.240500 0.027214 0.267252
0.339180 0.035658 0.281393
0.444028 0.044524 0.295654
0.554113 0.053760 0.310030
0.668776 0.063326 0.324518
0.019937 0.074940 0.252722
0.089380 0.085124 0.266735
0.173358 0.095558 0.280871
0.266685 0.106226 0.295127
0.367159 0.117113 0.309499
0.473511 0.128206 0.323983
0.584899 0.139494 0.338576
0.700718 0.150969 0.353274
0.036772 0.164670 0.280349
0.111121 0.176520 0.294601
0.197958 0.188532 0.308968
0.293395 0.200698 0.323448
0.395572 0.213014 0.338037
0.503366 0.225474 0.352732
0.616012 0.238073 0.367529
0.732954 0.250807 0.382426
0.055360 0.265929 0.308438
0.133752 0.278942 0.322914
0.223186 0.292078 0.337499
0.320600 0.305333 0.352189
0.424399 0.318705 0.366983
0.533579 0.332189 0.381877
0.647443 0.345784 0.396868
0.765476 0.359487 0.411954
0.075307 0.375714 0.336960
0.157178 0.389642 0.351647
0.248999 0.403671 0.366437
0.348276 0.417798 0.381327
0.453623 0.432022 0.396315
0.564138 0.446339 0.411397
0.679183 0.460749 0.426573
0.798277 0.475250 0.441839
0.096381 0.492393 0.365891
0.181326 0.507086 0.380777
0.275358 0.521864 0.395761
0.376399 0.536726 0.410841
0.483229 0.551671 0.426013
0.595032 0.566698 0.441275
0.711222 0.581804 0.456627
0.831350 0.596989 0.472064
0.118425 0.614922 0.395208
0.206137 0.630275 0.410284
0.302233 0.645703 0.425453
0.404949 0.661205 0.440712
0.513202 0.676780 0.456060
0.626251 0.692427 0.471495
0.743552 0.708145 0.487014
0.864688 0.723933 0.502616
0.141325 0.742563 0.424893
0.231560 0.758501 0.440149
0.329595 0.774505 0.455494
0.433907 0.790576 0.470925
0.543529 0.806713 0.486442
0.657784 0.822915 0.502041
0.776166 0.839180 0.517721
0.898285 0.855509 0.533481
0.008191 0.007801 0.318600
0.072593 0.014652 0.333153
0.154028 0.022234 0.347813
0.245543 0.030379 0.362576
0.344579 0.038992 0.377440
0.449724 0.048004 0.392403
0.560065 0.057370 0.407461
0.674956 0.067053 0.422612
0.023041 0.078792 0.347271
0.093527 0.089074 0.362031
0.178084 0.099599 0.376892
0.271832 0.110352 0.391850
0.372644 0.121318 0.406905
0.479280 0.132487 0.422053
0.590916 0.143848 0.437293
0.706956 0.155391 0.452621
0.040261 0.169169 0.376343
0.115450 0.181081 0.391298
0.202810 0.193152 0.406350
0.298640 0.205376 0.421494
0.401138 0.217748 0.436730
0.509206 0.230262 0.452055
0.622092 0.242913 0.467468
0.739248 0.255697 0.482965
0.059136 0.270876 0.405794
0.138242 0.283936 0.420936
0.228155 0.297118 0.436168
0.325939 0.310418 0.451490
0.430044 0.323833 0.466899
0.539487 0.337360 0.482393
0.653584 0.350996 0.497971
0.771825 0.364739 0.513630
0.079318 0.381012 0.435606
0.161814 0.394979 0.450925
0.254076 0.409046 0.466331
0.353703 0.423210 0.481822
0.459343 0.437470 0.497396
0.570112 0.451823 0.513053
0.685382 0.466268 0.528789
0.804679 0.480803 0.544604
0.100590 0.497985 0.465762
0.186095 0.512710 0.481250
0.280538 0.527521 0.496822
0.381911 0.542415 0.512475
0.489021 0.557391 0.528209
0.601070 0.572448 0.544021
0.717478 0.587585 0.559910
0.837804 0.602800 0.575874
0.122808 0.620767 0.496248
0.211028 0.636148 0.511898
0.307510 0.651605 0.527629
0.410541 0.667135 0.543438
0.519064 0.682737 0.559324
0.632351 0.698411 0.575286
0.749864 0.714156 0.591321
0.871192 0.729971 0.607430
0.145864 0.748632 0.527048
0.236565 0.764595 0.542855
0.334963 0.780625 0.558738
0.439577 0.796721 0.574697
0.549459 0.812883 0.590730
0.663943 0.829109 0.606836
0.782533 0.845399 0.623014
0.904839 0.861752 0.639262
0.010827 0.010311 0.416426
0.076574 0.017468 0.431632
0.158645 0.025279 0.446927
0.250606 0.033612 0.462311
0.349995 0.042383 0.477780
0.455435 0.051536 0.493333
0.566031 0.061026 0.508968
0.681147 0.070823 0.524684
0.026231 0.082682 0.446363
0.097712 0.093059 0.461743
0.182835 0.103673 0.477209
0.276999 0.114508 0.492759
0.378145 0.125554 0.508392
0.485064 0.136797 0.524104
0.596945 0.148228 0.539896
0.713204 0.159838 0.555765
0.043811 0.173691 0.476639
0.119811 0.185665 0.492186
0.207685 0.197795 0.507815
0.303904 0.210076 0.523525
0.406720 0.222502 0.539314
0.515059 0.235069 0.555180
0.628183 0.247772 0.571122
0.745552 0.260606 0.587139
0.062962 0.275841 0.507239
0.142761 0.288948 0.522945
0.233145 0.302175 0.538731
0.331295 0.315519 0.554595
0.435703 0.328977 0.570534
0.545408 0.342546 0.586548
0.659735 0.356224 0.602635
0.778184 0.370007 0.618794
0.083369 0.386326 0.538149
0.166476 0.400331 0.554010
0.259174 0.414435 0.569946
0.359147 0.428636 0.585958
0.465078 0.442931 0.602042
0.576099 0.457319 0.618199
0.691592 0.471799 0.634426
0.811091 0.486368 0.650722
0.104835 0.503589 0.569359
0.190887 0.518347 0.585367
0.285737 0.533189 0.601449
0.387439 0.548115 0.617603
0.494828 0.563122 0.633828
0.607120 0.578210 0.650122
0.723745 0.593376 0.666484
0.844267 0.608621 0.682914
0.127223 0.626622 0.600856
0.215941 0.642033 0.617007
0.312805 0.657517 0.633229
0.416149 0.673075 0.649521
0.524940 0.688705 0.665881
0.638462 0.704406 0.682308
0.756187 0.720178 0.698802
0.877707 0.736019 0.715360
0.150431 0.754710 0.632631
0.241592 0.770699 0.648920
0.340349 0.786754 0.665278
0.445262 0.802875 0.681703
0.555402 0.819062 0.698194
0.670115 0.835312 0.714750
0.788909 0.851626 0.731370
0.911403 0.868003 0.748054
0.013598 0.012950 0.518269
0.080598 0.020377 0.534032
0.163289 0.028400 0.549872
0.255690 0.036908 0.565789
0.355427 0.045831 0.581781
0.461160 0.055116 0.597847
0.572009 0.064727 0.613985
0.687350 0.074632 0.630194
0.029500 0.086610 0.549288
0.101932 0.097079 0.565203
0.187612 0.107779 0.581192
0.282185 0.118696 0.597255
0.383662 0.129817 0.613390
0.490861 0.141133 0.629596
0.602987 0.152634 0.645872
0.719464 0.164310 0.662217
0.047419 0.178238 0.580602
0.124205 0.190272 0.596662
0.212583 0.202460 0.612795
0.309187 0.214797 0.628999
0.412318 0.227277 0.645272
0.520926 0.239896 0.661614
0.634287 0.252650 0.678024
0.751868 0.265533 0.694501
0.066834 0.280824 0.612200
0.147309 0.293977 0.628401
0.238157 0.307249 0.644672
0.336669 0.320637 0.661012
0.441378 0.334138 0.677419
0.551342 0.347748 0.693893
0.665899 0.361466 0.710433
0.784553 0.375289 0.727036
0.087460 0.391654 0.644072
0.171164 0.405697 0.660410
0.264292 0.419838 0.676815
0.364608 0.434075 0.693286
0.470826 0.448406 0.709823
0.582098 0.462829 0.726424
0.697814 0.477343 0.743089
0.817513 0.491946 0.759816
0.109115 0.509206 0.676210
0.195704 0.523996 0.692679
0.290956 0.538870 0.709213
0.392982 0.553827 0.725812
0.500648 0.568865 0.742475
0.613182 0.583983 0.759200
0.730023 0.599180 0.775987
0.850741 0.614454 0.792834
0.131669 0.632489 0.708604
0.220878 0.647928 0.725201
0.318117 0.663440 0.741861
0.421772 0.679026 0.758584
0.530829 0.694683 0.775368
0.644585 0.710411 0.792213
0.762520 0.726210 0.809119
0.884231 0.742077 0.826083
0.155027 0.760798 0.741247
0.246639 0.776812 0.757967
0.345752 0.792893 0.774750
0.450961 0.809039 0.791593
0.561358 0.825250 0.808496
0.676297 0.841525 0.825458
0.795296 0.857863 0.842478
0.917976 0.874263 0.859556
0.016487 0.015702 0.623579
0.084662 0.023373 0.639830
0.167959 0.031591 0.656149
0.260795 0.040264 0.672536
0.360877 0.049330 0.688991
0.466899 0.058744 0.705511
0.577999 0.068470 0.722095
0.693564 0.078482 0.738744
0.032844 0.090573 0.655547
0.106188 0.101132 0.671932
0.192412 0.111916 0.688384
0.287390 0.122912 0.704902
0.389194 0.134109 0.721484
0.496672 0.145497 0.738130
0.609041 0.157065 0.754839
0.725735 0.168807 0.771610
0.051084 0.182807 0.687778
0.128630 0.194901 0.704293
0.217504 0.207147 0.720873
0.314487 0.219539 0.737517
0.417930 0.232073 0.754223
0.526806 0.244743 0.770992
0.640402 0.257547 0.787821
0.758194 0.270478 0.804711
0.070751 0.285825 0.720262
0.151885 0.299024 0.736903
0.243189 0.312340 0.753607
0.342060 0.325771 0.770374
0.447067 0.339314 0.787201
0.557289 0.352966 0.804088
0.672073 0.366724 0.821035
0.790933 0.380587 0.838040
0.091589 0.396996 0.752992
0.175878 0.411077 0.769756
0.269430 0.425255 0.786581
0.370085 0.439528 0.803466
0.476589 0.453894 0.820411
0.588109 0.468352 0.837414
0.704046 0.482900 0.854475
0.823946 0.497536 0.871593
0.113428 0.514835 0.785961
0.200545 0.529657 0.802844
0.296193 0.544563 0.819786
0.398541 0.559551 0.836787
0.506482 0.574620 0.853846
0.619256 0.589768 0.870962
0.736312 0.604994 0.888134
0.857225 0.620298 0.905361
0.136145 0.638367 0.819162
0.225836 0.653833 0.836161
0.323448 0.669374 0.853217
0.427410 0.684987 0.870331
0.536731 0.700671 0.887501
0.650720 0.716427 0.904727
0.768864 0.732251 0.922007
0.890765 0.748144 0.939341
0.159649 0.766896 0.852589
0.251707 0.782936 0.869701
0.351171 0.799041 0.886868
0.456675 0.815212 0.904092
0.567326 0.831448 0.921370
0.682491 0.847747 0.938703
0.801693 0.864108 0.956089
0.924559 0.880533 0.973528
