app/src/main/assets/luts/moody.cube
# Generated 3D LUT
TITLE "Moody"
LUT_3D_SIZE 32
DOMAIN_MIN 0.0 0.0 0.0
DOMAIN_MAX 1.0 1.0 1.0
0.000000 0.000000 0.000000
0.010096 0.000814 0.001190
0.024014 0.001935 0.002733
0.039863 0.003213 0.004446
0.057114 0.004603 0.006279
0.075489 0.006084 0.008207
0.094811 0.007641 0.010215
0.114959 0.009265 0.012290
0.135841 0.010948 0.014426
0.157388 0.012685 0.016616
0.179543 0.014470 0.018856
0.202260 0.016301 0.021141
0.225500 0.018174 0.023467
0.249229 0.020086 0.025833
0.273419 0.022036 0.028236
0.298046 0.024021 0.030673
0.323087 0.026039 0.033143
0.348522 0.028089 0.035644
0.374334 0.030169 0.038174
0.400508 0.032279 0.040733
0.427028 0.034416 0.043319
0.453882 0.036580 0.045931
0.481058 0.038770 0.048568
0.508544 0.040986 0.051229
0.536331 0.043225 0.053914
0.564409 0.045488 0.056621
0.592769 0.047774 0.059349
0.621404 0.050081 0.062099
0.650304 0.052411 0.064869
0.679464 0.054761 0.067659
0.708877 0.057131 0.070468
0.738535 0.059522 0.073296
0.001985 0.011247 0.002673
0.013642 0.012993 0.004381
0.028167 0.014786 0.006210
0.044435 0.016625 0.008135
0.062014 0.018505 0.010140
0.080661 0.020424 0.012213
0.100219 0.022380 0.014347
0.120574 0.024370 0.016535
0.141644 0.026394 0.018773
0.163362 0.028449 0.021056
0.185674 0.030535 0.023381
0.208537 0.032649 0.025745
0.231913 0.034791 0.028147
0.255770 0.036960 0.030583
0.280082 0.039155 0.033051
0.304823 0.041374 0.035551
0.329973 0.043618 0.038081
0.355513 0.045885 0.040639
0.381425 0.048175 0.043224
0.407694 0.050486 0.045835
0.434307 0.052819 0.048471
0.461249 0.055173 0.051131
0.488511 0.057547 0.053815
0.516080 0.059940 0.056521
0.543947 0.062353 0.059248
0.572103 0.064785 0.061997
0.600538 0.067235 0.064766
0.629246 0.069704 0.067556
0.658218 0.072189 0.070364
0.687447 0.074692 0.073192
0.716927 0.077212 0.076037
0.746652 0.079749 0.078901
0.004722 0.026750 0.006141
0.017384 0.028811 0.008063
0.032447 0.030902 0.010065
0.049103 0.033021 0.012135
0.066992 0.035168 0.014267
0.085901 0.037341 0.016454
0.105685 0.039540 0.018689
0.126243 0.041764 0.020971
0.147495 0.044012 0.023295
0.169379 0.046283 0.025658
0.191845 0.048576 0.028058
0.214851 0.050891 0.030492
0.238361 0.053228 0.032960
0.262345 0.055585 0.035459
0.286776 0.057963 0.037987
0.311630 0.060360 0.040544
0.336888 0.062776 0.043128
0.362531 0.065211 0.045738
0.388542 0.067665 0.048373
0.414906 0.070136 0.051033
0.441609 0.072625 0.053715
0.468640 0.075131 0.056421
0.495986 0.077654 0.059148
0.523638 0.080193 0.061896
0.551584 0.082748 0.064664
0.579817 0.085320 0.067453
0.608327 0.087907 0.070261
0.637107 0.090509 0.073087
0.666150 0.093127 0.075932
0.695448 0.095759 0.078795
0.724995 0.098406 0.081675
0.754786 0.101067 0.084573
0.007839 0.044406 0.009990
0.021295 0.046681 0.012058
0.036843 0.048978 0.014188
0.053862 0.051297 0.016372
0.072046 0.053638 0.018606
0.091205 0.055998 0.020886
0.111209 0.058379 0.023209
0.131963 0.060780 0.025570
0.153392 0.063199 0.027969
0.175440 0.065638 0.030402
0.198057 0.068094 0.032869
0.221203 0.070569 0.035366
0.244845 0.073060 0.037894
0.268953 0.075569 0.040450
0.293501 0.078095 0.043033
0.318468 0.080637 0.045642
0.343832 0.083196 0.048276
0.369576 0.085770 0.050935
0.395685 0.088360 0.053616
0.422143 0.090965 0.056321
0.448937 0.093585 0.059047
0.476054 0.096219 0.061794
0.503484 0.098869 0.064562
0.531217 0.101532 0.067350
0.559242 0.104210 0.070157
0.587551 0.106901 0.072983
0.616136 0.109606 0.075827
0.644988 0.112325 0.078689
0.674101 0.115056 0.081569
0.703468 0.117801 0.084466
0.733082 0.120559 0.087379
0.762937 0.123329 0.090309
0.011232 0.063623 0.014108
0.025356 0.066065 0.016291
0.041346 0.068524 0.018523
0.058707 0.071002 0.020802
0.077172 0.073497 0.023122
0.096572 0.076009 0.025483
0.116788 0.078537 0.027880
0.137733 0.081082 0.030312
0.159336 0.083644 0.032777
0.181543 0.086220 0.035274
0.204307 0.088813 0.037800
0.227592 0.091420 0.040355
0.251363 0.094043 0.042937
0.275593 0.096680 0.045545
0.300258 0.099332 0.048179
0.325334 0.101998 0.050836
0.350804 0.104678 0.053517
0.376649 0.107372 0.056221
0.402854 0.110079 0.058946
0.429404 0.112800 0.061693
0.456288 0.115534 0.064460
0.483491 0.118281 0.067247
0.511005 0.121041 0.070053
0.538818 0.123813 0.072879
0.566922 0.126598 0.075722
0.595306 0.129395 0.078584
0.623965 0.132205 0.081463
0.652889 0.135026 0.084359
0.682071 0.137859 0.087272
0.711506 0.140704 0.090201
0.741186 0.143561 0.093146
0.771106 0.146428 0.096107
0.014845 0.084092 0.018440
0.029552 0.086671 0.020717
0.045951 0.089267 0.023036
0.063633 0.091877 0.025395
0.082366 0.094502 0.027791
0.101999 0.097142 0.030222
0.122421 0.099796 0.032686
0.143551 0.102464 0.035182
0.165324 0.105147 0.037707
0.187687 0.107843 0.040261
0.210596 0.110553 0.042842
0.234016 0.113276 0.045449
0.257915 0.116012 0.048081
0.282266 0.118761 0.050738
0.307045 0.121523 0.053418
0.332230 0.124298 0.056121
0.357804 0.127085 0.058846
0.383748 0.129884 0.061591
0.410049 0.132696 0.064358
0.436691 0.135519 0.067144
0.463662 0.138355 0.069950
0.490952 0.141201 0.072774
0.518548 0.144060 0.075617
0.546441 0.146930 0.078478
0.574622 0.149811 0.081357
0.603082 0.152703 0.084252
0.631813 0.155606 0.087164
0.660808 0.158520 0.090093
0.690060 0.161445 0.093037
0.719562 0.164381 0.095997
0.749308 0.167327 0.098973
0.779292 0.170283 0.101963
0.018645 0.105616 0.022950
0.033871 0.108315 0.025308
0.050649 0.111027 0.027702
0.068636 0.113752 0.030132
0.087627 0.116491 0.032595
0.107484 0.119242 0.035089
0.128107 0.122006 0.037613
0.149417 0.124783 0.040166
0.171355 0.127572 0.042746
0.193871 0.130374 0.045353
0.216923 0.133187 0.047984
0.240476 0.136013 0.050640
0.264501 0.138850 0.053319
0.288970 0.141699 0.056021
0.313862 0.144560 0.058745
0.339155 0.147431 0.061490
0.364831 0.150314 0.064256
0.390874 0.153209 0.067041
0.417268 0.156114 0.069846
0.444002 0.159030 0.072670
0.471061 0.161956 0.075512
0.498435 0.164894 0.078373
0.526112 0.167841 0.081250
0.554085 0.170800 0.084145
0.582342 0.173768 0.087057
0.610877 0.176747 0.089985
0.639681 0.179735 0.092929
0.668747 0.182734 0.095888
0.698067 0.185743 0.098863
0.727636 0.188761 0.101853
0.757448 0.191789 0.104857
0.787496 0.194827 0.107876
0.022607 0.128060 0.027614
0.038303 0.130864 0.030042
0.055436 0.133679 0.032504
0.073714 0.136507 0.034997
0.092952 0.139346 0.037520
0.113026 0.142197 0.040072
0.133843 0.145060 0.042651
0.155330 0.147933 0.045256
0.177430 0.150818 0.047887
0.200095 0.153714 0.050542
0.223287 0.156621 0.053220
0.246972 0.159539 0.055921
0.271120 0.162468 0.058644
0.295706 0.165407 0.061389
0.320709 0.168357 0.064153
0.346108 0.171317 0.066938
0.371885 0.174287 0.069743
0.398025 0.177267 0.072566
0.424513 0.180258 0.075408
0.451337 0.183258 0.078267
0.478482 0.186268 0.081144
0.505940 0.189289 0.084039
0.533699 0.192318 0.086950
0.561750 0.195358 0.089877
0.590084 0.198406 0.092820
0.618693 0.201465 0.095779
0.647568 0.204532 0.098753
0.676704 0.207609 0.101743
0.706093 0.210695 0.104747
0.735729 0.213790 0.107765
0.765605 0.216894 0.110797
0.795717 0.220006 0.113844
0.026714 0.151323 0.032413
0.042841 0.154221 0.034905
0.060308 0.157129 0.037427
0.078862 0.160049 0.039977
0.098339 0.162980 0.042555
0.118623 0.165921 0.045160
0.139629 0.168872 0.047790
0.161288 0.171834 0.050444
0.183546 0.174806 0.053121
0.206359 0.177788 0.055822
0.229688 0.180780 0.058544
0.253501 0.183782 0.061287
0.277771 0.186794 0.064051
0.302473 0.189816 0.066836
0.327585 0.192848 0.069639
0.353089 0.195889 0.072462
0.378966 0.198939 0.075303
0.405203 0.201999 0.078162
0.431783 0.205068 0.081038
0.458695 0.208146 0.083932
0.485927 0.211234 0.086842
0.513468 0.214330 0.089769
0.541307 0.217436 0.092712
0.569436 0.220550 0.095670
0.597846 0.223673 0.098644
0.626528 0.226805 0.101632
0.655475 0.229946 0.104636
0.684680 0.233095 0.107654
0.714137 0.236253 0.110686
0.743839 0.239419 0.113732
0.773780 0.242594 0.116791
0.803954 0.245777 0.119864
0.030951 0.175325 0.037333
0.047476 0.178309 0.039883
0.065260 0.181303 0.042460
0.084079 0.184307 0.045064
0.103785 0.187321 0.047692
0.124274 0.190344 0.050346
0.145463 0.193377 0.053022
0.167290 0.196420 0.055722
0.189704 0.199472 0.058443
0.212660 0.202533 0.061186
0.236124 0.205604 0.063949
0.260064 0.208684 0.066733
0.284454 0.211773 0.069536
0.309269 0.214871 0.072357
0.334490 0.217978 0.075198
0.360097 0.221094 0.078056
0.386074 0.224219 0.080932
0.412406 0.227352 0.083825
0.439078 0.230495 0.086735
0.466078 0.233645 0.089661
0.493395 0.236804 0.092603
0.521018 0.239972 0.095561
0.548937 0.243148 0.098534
0.577143 0.246333 0.101522
0.605627 0.249525 0.104525
0.634383 0.252726 0.107542
0.663401 0.255935 0.110574
0.692675 0.259152 0.113619
0.722199 0.262377 0.116678
0.751967 0.265610 0.119751
0.781972 0.268851 0.122837
0.812209 0.272100 0.125935
0.035308 0.200005 0.042365
0.052204 0.203068 0.044967
0.070288 0.206141 0.047595
0.089361 0.209222 0.050248
0.109290 0.212313 0.052924
0.129976 0.215412 0.055622
0.151345 0.218521 0.058343
0.173336 0.221638 0.061085
0.195901 0.224765 0.063847
0.218999 0.227900 0.066630
0.242596 0.231043 0.069432
0.266661 0.234196 0.072253
0.291169 0.237356 0.075093
0.316096 0.240525 0.077951
0.341424 0.243703 0.080826
0.367133 0.246889 0.083718
0.393208 0.250083 0.086627
0.419634 0.253285 0.089553
0.446396 0.256496 0.092495
0.473484 0.259714 0.095452
0.500885 0.262940 0.098424
0.528590 0.266175 0.101412
0.556588 0.269417 0.104414
0.584870 0.272667 0.107431
0.613429 0.275925 0.110462
0.642257 0.279191 0.113507
0.671346 0.282464 0.116566
0.700688 0.285745 0.119638
0.730279 0.289033 0.122723
0.760112 0.292329 0.125821
0.790181 0.295632 0.128932
0.820480 0.298943 0.132056
0.039775 0.225311 0.047498
0.057020 0.228447 0.050150
0.075389 0.231592 0.052825
0.094706 0.234746 0.055522
0.114850 0.237908 0.058242
0.135729 0.241079 0.060983
0.157272 0.244258 0.063745
0.179424 0.247445 0.066527
0.202138 0.250641 0.069329
0.225375 0.253844 0.072149
0.249102 0.257056 0.074988
0.273290 0.260276 0.077845
0.297914 0.263504 0.080720
0.322953 0.266740 0.083612
0.348386 0.269983 0.086520
0.374197 0.273235 0.089445
0.400368 0.276494 0.092386
0.426887 0.279761 0.095343
0.453739 0.283035 0.098315
0.480913 0.286318 0.101302
0.508398 0.289607 0.104304
0.536183 0.292904 0.107320
0.564260 0.296209 0.110350
0.592618 0.299521 0.113395
0.621251 0.302840 0.116453
0.650151 0.306167 0.119524
0.679309 0.309501 0.122609
0.708720 0.312842 0.125707
0.738377 0.316190 0.128817
0.768275 0.319546 0.131940
0.798407 0.322908 0.135076
0.828768 0.326277 0.138224
0.044345 0.251199 0.052726
0.061918 0.254404 0.055423
0.080560 0.257617 0.058142
0.100113 0.260838 0.060882
0.120464 0.264068 0.063643
0.141531 0.267305 0.066425
0.163245 0.270550 0.069225
0.185554 0.273803 0.072045
0.208414 0.277063 0.074883
0.231787 0.280331 0.077740
0.255642 0.283607 0.080614
0.279952 0.286891 0.083505
0.304691 0.290182 0.086413
0.329839 0.293480 0.089337
0.355376 0.296786 0.092278
0.381287 0.300099 0.095234
0.407554 0.303420 0.098205
0.434165 0.306748 0.101192
0.461106 0.310083 0.104193
0.488365 0.313425 0.107209
0.515933 0.316775 0.110239
0.543799 0.320131 0.113282
0.571953 0.323495 0.116340
0.600387 0.326866 0.119411
0.629093 0.330243 0.122495
0.658063 0.333628 0.125593
0.687291 0.337019 0.128703
0.716770 0.340417 0.131825
0.746493 0.343823 0.134960
0.776455 0.347234 0.138108
0.806650 0.350653 0.141267
0.837073 0.354078 0.144438
0.049012 0.277633 0.058041
0.066895 0.280902 0.060781
0.085798 0.284179 0.063541
0.105578 0.287464 0.066322
0.126132 0.290756 0.069122
0.147380 0.294056 0.071941
0.169262 0.297363 0.074779
0.191725 0.300678 0.077634
0.214728 0.304000 0.080508
0.238235 0.307329 0.083398
0.262217 0.310665 0.086306
0.286645 0.314009 0.089229
0.311498 0.317360 0.092169
0.336753 0.320718 0.095125
0.362394 0.324082 0.098095
0.388403 0.327454 0.101081
0.414765 0.330833 0.104082
0.441467 0.334219 0.107097
0.468496 0.337611 0.110127
0.495841 0.341011 0.113170
0.523490 0.344417 0.116227
0.551435 0.347830 0.119298
0.579666 0.351250 0.122382
0.608175 0.354676 0.125479
0.636954 0.358109 0.128588
0.665995 0.361549 0.131710
0.695292 0.364995 0.134845
0.724838 0.368447 0.137992
0.754627 0.371907 0.141150
0.784653 0.375372 0.144321
0.814910 0.378844 0.147503
0.845394 0.382323 0.150697
0.053769 0.304580 0.063439
0.071947 0.307910 0.066219
0.091101 0.311248 0.069019
0.111101 0.314593 0.071837
0.131851 0.317945 0.074674
0.153277 0.321304 0.077529
0.175321 0.324670 0.080402
0.197935 0.328043 0.083292
0.221079 0.331423 0.086198
0.244718 0.334810 0.089121
0.268824 0.338204 0.092061
0.293370 0.341604 0.095016
0.318334 0.345012 0.097986
0.343697 0.348426 0.100971
0.369439 0.351847 0.103972
0.395546 0.355274 0.106986
0.422002 0.358708 0.110015
0.448794 0.362149 0.113058
0.475910 0.365596 0.116115
0.503338 0.369050 0.119185
0.531069 0.372510 0.122268
0.559093 0.375977 0.125364
0.587401 0.379450 0.128473
0.615984 0.382930 0.131595
0.644835 0.386416 0.134729
0.673946 0.389908 0.137876
0.703312 0.393406 0.141034
0.732924 0.396911 0.144204
0.762778 0.400422 0.147386
0.792868 0.403939 0.150579
0.823187 0.407462 0.153784
0.853732 0.410991 0.157000
0.058612 0.332013 0.068915
0.077071 0.335401 0.071733
0.096467 0.338796 0.074569
0.116679 0.342198 0.077424
0.137620 0.345607 0.080296
0.159220 0.349022 0.083185
0.181423 0.352444 0.086091
0.204185 0.355873 0.089014
0.227467 0.359308 0.091952
0.251236 0.362750 0.094907
0.275464 0.366198 0.097876
0.300126 0.369653 0.100861
0.325200 0.373115 0.103861
0.350668 0.376582 0.106875
0.376511 0.380057 0.109903
0.402714 0.383537 0.112946
0.429263 0.387024 0.116002
0.456144 0.390517 0.119072
0.483346 0.394017 0.122154
0.510858 0.397523 0.125250
0.538670 0.401034 0.128359
0.566772 0.404553 0.131480
0.595155 0.408077 0.134614
0.623812 0.411607 0.137760
0.652735 0.415143 0.140918
0.681916 0.418686 0.144087
0.711349 0.422234 0.147269
0.741028 0.425789 0.150462
0.770947 0.429349 0.153666
0.801099 0.432915 0.156881
0.831481 0.436487 0.160108
0.862086 0.440065 0.163345
0.063536 0.359908 0.074465
0.082264 0.363351 0.077318
0.101893 0.366800 0.080190
0.122311 0.370256 0.083078
0.143437 0.373719 0.085984
0.165207 0.377188 0.088906
0.187567 0.380663 0.091844
0.210473 0.384145 0.094798
0.233891 0.387633 0.097767
0.257787 0.391127 0.100751
0.282136 0.394628 0.103750
0.306912 0.398135 0.106764
0.332096 0.401648 0.109792
0.357667 0.405167 0.112834
0.383610 0.408692 0.115889
0.409908 0.412223 0.118958
0.436549 0.415761 0.122041
0.463519 0.419304 0.125136
0.490806 0.422854 0.128244
0.518401 0.426409 0.131365
0.546292 0.429970 0.134498
0.574472 0.433538 0.137644
0.602930 0.437111 0.140801
0.631660 0.440690 0.143970
0.660654 0.444275 0.147151
0.689904 0.447865 0.150344
0.719405 0.451462 0.153548
0.749150 0.455064 0.156763
0.779133 0.458671 0.159989
0.809348 0.462285 0.163226
0.839791 0.465904 0.166473
0.870456 0.469529 0.169731
0.068538 0.388242 0.080084
0.087524 0.391737 0.082972
0.107377 0.395239 0.085877
0.127996 0.398747 0.088798
0.149303 0.402261 0.091735
0.171238 0.405781 0.094689
0.193750 0.409307 0.097657
0.216800 0.412840 0.100641
0.240350 0.416378 0.103640
0.264372 0.419923 0.106653
0.288840 0.423473 0.109680
0.313729 0.427030 0.112722
0.339020 0.430592 0.115777
0.364694 0.434160 0.118845
0.390735 0.437734 0.121927
0.417128 0.441314 0.125022
0.443859 0.444900 0.128130
0.470917 0.448492 0.131250
0.498289 0.452089 0.134383
0.525965 0.455692 0.137528
0.553936 0.459301 0.140685
0.582192 0.462916 0.143854
0.610725 0.466536 0.147034
0.639528 0.470162 0.150226
0.668592 0.473793 0.153430
0.697911 0.477430 0.156644
0.727479 0.481072 0.159870
0.757289 0.484721 0.163106
0.787336 0.488374 0.166354
0.817614 0.492033 0.169611
0.848118 0.495697 0.172880
0.878843 0.499367 0.176158
0.073614 0.416996 0.085770
0.092848 0.420541 0.088690
0.112918 0.424093 0.091627
0.133731 0.427650 0.094580
0.155214 0.431214 0.097548
0.177311 0.434783 0.100531
0.199974 0.438358 0.103529
0.223163 0.441939 0.106542
0.246845 0.445526 0.109569
0.270990 0.449119 0.112609
0.295575 0.452717 0.115664
0.320575 0.456321 0.118732
0.345972 0.459931 0.121813
0.371748 0.463547 0.124908
0.397886 0.467168 0.128015
0.424372 0.470795 0.131135
0.451194 0.474427 0.134267
0.478338 0.478065 0.137412
0.505794 0.481708 0.140568
0.533551 0.485357 0.143737
0.561600 0.489012 0.146917
0.589933 0.492672 0.150109
0.618540 0.496337 0.153312
0.647415 0.500008 0.156526
0.676549 0.503684 0.159751
0.705937 0.507366 0.162987
0.735571 0.511053 0.166234
0.765446 0.514745 0.169491
0.795556 0.518443 0.172759
0.825896 0.522145 0.176037
0.856461 0.525853 0.179326
0.887245 0.529567 0.182624
0.078761 0.446152 0.091519
0.098234 0.449746 0.094471
0.118514 0.453345 0.097438
0.139516 0.456950 0.100421
0.161172 0.460561 0.103419
0.183427 0.464178 0.106431
0.206236 0.467800 0.109457
0.229563 0.471428 0.112497
0.253373 0.475061 0.115551
0.277641 0.478700 0.118619
0.302341 0.482344 0.121700
0.327451 0.485994 0.124794
0.352952 0.489650 0.127901
0.378828 0.493311 0.131020
0.405063 0.496977 0.134152
0.431641 0.500649 0.137296
0.458552 0.504326 0.140452
0.485782 0.508008 0.143620
0.513321 0.511696 0.146800
0.541159 0.515389 0.149991
0.569286 0.519088 0.153194
0.597694 0.522792 0.156407
0.626375 0.526501 0.159632
0.655321 0.530215 0.162868
0.684525 0.533934 0.166114
0.713980 0.537659 0.169371
0.743681 0.541389 0.172639
0.773620 0.545124 0.175917
0.803794 0.548864 0.179205
0.834195 0.552609 0.182503
0.864820 0.556360 0.185811
0.895663 0.560115 0.189129
0.083976 0.475695 0.097329
0.103679 0.479335 0.100311
0.124163 0.482980 0.103308
0.145349 0.486631 0.106320
0.167173 0.490288 0.109345
0.189583 0.493950 0.112385
0.212537 0.497617 0.115439
0.235998 0.501290 0.118506
0.259936 0.504968 0.121586
0.284323 0.508651 0.124680
0.309137 0.512340 0.127786
0.334355 0.516034 0.130905
0.359961 0.519733 0.134036
0.385936 0.523438 0.137180
0.412265 0.527148 0.140336
0.438935 0.530863 0.143503
0.465934 0.534584 0.146683
0.493249 0.538309 0.149873
0.520871 0.542040 0.153076
0.548788 0.545776 0.156289
0.576993 0.549517 0.159513
0.605476 0.553263 0.162749
0.634229 0.557014 0.165995
0.663246 0.560770 0.169251
0.692519 0.564532 0.172518
0.722042 0.568298 0.175796
0.751808 0.572069 0.179084
0.781812 0.575845 0.182381
0.812048 0.579627 0.185689
0.842511 0.583413 0.189007
0.873195 0.587204 0.192334
0.904097 0.591000 0.195671
0.089257 0.505610 0.103198
0.109182 0.509294 0.106208
0.129865 0.512984 0.109234
0.151230 0.516679 0.112273
0.173218 0.520379 0.115326
0.195780 0.524085 0.118393
0.218875 0.527796 0.121473
0.242469 0.531512 0.124566
0.266532 0.535233 0.127672
0.291037 0.538959 0.130790
0.315963 0.542691 0.133921
0.341289 0.546428 0.137064
0.366996 0.550170 0.140219
0.393069 0.553917 0.143387
0.419493 0.557669 0.146565
0.446254 0.561426 0.149756
0.473340 0.565188 0.152957
0.500739 0.568955 0.156170
0.528442 0.572727 0.159394
0.556439 0.576504 0.162629
0.584720 0.580287 0.165875
0.613277 0.584074 0.169131
0.642103 0.587866 0.172398
0.671191 0.591662 0.175675
0.700532 0.595464 0.178962
0.730122 0.599271 0.182260
0.759953 0.603082 0.185567
0.790021 0.606898 0.188885
0.820319 0.610719 0.192212
0.850843 0.614545 0.195548
0.881587 0.618376 0.198894
0.912547 0.622211 0.202250
0.094602 0.535882 0.109122
0.114741 0.539610 0.112161
0.135616 0.543342 0.115214
0.157157 0.547080 0.118280
0.179305 0.550823 0.121359
0.202016 0.554571 0.124452
0.225251 0.558324 0.127557
0.248975 0.562082 0.130675
0.273161 0.565845 0.133806
0.297783 0.569613 0.136948
0.322819 0.573386 0.140103
0.348250 0.577164 0.143270
0.374059 0.580947 0.146448
0.400229 0.584735 0.149638
0.426745 0.588527 0.152840
0.453596 0.592325 0.156052
0.480768 0.596128 0.159276
0.508252 0.599935 0.162510
0.536035 0.603747 0.165755
0.564110 0.607564 0.169011
0.592467 0.611386 0.172278
0.621099 0.615213 0.175554
0.649997 0.619044 0.178841
0.679154 0.622881 0.182138
0.708564 0.626722 0.185445
0.738220 0.630567 0.188762
0.768116 0.634418 0.192089
0.798247 0.638273 0.195425
0.828607 0.642132 0.198771
0.859191 0.645997 0.202126
0.889995 0.649865 0.205491
0.921013 0.653739 0.208865
0.100007 0.566501 0.115101
0.120355 0.570270 0.118167
0.141417 0.574044 0.121246
0.163128 0.577823 0.124338
0.185434 0.581607 0.127443
0.208291 0.585396 0.130560
0.231662 0.589189 0.133690
0.255515 0.592988 0.136833
0.279822 0.596791 0.139987
0.304559 0.600600 0.143153
0.329704 0.604413 0.146331
0.355240 0.608231 0.149521
0.381148 0.612053 0.152722
0.407414 0.615881 0.155934
0.434023 0.619713 0.159157
0.460962 0.623550 0.162391
0.488220 0.627392 0.165636
0.515786 0.631238 0.168891
0.543650 0.635089 0.172157
0.571803 0.638945 0.175434
0.600235 0.642806 0.178720
0.628940 0.646671 0.182017
0.657909 0.650541 0.185324
0.687136 0.654415 0.188640
0.716613 0.658294 0.191966
0.746335 0.662178 0.195302
0.776296 0.666066 0.198648
0.806490 0.669958 0.202003
0.836911 0.673855 0.205367
0.867556 0.677757 0.208740
0.898418 0.681663 0.212123
0.929494 0.685574 0.215514
0.105471 0.597455 0.121132
0.126021 0.601264 0.124224
0.147266 0.605078 0.127328
0.169144 0.608897 0.130445
0.191604 0.612720 0.133575
0.214605 0.616549 0.136717
0.238109 0.620382 0.139871
0.262088 0.624220 0.143036
0.286514 0.628062 0.146214
0.311365 0.631910 0.149403
0.336618 0.635762 0.152604
0.362257 0.639618 0.155815
0.388264 0.643479 0.159038
0.414625 0.647345 0.162272
0.441325 0.651216 0.165516
0.468352 0.655091 0.168771
0.495695 0.658971 0.172037
0.523343 0.662855 0.175313
0.551286 0.666744 0.178599
0.579516 0.670638 0.181895
0.608023 0.674536 0.185202
0.636801 0.678438 0.188518
0.665841 0.682345 0.191844
0.695136 0.686256 0.195179
0.724681 0.690172 0.198525
0.754468 0.694093 0.201879
0.784493 0.698017 0.205243
0.814749 0.701947 0.208616
0.845232 0.705880 0.211998
0.875936 0.709818 0.215389
0.906857 0.713761 0.218789
0.937991 0.717707 0.222198
0.110993 0.628733 0.127214
0.131739 0.632581 0.130330
0.153162 0.636434 0.133460
0.175203 0.640291 0.136601
0.197814 0.644153 0.139754
0.220955 0.648020 0.142920
0.244592 0.651891 0.146097
0.268695 0.655767 0.149286
0.293239 0.659648 0.152486
0.318201 0.663533 0.155697
0.343561 0.667423 0.158919
0.369302 0.671317 0.162153
0.395406 0.675216 0.165397
0.421860 0.679119 0.168651
0.448651 0.683027 0.171917
0.475765 0.686939 0.175192
0.503192 0.690856 0.178478
0.530921 0.694777 0.181774
0.558944 0.698702 0.185080
0.587250 0.702632 0.188396
0.615832 0.706567 0.191721
0.644681 0.710505 0.195057
0.673791 0.714449 0.198401
0.703155 0.718396 0.201756
0.732767 0.722348 0.205119
0.762619 0.726304 0.208492
0.792708 0.730265 0.211874
0.823026 0.734229 0.215264
0.853570 0.738198 0.218664
0.884333 0.742172 0.222073
0.915313 0.746149 0.225490
0.946503 0.750131 0.228916
0.116570 0.660325 0.133344
0.137507 0.664211 0.136485
0.159103 0.668102 0.139638
0.181304 0.671997 0.142803
0.204063 0.675896 0.145980
0.227342 0.679800 0.149168
0.251109 0.683709 0.152368
0.275334 0.687622 0.155579
0.299994 0.691539 0.158801
0.325066 0.695461 0.162033
0.350532 0.699387 0.165277
0.376373 0.703318 0.168532
0.402574 0.707253 0.171796
0.429121 0.711193 0.175072
0.456001 0.715137 0.178357
0.483201 0.719085 0.181653
0.510712 0.723038 0.184958
0.538522 0.726994 0.188274
0.566622 0.730956 0.191599
0.595004 0.734921 0.194934
0.623659 0.738891 0.198278
0.652581 0.742865 0.201632
0.681761 0.746843 0.204995
0.711193 0.750826 0.208367
0.740870 0.754813 0.211749
0.770788 0.758804 0.215139
0.800939 0.762799 0.218539
0.831319 0.766798 0.221947
0.861923 0.770802 0.225364
0.892746 0.774810 0.228790
0.923783 0.778822 0.232224
0.955031 0.782838 0.235667
0.122201 0.692223 0.139522
0.143324 0.696145 0.142686
0.165090 0.700073 0.145863
0.187447 0.704004 0.149051
0.210351 0.707940 0.152250
0.233765 0.711880 0.155460
0.257660 0.715825 0.158682
0.282006 0.719774 0.161914
0.306780 0.723727 0.165158
0.331961 0.727685 0.168412
0.357530 0.731647 0.171676
0.383471 0.735613 0.174951
0.409768 0.739584 0.178236
0.436407 0.743559 0.181531
0.463375 0.747538 0.184836
0.490661 0.751521 0.188152
0.518254 0.755509 0.191476
0.546144 0.759500 0.194811
0.574321 0.763496 0.198155
0.602779 0.767496 0.201508
0.631507 0.771501 0.204871
