app/src/main/assets/luts/morning_mist.cube
TITLE "Morning Mist"
LUT_3D_SIZE 9
DOMAIN_MIN 0.0 0.0 0.0
DOMAIN_MAX 1.0 1.0 1.0
0.075000 0.090000 0.120000
0.154631 0.098658 0.128658
0.255937 0.123984 0.153984
0.359925 0.149981 0.179981
0.465693 0.176423 0.206423
0.572806 0.203202 0.233202
0.681003 0.230251 0.260251
0.790109 0.257527 0.287527
0.900000 0.285000 0.315000
0.091875 0.187500 0.136875
0.162848 0.187500 0.136875
0.255937 0.204609 0.153984
0.359925 0.230606 0.179981
0.465693 0.257048 0.206423
0.572806 0.283827 0.233202
0.681003 0.310876 0.260251
0.790109 0.338152 0.287527
0.900000 0.365625 0.315000
0.118750 0.295000 0.163750
0.189723 0.295000 0.163750
0.265703 0.295000 0.163750
0.359925 0.311231 0.179981
0.465693 0.337673 0.206423
0.572806 0.364452 0.233202
0.681003 0.391501 0.260251
0.790109 0.418777 0.287527
0.900000 0.446250 0.315000
0.145625 0.402500 0.190625
0.216598 0.402500 0.190625
0.292578 0.402500 0.190625
0.370568 0.402500 0.190625
0.465693 0.418298 0.206423
0.572806 0.445077 0.233202
0.681003 0.472126 0.260251
0.790109 0.499402 0.287527
0.900000 0.526875 0.315000
0.172500 0.510000 0.217500
0.243473 0.510000 0.217500
0.319453 0.510000 0.217500
0.397443 0.510000 0.217500
0.476770 0.510000 0.217500
0.572806 0.525702 0.233202
0.681003 0.552751 0.260251
0.790109 0.580027 0.287527
0.900000 0.607500 0.315000
0.199375 0.617500 0.244375
0.270348 0.617500 0.244375
0.346328 0.617500 0.244375
0.424318 0.617500 0.244375
0.503645 0.617500 0.244375
0.583980 0.617500 0.244375
0.681003 0.633376 0.260251
0.790109 0.660652 0.287527
0.900000 0.688125 0.315000
0.226250 0.725000 0.271250
0.297223 0.725000 0.271250
0.373203 0.725000 0.271250
0.451193 0.725000 0.271250
0.530520 0.725000 0.271250
0.610855 0.725000 0.271250
0.692002 0.725000 0.271250
0.790109 0.741277 0.287527
0.900000 0.768750 0.315000
0.253125 0.832500 0.298125
0.324098 0.832500 0.298125
0.400078 0.832500 0.298125
0.478068 0.832500 0.298125
0.557395 0.832500 0.298125
0.637730 0.832500 0.298125
0.718877 0.832500 0.298125
0.800707 0.832500 0.298125
0.900000 0.849375 0.315000
0.280000 0.940000 0.325000
0.350973 0.940000 0.325000
0.426953 0.940000 0.325000
0.504943 0.940000 0.325000
0.584270 0.940000 0.325000
0.664605 0.940000 0.325000
0.745752 0.940000 0.325000
0.827582 0.940000 0.325000
0.910000 0.940000 0.325000
0.105513 0.120513 0.242053
0.176487 0.120513 0.242053
0.255937 0.123984 0.245524
0.359925 0.149981 0.271521
0.465693 0.176423 0.297963
0.572806 0.203202 0.324741
0.681003 0.230251 0.351790
0.790109 0.257527 0.379067
0.900000 0.285000 0.406539
0.105513 0.201138 0.242053
0.176487 0.201138 0.242053
0.255937 0.204609 0.245524
0.359925 0.230606 0.271521
0.465693 0.257048 0.297963
0.572806 0.283827 0.324741
0.681003 0.310876 0.351790
0.790109 0.338152 0.379067
0.900000 0.365625 0.406539
0.118750 0.295000 0.255289
0.189723 0.295000 0.255289
0.265703 0.295000 0.255289
0.359925 0.311231 0.271521
0.465693 0.337673 0.297963
0.572806 0.364452 0.324741
0.681003 0.391501 0.351790
0.790109 0.418777 0.379067
0.900000 0.446250 0.406539
0.145625 0.402500 0.282164
0.216598 0.402500 0.282164
0.292578 0.402500 0.282164
0.370568 0.402500 0.282164
0.465693 0.418298 0.297963
0.572806 0.445077 0.324741
0.681003 0.472126 0.351790
0.790109 0.499402 0.379067
0.900000 0.526875 0.406539
0.172500 0.510000 0.309039
0.243473 0.510000 0.309039
0.319453 0.510000 0.309039
0.397443 0.510000 0.309039
0.476770 0.510000 0.309039
0.572806 0.525702 0.324741
0.681003 0.552751 0.351790
0.790109 0.580027 0.379067
0.900000 0.607500 0.406539
0.199375 0.617500 0.335914
0.270348 0.617500 0.335914
0.346328 0.617500 0.335914
0.424318 0.617500 0.335914
0.503645 0.617500 0.335914
0.583980 0.617500 0.335914
0.681003 0.633376 0.351790
0.790109 0.660652 0.379067
0.900000 0.688125 0.406539
0.226250 0.725000 0.362789
0.297223 0.725000 0.362789
0.373203 0.725000 0.362789
0.451193 0.725000 0.362789
0.530520 0.725000 0.362789
0.610855 0.725000 0.362789
0.692002 0.725000 0.362789
0.790109 0.741277 0.379067
0.900000 0.768750 0.406539
0.253125 0.832500 0.389664
0.324098 0.832500 0.389664
0.400078 0.832500 0.389664
0.478068 0.832500 0.389664
0.557395 0.832500 0.389664
0.637730 0.832500 0.389664
0.718877 0.832500 0.389664
0.800707 0.832500 0.389664
0.900000 0.849375 0.406539
0.280000 0.940000 0.416539
0.350973 0.940000 0.416539
0.426953 0.940000 0.416539
0.504943 0.940000 0.416539
0.584270 0.940000 0.416539
0.664605 0.940000 0.416539
0.745752 0.940000 0.416539
0.827582 0.940000 0.416539
0.910000 0.940000 0.416539
0.133948 0.148948 0.355790
0.204921 0.148948 0.355790
0.280900 0.148948 0.355790
0.359925 0.149981 0.356824
0.465693 0.176423 0.383266
0.572806 0.203202 0.410044
0.681003 0.230251 0.437093
0.790109 0.257527 0.464370
0.900000 0.285000 0.491843
0.133948 0.229573 0.355790
0.204921 0.229573 0.355790
0.280900 0.229573 0.355790
0.359925 0.230606 0.356824
0.465693 0.257048 0.383266
0.572806 0.283827 0.410044
0.681003 0.310876 0.437093
0.790109 0.338152 0.464370
0.900000 0.365625 0.491843
0.133948 0.310198 0.355790
0.204921 0.310198 0.355790
0.280900 0.310198 0.355790
0.359925 0.311231 0.356824
0.465693 0.337673 0.383266
0.572806 0.364452 0.410044
0.681003 0.391501 0.437093
0.790109 0.418777 0.464370
0.900000 0.446250 0.491843
0.145625 0.402500 0.367468
0.216598 0.402500 0.367468
0.292578 0.402500 0.367468
0.370568 0.402500 0.367468
0.465693 0.418298 0.383266
0.572806 0.445077 0.410044
0.681003 0.472126 0.437093
0.790109 0.499402 0.464370
0.900000 0.526875 0.491843
0.172500 0.510000 0.394343
0.243473 0.510000 0.394343
0.319453 0.510000 0.394343
0.397443 0.510000 0.394343
0.476770 0.510000 0.394343
0.572806 0.525702 0.410044
0.681003 0.552751 0.437093
0.790109 0.580027 0.464370
0.900000 0.607500 0.491843
0.199375 0.617500 0.421218
0.270348 0.617500 0.421218
0.346328 0.617500 0.421218
0.424318 0.617500 0.421218
0.503645 0.617500 0.421218
0.583980 0.617500 0.421218
0.681003 0.633376 0.437093
0.790109 0.660652 0.464370
0.900000 0.688125 0.491843
0.226250 0.725000 0.448093
0.297223 0.725000 0.448093
0.373203 0.725000 0.448093
0.451193 0.725000 0.448093
0.530520 0.725000 0.448093
0.610855 0.725000 0.448093
0.692002 0.725000 0.448093
0.790109 0.741277 0.464370
0.900000 0.768750 0.491843
0.253125 0.832500 0.474968
0.324098 0.832500 0.474968
0.400078 0.832500 0.474968
0.478068 0.832500 0.474968
0.557395 0.832500 0.474968
0.637730 0.832500 0.474968
0.718877 0.832500 0.474968
0.800707 0.832500 0.474968
0.900000 0.849375 0.491843
0.280000 0.940000 0.501843
0.350973 0.940000 0.501843
0.426953 0.940000 0.501843
0.504943 0.940000 0.501843
0.584270 0.940000 0.501843
0.664605 0.940000 0.501843
0.745752 0.940000 0.501843
0.827582 0.940000 0.501843
0.910000 0.940000 0.501843
0.161647 0.176647 0.466587
0.232620 0.176647 0.466587
0.308599 0.176647 0.466587
0.386590 0.176647 0.466587
0.465917 0.176647 0.466587
0.572806 0.203202 0.493142
0.681003 0.230251 0.520191
0.790109 0.257527 0.547468
0.900000 0.285000 0.574940
0.161647 0.257272 0.466587
0.232620 0.257272 0.466587
0.308599 0.257272 0.466587
0.386590 0.257272 0.466587
0.465917 0.257272 0.466587
0.572806 0.283827 0.493142
0.681003 0.310876 0.520191
0.790109 0.338152 0.547468
0.900000 0.365625 0.574940
0.161647 0.337897 0.466587
0.232620 0.337897 0.466587
0.308599 0.337897 0.466587
0.386590 0.337897 0.466587
0.465917 0.337897 0.466587
0.572806 0.364452 0.493142
0.681003 0.391501 0.520191
0.790109 0.418777 0.547468
0.900000 0.446250 0.574940
0.161647 0.418522 0.466587
0.232620 0.418522 0.466587
0.308599 0.418522 0.466587
0.386590 0.418522 0.466587
0.465917 0.418522 0.466587
0.572806 0.445077 0.493142
0.681003 0.472126 0.520191
0.790109 0.499402 0.547468
0.900000 0.526875 0.574940
0.172500 0.510000 0.477440
0.243473 0.510000 0.477440
0.319453 0.510000 0.477440
0.397443 0.510000 0.477440
0.476770 0.510000 0.477440
0.572806 0.525702 0.493142
0.681003 0.552751 0.520191
0.790109 0.580027 0.547468
0.900000 0.607500 0.574940
0.199375 0.617500 0.504315
0.270348 0.617500 0.504315
0.346328 0.617500 0.504315
0.424318 0.617500 0.504315
0.503645 0.617500 0.504315
0.583980 0.617500 0.504315
0.681003 0.633376 0.520191
0.790109 0.660652 0.547468
0.900000 0.688125 0.574940
0.226250 0.725000 0.531190
0.297223 0.725000 0.531190
0.373203 0.725000 0.531190
0.451193 0.725000 0.531190
0.530520 0.725000 0.531190
0.610855 0.725000 0.531190
0.692002 0.725000 0.531190
0.790109 0.741277 0.547468
0.900000 0.768750 0.574940
0.253125 0.832500 0.558065
0.324098 0.832500 0.558065
0.400078 0.832500 0.558065
0.478068 0.832500 0.558065
0.557395 0.832500 0.558065
0.637730 0.832500 0.558065
0.718877 0.832500 0.558065
0.800707 0.832500 0.558065
0.900000 0.849375 0.574940
0.280000 0.940000 0.584940
0.350973 0.940000 0.584940
0.426953 0.940000 0.584940
0.504943 0.940000 0.584940
0.584270 0.940000 0.584940
0.664605 0.940000 0.584940
0.745752 0.940000 0.584940
0.827582 0.940000 0.584940
0.910000 0.940000 0.584940
0.188879 0.203879 0.575517
0.259853 0.203879 0.575517
0.335832 0.203879 0.575517
0.413823 0.203879 0.575517
0.493149 0.203879 0.575517
0.573484 0.203879 0.575517
0.681003 0.230251 0.601888
0.790109 0.257527 0.629165
0.900000 0.285000 0.656637
0.188879 0.284504 0.575517
0.259853 0.284504 0.575517
0.335832 0.284504 0.575517
0.413823 0.284504 0.575517
0.493149 0.284504 0.575517
0.573484 0.284504 0.575517
0.681003 0.310876 0.601888
0.790109 0.338152 0.629165
0.900000 0.365625 0.656637
0.188879 0.365129 0.575517
0.259853 0.365129 0.575517
0.335832 0.365129 0.575517
0.413823 0.365129 0.575517
0.493149 0.365129 0.575517
0.573484 0.365129 0.575517
0.681003 0.391501 0.601888
0.790109 0.418777 0.629165
0.900000 0.446250 0.656637
0.188879 0.445754 0.575517
0.259853 0.445754 0.575517
0.335832 0.445754 0.575517
0.413823 0.445754 0.575517
0.493149 0.445754 0.575517
0.573484 0.445754 0.575517
0.681003 0.472126 0.601888
0.790109 0.499402 0.629165
0.900000 0.526875 0.656637
0.188879 0.526379 0.575517
0.259853 0.526379 0.575517
0.335832 0.526379 0.575517
0.413823 0.526379 0.575517
0.493149 0.526379 0.575517
0.573484 0.526379 0.575517
0.681003 0.552751 0.601888
0.790109 0.580027 0.629165
0.900000 0.607500 0.656637
0.199375 0.617500 0.586012
0.270348 0.617500 0.586012
0.346328 0.617500 0.586012
0.424318 0.617500 0.586012
0.503645 0.617500 0.586012
0.583980 0.617500 0.586012
0.681003 0.633376 0.601888
0.790109 0.660652 0.629165
0.900000 0.688125 0.656637
0.226250 0.725000 0.612887
0.297223 0.725000 0.612887
0.373203 0.725000 0.612887
0.451193 0.725000 0.612887
0.530520 0.725000 0.612887
0.610855 0.725000 0.612887
0.692002 0.725000 0.612887
0.790109 0.741277 0.629165
0.900000 0.768750 0.656637
0.253125 0.832500 0.639762
0.324098 0.832500 0.639762
0.400078 0.832500 0.639762
0.478068 0.832500 0.639762
0.557395 0.832500 0.639762
0.637730 0.832500 0.639762
0.718877 0.832500 0.639762
0.800707 0.832500 0.639762
0.900000 0.849375 0.656637
0.280000 0.940000 0.666637
0.350973 0.940000 0.666637
0.426953 0.940000 0.666637
0.504943 0.940000 0.666637
0.584270 0.940000 0.666637
0.664605 0.940000 0.666637
0.745752 0.940000 0.666637
0.827582 0.940000 0.666637
0.910000 0.940000 0.666637
0.215770 0.230770 0.683078
0.286743 0.230770 0.683078
0.362722 0.230770 0.683078
0.440713 0.230770 0.683078
0.520039 0.230770 0.683078
0.600374 0.230770 0.683078
0.681522 0.230770 0.683078
0.790109 0.257527 0.709836
0.900000 0.285000 0.737309
0.215770 0.311395 0.683078
0.286743 0.311395 0.683078
0.362722 0.311395 0.683078
0.440713 0.311395 0.683078
0.520039 0.311395 0.683078
0.600374 0.311395 0.683078
0.681522 0.311395 0.683078
0.790109 0.338152 0.709836
0.900000 0.365625 0.737309
0.215770 0.392020 0.683078
0.286743 0.392020 0.683078
0.362722 0.392020 0.683078
0.440713 0.392020 0.683078
0.520039 0.392020 0.683078
0.600374 0.392020 0.683078
0.681522 0.392020 0.683078
0.790109 0.418777 0.709836
0.900000 0.446250 0.737309
0.215770 0.472645 0.683078
0.286743 0.472645 0.683078
0.362722 0.472645 0.683078
0.440713 0.472645 0.683078
0.520039 0.472645 0.683078
0.600374 0.472645 0.683078
0.681522 0.472645 0.683078
0.790109 0.499402 0.709836
0.900000 0.526875 0.737309
0.215770 0.553270 0.683078
0.286743 0.553270 0.683078
0.362722 0.553270 0.683078
0.440713 0.553270 0.683078
0.520039 0.553270 0.683078
0.600374 0.553270 0.683078
0.681522 0.553270 0.683078
0.790109 0.580027 0.709836
0.900000 0.607500 0.737309
0.215770 0.633895 0.683078
0.286743 0.633895 0.683078
0.362722 0.633895 0.683078
0.440713 0.633895 0.683078
0.520039 0.633895 0.683078
0.600374 0.633895 0.683078
0.681522 0.633895 0.683078
0.790109 0.660652 0.709836
0.900000 0.688125 0.737309
0.226250 0.725000 0.693559
0.297223 0.725000 0.693559
0.373203 0.725000 0.693559
0.451193 0.725000 0.693559
0.530520 0.725000 0.693559
0.610855 0.725000 0.693559
0.692002 0.725000 0.693559
0.790109 0.741277 0.709836
0.900000 0.768750 0.737309
0.253125 0.832500 0.720434
0.324098 0.832500 0.720434
0.400078 0.832500 0.720434
0.478068 0.832500 0.720434
0.557395 0.832500 0.720434
0.637730 0.832500 0.720434
0.718877 0.832500 0.720434
0.800707 0.832500 0.720434
0.900000 0.849375 0.737309
0.280000 0.940000 0.747309
0.350973 0.940000 0.747309
0.426953 0.940000 0.747309
0.504943 0.940000 0.747309
0.584270 0.940000 0.747309
0.664605 0.940000 0.747309
0.745752 0.940000 0.747309
0.827582 0.940000 0.747309
0.910000 0.940000 0.747309
0.242391 0.257391 0.789562
0.313364 0.257391 0.789562
0.389343 0.257391 0.789562
0.467334 0.257391 0.789562
0.546660 0.257391 0.789562
0.626995 0.257391 0.789562
0.708143 0.257391 0.789562
0.790109 0.257527 0.789699
0.900000 0.285000 0.817172
0.242391 0.338016 0.789562
0.313364 0.338016 0.789562
0.389343 0.338016 0.789562
0.467334 0.338016 0.789562
0.546660 0.338016 0.789562
0.626995 0.338016 0.789562
0.708143 0.338016 0.789562
0.790109 0.338152 0.789699
0.900000 0.365625 0.817172
0.242391 0.418641 0.789562
0.313364 0.418641 0.789562
0.389343 0.418641 0.789562
0.467334 0.418641 0.789562
0.546660 0.418641 0.789562
0.626995 0.418641 0.789562
0.708143 0.418641 0.789562
0.790109 0.418777 0.789699
0.900000 0.446250 0.817172
0.242391 0.499266 0.789562
0.313364 0.499266 0.789562
0.389343 0.499266 0.789562
0.467334 0.499266 0.789562
0.546660 0.499266 0.789562
0.626995 0.499266 0.789562
0.708143 0.499266 0.789562
0.790109 0.499402 0.789699
0.900000 0.526875 0.817172
0.242391 0.579891 0.789562
0.313364 0.579891 0.789562
0.389343 0.579891 0.789562
0.467334 0.579891 0.789562
0.546660 0.579891 0.789562
0.626995 0.579891 0.789562
0.708143 0.579891 0.789562
0.790109 0.580027 0.789699
0.900000 0.607500 0.817172
0.242391 0.660516 0.789562
0.313364 0.660516 0.789562
0.389343 0.660516 0.789562
0.467334 0.660516 0.789562
0.546660 0.660516 0.789562
0.626995 0.660516 0.789562
0.708143 0.660516 0.789562
0.790109 0.660652 0.789699
0.900000 0.688125 0.817172
0.242391 0.741141 0.789562
0.313364 0.741141 0.789562
0.389343 0.741141 0.789562
0.467334 0.741141 0.789562
0.546660 0.741141 0.789562
0.626995 0.741141 0.789562
0.708143 0.741141 0.789562
0.790109 0.741277 0.789699
0.900000 0.768750 0.817172
0.253125 0.832500 0.800297
0.324098 0.832500 0.800297
0.400078 0.832500 0.800297
0.478068 0.832500 0.800297
0.557395 0.832500 0.800297
0.637730 0.832500 0.800297
0.718877 0.832500 0.800297
0.800707 0.832500 0.800297
0.900000 0.849375 0.817172
0.280000 0.940000 0.827172
0.350973 0.940000 0.827172
0.426953 0.940000 0.827172
0.504943 0.940000 0.827172
0.584270 0.940000 0.827172
0.664605 0.940000 0.827172
0.745752 0.940000 0.827172
0.827582 0.940000 0.827172
0.910000 0.940000 0.827172
0.268790 0.283790 0.895158
0.339763 0.283790 0.895158
0.415742 0.283790 0.895158
0.493733 0.283790 0.895158
0.573059 0.283790 0.895158
0.653394 0.283790 0.895158
0.734542 0.283790 0.895158
0.816371 0.283790 0.895158
0.900000 0.285000 0.896369
0.268790 0.364415 0.895158
0.339763 0.364415 0.895158
0.415742 0.364415 0.895158
0.493733 0.364415 0.895158
0.573059 0.364415 0.895158
0.653394 0.364415 0.895158
0.734542 0.364415 0.895158
0.816371 0.364415 0.895158
0.900000 0.365625 0.896369
0.268790 0.445040 0.895158
0.339763 0.445040 0.895158
0.415742 0.445040 0.895158
0.493733 0.445040 0.895158
0.573059 0.445040 0.895158
0.653394 0.445040 0.895158
0.734542 0.445040 0.895158
0.816371 0.445040 0.895158
0.900000 0.446250 0.896369
0.268790 0.525665 0.895158
0.339763 0.525665 0.895158
0.415742 0.525665 0.895158
0.493733 0.525665 0.895158
0.573059 0.525665 0.895158
0.653394 0.525665 0.895158
0.734542 0.525665 0.895158
0.816371 0.525665 0.895158
0.900000 0.526875 0.896369
0.268790 0.606290 0.895158
0.339763 0.606290 0.895158
0.415742 0.606290 0.895158
0.493733 0.606290 0.895158
0.573059 0.606290 0.895158
0.653394 0.606290 0.895158
0.734542 0.606290 0.895158
0.816371 0.606290 0.895158
0.900000 0.607500 0.896369
0.268790 0.686915 0.895158
0.339763 0.686915 0.895158
0.415742 0.686915 0.895158
0.493733 0.686915 0.895158
0.573059 0.686915 0.895158
0.653394 0.686915 0.895158
0.734542 0.686915 0.895158
0.816371 0.686915 0.895158
0.900000 0.688125 0.896369
0.268790 0.767540 0.895158
0.339763 0.767540 0.895158
0.415742 0.767540 0.895158
0.493733 0.767540 0.895158
0.573059 0.767540 0.895158
0.653394 0.767540 0.895158
0.734542 0.767540 0.895158
0.816371 0.767540 0.895158
0.900000 0.768750 0.896369
0.268790 0.848165 0.895158
0.339763 0.848165 0.895158
0.415742 0.848165 0.895158
0.493733 0.848165 0.895158
0.573059 0.848165 0.895158
0.653394 0.848165 0.895158
0.734542 0.848165 0.895158
0.816371 0.848165 0.895158
0.900000 0.849375 0.896369
0.280000 0.940000 0.906369
0.350973 0.940000 0.906369
0.426953 0.940000 0.906369
0.504943 0.940000 0.906369
0.584270 0.940000 0.906369
0.664605 0.940000 0.906369
0.745752 0.940000 0.906369
0.827582 0.940000 0.906369
0.910000 0.940000 0.906369
0.295000 0.310000 1.000000
0.365973 0.310000 1.000000
0.441953 0.310000 1.000000
0.519943 0.310000 1.000000
0.599270 0.310000 1.000000
0.679605 0.310000 1.000000
0.760752 0.310000 1.000000
0.842582 0.310000 1.000000
0.925000 0.310000 1.000000
0.295000 0.390625 1.000000
0.365973 0.390625 1.000000
0.441953 0.390625 1.000000
0.519943 0.390625 1.000000
0.599270 0.390625 1.000000
0.679605 0.390625 1.000000
0.760752 0.390625 1.000000
0.842582 0.390625 1.000000
0.925000 0.390625 1.000000
0.295000 0.471250 1.000000
0.365973 0.471250 1.000000
0.441953 0.471250 1.000000
0.519943 0.471250 1.000000
0.599270 0.471250 1.000000
0.679605 0.471250 1.000000
0.760752 0.471250 1.000000
0.842582 0.471250 1.000000
0.925000 0.471250 1.000000
0.295000 0.551875 1.000000
0.365973 0.551875 1.000000
0.441953 0.551875 1.000000
0.519943 0.551875 1.000000
0.599270 0.551875 1.000000
0.679605 0.551875 1.000000
0.760752 0.551875 1.000000
0.842582 0.551875 1.000000
0.925000 0.551875 1.000000
0.295000 0.632500 1.000000
0.365973 0.632500 1.000000
0.441953 0.632500 1.000000
0.519943 0.632500 1.000000
0.599270 0.632500 1.000000
0.679605 0.632500 1.000000
0.760752 0.632500 1.000000
0.842582 0.632500 1.000000
0.925000 0.632500 1.000000
0.295000 0.713125 1.000000
0.365973 0.713125 1.000000
0.441953 0.713125 1.000000
0.519943 0.713125 1.000000
0.599270 0.713125 1.000000
0.679605 0.713125 1.000000
0.760752 0.713125 1.000000
0.842582 0.713125 1.000000
0.925000 0.713125 1.000000
0.295000 0.793750 1.000000
0.365973 0.793750 1.000000
0.441953 0.793750 1.000000
0.519943 0.793750 1.000000
0.599270 0.793750 1.000000
0.679605 0.793750 1.000000
0.760752 0.793750 1.000000
0.842582 0.793750 1.000000
0.925000 0.793750 1.000000
0.295000 0.874375 1.000000
0.365973 0.874375 1.000000
0.441953 0.874375 1.000000
0.519943 0.874375 1.000000
0.599270 0.874375 1.000000
0.679605 0.874375 1.000000
0.760752 0.874375 1.000000
0.842582 0.874375 1.000000
0.925000 0.874375 1.000000
0.295000 0.955000 1.000000
0.365973 0.955000 1.000000
0.441953 0.955000 1.000000
0.519943 0.955000 1.000000
0.599270 0.955000 1.000000
0.679605 0.955000 1.000000
0.760752 0.955000 1.000000
0.842582 0.955000 1.000000
0.925000 0.955000 1.000000
