app/src/main/assets/luts/morning_mist.cube
TITLE "Morning Mist"
LUT_3D_SIZE 5
DOMAIN_MIN 0.0 0.0 0.0
DOMAIN_MAX 1.0 1.0 1.0
0.075000 0.090000 0.120000
0.255937 0.123984 0.153984
0.465693 0.176423 0.206423
0.681003 0.230251 0.260251
0.900000 0.285000 0.315000
0.118750 0.295000 0.163750
0.265703 0.295000 0.163750
0.465693 0.337673 0.206423
0.681003 0.391501 0.260251
0.900000 0.446250 0.315000
0.172500 0.510000 0.217500
0.319453 0.510000 0.217500
0.476770 0.510000 0.217500
0.681003 0.552751 0.260251
0.900000 0.607500 0.315000
0.226250 0.725000 0.271250
0.373203 0.725000 0.271250
0.530520 0.725000 0.271250
0.692002 0.725000 0.271250
0.900000 0.768750 0.315000
0.280000 0.940000 0.325000
0.426953 0.940000 0.325000
0.584270 0.940000 0.325000
0.745752 0.940000 0.325000
0.910000 0.940000 0.325000
0.133948 0.148948 0.355790
0.280900 0.148948 0.355790
0.465693 0.176423 0.383266
0.681003 0.230251 0.437093
0.900000 0.285000 0.491843
0.133948 0.310198 0.355790
0.280900 0.310198 0.355790
0.465693 0.337673 0.383266
0.681003 0.391501 0.437093
0.900000 0.446250 0.491843
0.172500 0.510000 0.394343
0.319453 0.510000 0.394343
0.476770 0.510000 0.394343
0.681003 0.552751 0.437093
0.900000 0.607500 0.491843
0.226250 0.725000 0.448093
0.373203 0.725000 0.448093
0.530520 0.725000 0.448093
0.692002 0.725000 0.448093
0.900000 0.768750 0.491843
0.280000 0.940000 0.501843
0.426953 0.940000 0.501843
0.584270 0.940000 0.501843
0.745752 0.940000 0.501843
0.910000 0.940000 0.501843
0.188879 0.203879 0.575517
0.335832 0.203879 0.575517
0.493149 0.203879 0.575517
0.681003 0.230251 0.601888
0.900000 0.285000 0.656637
0.188879 0.365129 0.575517
0.335832 0.365129 0.575517
0.493149 0.365129 0.575517
0.681003 0.391501 0.601888
0.900000 0.446250 0.656637
0.188879 0.526379 0.575517
0.335832 0.526379 0.575517
0.493149 0.526379 0.575517
0.681003 0.552751 0.601888
0.900000 0.607500 0.656637
0.226250 0.725000 0.612887
0.373203 0.725000 0.612887
0.530520 0.725000 0.612887
0.692002 0.725000 0.612887
0.900000 0.768750 0.656637
0.280000 0.940000 0.666637
0.426953 0.940000 0.666637
0.584270 0.940000 0.666637
0.745752 0.940000 0.666637
0.910000 0.940000 0.666637
0.242391 0.257391 0.789562
0.389343 0.257391 0.789562
0.546660 0.257391 0.789562
0.708143 0.257391 0.789562
0.900000 0.285000 0.817172
0.242391 0.418641 0.789562
0.389343 0.418641 0.789562
0.546660 0.418641 0.789562
0.708143 0.418641 0.789562
0.900000 0.446250 0.817172
0.242391 0.579891 0.789562
0.389343 0.579891 0.789562
0.546660 0.579891 0.789562
0.708143 0.579891 0.789562
0.900000 0.607500 0.817172
0.242391 0.741141 0.789562
0.389343 0.741141 0.789562
0.546660 0.741141 0.789562
0.708143 0.741141 0.789562
0.900000 0.768750 0.817172
0.280000 0.940000 0.827172
0.426953 0.940000 0.827172
0.584270 0.940000 0.827172
0.745752 0.940000 0.827172
0.910000 0.940000 0.827172
0.295000 0.310000 1.000000
0.441953 0.310000 1.000000
0.599270 0.310000 1.000000
0.760752 0.310000 1.000000
0.925000 0.310000 1.000000
0.295000 0.471250 1.000000
0.441953 0.471250 1.000000
0.599270 0.471250 1.000000
0.760752 0.471250 1.000000
0.925000 0.471250 1.000000
0.295000 0.632500 1.000000
0.441953 0.632500 1.000000
0.599270 0.632500 1.000000
0.760752 0.632500 1.000000
0.925000 0.632500 1.000000
0.295000 0.793750 1.000000
0.441953 0.793750 1.000000
0.599270 0.793750 1.000000
0.760752 0.793750 1.000000
0.925000 0.793750 1.000000
0.295000 0.955000 1.000000
0.441953 0.955000 1.000000
0.599270 0.955000 1.000000
0.760752 0.955000 1.000000
0.925000 0.955000 1.000000
