app/src/main/assets/luts/morning_mist.cube
TITLE "Morning Mist"
LUT_3D_SIZE 33
DOMAIN_MIN 0.0 0.0 0.0
DOMAIN_MAX 1.0 1.0 1.0
0.075000 0.090000 0.120000
0.091555 0.090000 0.120000
0.109278 0.090000 0.120000
0.129960 0.092490 0.122490
0.154631 0.098658 0.128658
0.179616 0.104904 0.134904
0.204854 0.111214 0.141214
0.230304 0.117576 0.147576
0.255937 0.123984 0.153984
0.281731 0.130433 0.160433
0.307669 0.136917 0.166917
0.333737 0.143434 0.173434
0.359925 0.149981 0.179981
0.386221 0.156555 0.186555
0.412619 0.163155 0.193155
0.439112 0.169778 0.199778
0.465693 0.176423 0.206423
0.492358 0.183089 0.213089
0.519101 0.189775 0.219775
0.545918 0.196480 0.226480
0.572806 0.203202 0.233202
0.599762 0.209940 0.239940
0.626781 0.216695 0.246695
0.653863 0.223466 0.253466
0.681003 0.230251 0.260251
0.708200 0.237050 0.267050
0.735451 0.243863 0.273863
0.762755 0.250689 0.280689
0.790109 0.257527 0.287527
0.817512 0.264378 0.294378
0.844963 0.271241 0.301241
0.872459 0.278115 0.308115
0.900000 0.285000 0.315000
0.075000 0.110156 0.120000
0.091555 0.110156 0.120000
0.109278 0.110156 0.120000
0.129960 0.112646 0.122490
0.154631 0.118814 0.128658
0.179616 0.125060 0.134904
0.204854 0.131370 0.141214
0.230304 0.137732 0.147576
0.255937 0.144140 0.153984
0.281731 0.150589 0.160433
0.307669 0.157074 0.166917
0.333737 0.163591 0.173434
0.359925 0.170137 0.179981
0.386221 0.176712 0.186555
0.412619 0.183311 0.193155
0.439112 0.189934 0.199778
0.465693 0.196580 0.206423
0.492358 0.203246 0.213089
0.519101 0.209931 0.219775
0.545918 0.216636 0.226480
0.572806 0.223358 0.233202
0.599762 0.230097 0.239940
0.626781 0.236852 0.246695
0.653863 0.243622 0.253466
0.681003 0.250407 0.260251
0.708200 0.257206 0.267050
0.735451 0.264019 0.273863
0.762755 0.270845 0.280689
0.790109 0.277684 0.287527
0.817512 0.284534 0.294378
0.844963 0.291397 0.301241
0.872459 0.298271 0.308115
0.900000 0.305156 0.315000
0.078437 0.133750 0.123437
0.094993 0.133750 0.123438
0.112715 0.133750 0.123438
0.130907 0.133750 0.123438
0.154631 0.138970 0.128658
0.179616 0.145217 0.134904
0.204854 0.151526 0.141214
0.230304 0.157888 0.147576
0.255937 0.164297 0.153984
0.281731 0.170745 0.160433
0.307669 0.177230 0.166917
0.333737 0.183747 0.173434
0.359925 0.190294 0.179981
0.386221 0.196868 0.186555
0.412619 0.203467 0.193155
0.439112 0.210091 0.199778
0.465693 0.216736 0.206423
0.492358 0.223402 0.213089
0.519101 0.230088 0.219775
0.545918 0.236792 0.226480
0.572806 0.243514 0.233202
0.599762 0.250253 0.239940
0.626781 0.257008 0.246695
0.653863 0.263778 0.253466
0.681003 0.270563 0.260251
0.708200 0.277362 0.267050
0.735451 0.284175 0.273863
0.762755 0.291001 0.280689
0.790109 0.297840 0.287527
0.817512 0.304691 0.294378
0.844963 0.311553 0.301241
0.872459 0.318427 0.308115
0.900000 0.325313 0.315000
0.085156 0.160625 0.130156
0.101711 0.160625 0.130156
0.119434 0.160625 0.130156
0.137626 0.160625 0.130156
0.156130 0.160625 0.130156
0.179616 0.165373 0.134904
0.204854 0.171682 0.141214
0.230304 0.178045 0.147576
0.255937 0.184453 0.153984
0.281731 0.190902 0.160433
0.307669 0.197386 0.166917
0.333737 0.203903 0.173434
0.359925 0.210450 0.179981
0.386221 0.217024 0.186555
0.412619 0.223624 0.193155
0.439112 0.230247 0.199778
0.465693 0.236892 0.206423
0.492358 0.243558 0.213089
0.519101 0.250244 0.219775
0.545918 0.256948 0.226480
0.572806 0.263670 0.233202
0.599762 0.270409 0.239940
0.626781 0.277164 0.246695
0.653863 0.283934 0.253466
0.681003 0.290719 0.260251
0.708200 0.297519 0.267050
0.735451 0.304331 0.273863
0.762755 0.311157 0.280689
0.790109 0.317996 0.287527
0.817512 0.324847 0.294378
0.844963 0.331709 0.301241
0.872459 0.338584 0.308115
0.900000 0.345469 0.315000
0.091875 0.187500 0.136875
0.108430 0.187500 0.136875
0.126153 0.187500 0.136875
0.144345 0.187500 0.136875
0.162848 0.187500 0.136875
0.181587 0.187500 0.136875
0.204854 0.191839 0.141214
0.230304 0.198201 0.147576
0.255937 0.204609 0.153984
0.281731 0.211058 0.160433
0.307669 0.217542 0.166917
0.333737 0.224059 0.173434
0.359925 0.230606 0.179981
0.386221 0.237180 0.186555
0.412619 0.243780 0.193155
0.439112 0.250403 0.199778
0.465693 0.257048 0.206423
0.492358 0.263714 0.213089
0.519101 0.270400 0.219775
0.545918 0.277105 0.226480
0.572806 0.283827 0.233202
0.599762 0.290565 0.239940
0.626781 0.297320 0.246695
0.653863 0.304091 0.253466
0.681003 0.310876 0.260251
0.708200 0.317675 0.267050
0.735451 0.324488 0.273863
0.762755 0.331314 0.280689
0.790109 0.338152 0.287527
0.817512 0.345003 0.294378
0.844963 0.351866 0.301241
0.872459 0.358740 0.308115
0.900000 0.365625 0.315000
0.098594 0.214375 0.143594
0.115149 0.214375 0.143594
0.132872 0.214375 0.143594
0.151064 0.214375 0.143594
0.169567 0.214375 0.143594
0.188306 0.214375 0.143594
0.207234 0.214375 0.143594
0.230304 0.218357 0.147576
0.255937 0.224765 0.153984
0.281731 0.231214 0.160433
0.307669 0.237699 0.166917
0.333737 0.244216 0.173434
0.359925 0.250762 0.179981
0.386221 0.257337 0.186555
0.412619 0.263936 0.193155
0.439112 0.270559 0.199778
0.465693 0.277205 0.206423
0.492358 0.283871 0.213089
0.519101 0.290556 0.219775
0.545918 0.297261 0.226480
0.572806 0.303983 0.233202
0.599762 0.310722 0.239940
0.626781 0.317477 0.246695
0.653863 0.324247 0.253466
0.681003 0.331032 0.260251
0.708200 0.337831 0.267050
0.735451 0.344644 0.273863
0.762755 0.351470 0.280689
0.790109 0.358309 0.287527
0.817512 0.365159 0.294378
0.844963 0.372022 0.301241
0.872459 0.378896 0.308115
0.900000 0.385781 0.315000
0.105313 0.241250 0.150312
0.121868 0.241250 0.150313
0.139590 0.241250 0.150312
0.157782 0.241250 0.150313
0.176286 0.241250 0.150313
0.195025 0.241250 0.150313
0.213953 0.241250 0.150313
0.233040 0.241250 0.150313
0.255937 0.244922 0.153984
0.281731 0.251370 0.160433
0.307669 0.257855 0.166917
0.333737 0.264372 0.173434
0.359925 0.270919 0.179981
0.386221 0.277493 0.186555
0.412619 0.284092 0.193155
0.439112 0.290716 0.199778
0.465693 0.297361 0.206423
0.492358 0.304027 0.213089
0.519101 0.310713 0.219775
0.545918 0.317417 0.226480
0.572806 0.324139 0.233202
0.599762 0.330878 0.239940
0.626781 0.337633 0.246695
0.653863 0.344403 0.253466
0.681003 0.351188 0.260251
0.708200 0.357987 0.267050
0.735451 0.364800 0.273863
0.762755 0.371626 0.280689
0.790109 0.378465 0.287527
0.817512 0.385316 0.294378
0.844963 0.392178 0.301241
0.872459 0.399052 0.308115
0.900000 0.405938 0.315000
0.112031 0.268125 0.157031
0.128586 0.268125 0.157031
0.146309 0.268125 0.157031
0.164501 0.268125 0.157031
0.183005 0.268125 0.157031
0.201743 0.268125 0.157031
0.220672 0.268125 0.157031
0.239759 0.268125 0.157031
0.258984 0.268125 0.157031
0.281731 0.271527 0.160433
0.307669 0.278011 0.166917
0.333737 0.284528 0.173434
0.359925 0.291075 0.179981
0.386221 0.297649 0.186555
0.412619 0.304249 0.193155
0.439112 0.310872 0.199778
0.465693 0.317517 0.206423
0.492358 0.324183 0.213089
0.519101 0.330869 0.219775
0.545918 0.337573 0.226480
0.572806 0.344295 0.233202
0.599762 0.351034 0.239940
0.626781 0.357789 0.246695
0.653863 0.364559 0.253466
0.681003 0.371344 0.260251
0.708200 0.378144 0.267050
0.735451 0.384956 0.273863
0.762755 0.391782 0.280689
0.790109 0.398621 0.287527
0.817512 0.405472 0.294378
0.844963 0.412334 0.301241
0.872459 0.419209 0.308115
0.900000 0.426094 0.315000
0.118750 0.295000 0.163750
0.135305 0.295000 0.163750
0.153028 0.295000 0.163750
0.171220 0.295000 0.163750
0.189723 0.295000 0.163750
0.208462 0.295000 0.163750
0.227391 0.295000 0.163750
0.246478 0.295000 0.163750
0.265703 0.295000 0.163750
0.285048 0.295000 0.163750
0.307669 0.298167 0.166917
0.333737 0.304684 0.173434
0.359925 0.311231 0.179981
0.386221 0.317805 0.186555
0.412619 0.324405 0.193155
0.439112 0.331028 0.199778
0.465693 0.337673 0.206423
0.492358 0.344339 0.213089
0.519101 0.351025 0.219775
0.545918 0.357730 0.226480
0.572806 0.364452 0.233202
0.599762 0.371190 0.239940
0.626781 0.377945 0.246695
0.653863 0.384716 0.253466
0.681003 0.391501 0.260251
0.708200 0.398300 0.267050
0.735451 0.405113 0.273863
0.762755 0.411939 0.280689
0.790109 0.418777 0.287527
0.817512 0.425628 0.294378
0.844963 0.432491 0.301241
0.872459 0.439365 0.308115
0.900000 0.446250 0.315000
0.125469 0.321875 0.170469
0.142024 0.321875 0.170469
0.159747 0.321875 0.170469
0.177939 0.321875 0.170469
0.196442 0.321875 0.170469
0.215181 0.321875 0.170469
0.234109 0.321875 0.170469
0.253197 0.321875 0.170469
0.272421 0.321875 0.170469
0.291767 0.321875 0.170469
0.311221 0.321875 0.170469
0.333737 0.324841 0.173434
0.359925 0.331387 0.179981
0.386221 0.337962 0.186555
0.412619 0.344561 0.193155
0.439112 0.351184 0.199778
0.465693 0.357830 0.206423
0.492358 0.364496 0.213089
0.519101 0.371181 0.219775
0.545918 0.377886 0.226480
0.572806 0.384608 0.233202
0.599762 0.391347 0.239940
0.626781 0.398102 0.246695
0.653863 0.404872 0.253466
0.681003 0.411657 0.260251
0.708200 0.418456 0.267050
0.735451 0.425269 0.273863
0.762755 0.432095 0.280689
0.790109 0.438934 0.287527
0.817512 0.445784 0.294378
0.844963 0.452647 0.301241
0.872459 0.459521 0.308115
0.900000 0.466406 0.315000
0.132188 0.348750 0.177188
0.148743 0.348750 0.177187
0.166465 0.348750 0.177187
0.184657 0.348750 0.177187
0.203161 0.348750 0.177187
0.221900 0.348750 0.177187
0.240828 0.348750 0.177187
0.259915 0.348750 0.177187
0.279140 0.348750 0.177187
0.298486 0.348750 0.177187
0.317939 0.348750 0.177187
0.337491 0.348750 0.177187
0.359925 0.351544 0.179981
0.386221 0.358118 0.186555
0.412619 0.364717 0.193155
0.439112 0.371341 0.199778
0.465693 0.377986 0.206423
0.492358 0.384652 0.213089
0.519101 0.391338 0.219775
0.545918 0.398042 0.226480
0.572806 0.404764 0.233202
0.599762 0.411503 0.239940
0.626781 0.418258 0.246695
0.653863 0.425028 0.253466
0.681003 0.431813 0.260251
0.708200 0.438612 0.267050
0.735451 0.445425 0.273863
0.762755 0.452251 0.280689
0.790109 0.459090 0.287527
0.817512 0.465941 0.294378
0.844963 0.472803 0.301241
0.872459 0.479677 0.308115
0.900000 0.486563 0.315000
0.138906 0.375625 0.183906
0.155461 0.375625 0.183906
0.173184 0.375625 0.183906
0.191376 0.375625 0.183906
0.209880 0.375625 0.183906
0.228618 0.375625 0.183906
0.247547 0.375625 0.183906
0.266634 0.375625 0.183906
0.285859 0.375625 0.183906
0.305205 0.375625 0.183906
0.324658 0.375625 0.183906
0.344209 0.375625 0.183906
0.363850 0.375625 0.183906
0.386221 0.378274 0.186555
0.412619 0.384874 0.193155
0.439112 0.391497 0.199778
0.465693 0.398142 0.206423
0.492358 0.404808 0.213089
0.519101 0.411494 0.219775
0.545918 0.418198 0.226480
0.572806 0.424920 0.233202
0.599762 0.431659 0.239940
0.626781 0.438414 0.246695
0.653863 0.445184 0.253466
0.681003 0.451969 0.260251
0.708200 0.458769 0.267050
0.735451 0.465581 0.273863
0.762755 0.472407 0.280689
0.790109 0.479246 0.287527
0.817512 0.486097 0.294378
0.844963 0.492959 0.301241
0.872459 0.499834 0.308115
0.900000 0.506719 0.315000
0.145625 0.402500 0.190625
0.162180 0.402500 0.190625
0.179903 0.402500 0.190625
0.198095 0.402500 0.190625
0.216598 0.402500 0.190625
0.235337 0.402500 0.190625
0.254266 0.402500 0.190625
0.273353 0.402500 0.190625
0.292578 0.402500 0.190625
0.311923 0.402500 0.190625
0.331377 0.402500 0.190625
0.350928 0.402500 0.190625
0.370568 0.402500 0.190625
0.390291 0.402500 0.190625
0.412619 0.405030 0.193155
0.439112 0.411653 0.199778
0.465693 0.418298 0.206423
0.492358 0.424964 0.213089
0.519101 0.431650 0.219775
0.545918 0.438355 0.226480
0.572806 0.445077 0.233202
0.599762 0.451815 0.239940
0.626781 0.458570 0.246695
0.653863 0.465341 0.253466
0.681003 0.472126 0.260251
0.708200 0.478925 0.267050
0.735451 0.485738 0.273863
0.762755 0.492564 0.280689
0.790109 0.499402 0.287527
0.817512 0.506253 0.294378
0.844963 0.513116 0.301241
0.872459 0.519990 0.308115
0.900000 0.526875 0.315000
0.152344 0.429375 0.197344
0.168899 0.429375 0.197344
0.186622 0.429375 0.197344
0.204814 0.429375 0.197344
0.223317 0.429375 0.197344
0.242056 0.429375 0.197344
0.260984 0.429375 0.197344
0.280072 0.429375 0.197344
0.299296 0.429375 0.197344
0.318642 0.429375 0.197344
0.338096 0.429375 0.197344
0.357647 0.429375 0.197344
0.377287 0.429375 0.197344
0.397010 0.429375 0.197344
0.416808 0.429375 0.197344
0.439112 0.431809 0.199778
0.465693 0.438455 0.206423
0.492358 0.445121 0.213089
0.519101 0.451806 0.219775
0.545918 0.458511 0.226480
0.572806 0.465233 0.233202
0.599762 0.471972 0.239940
0.626781 0.478727 0.246695
0.653863 0.485497 0.253466
0.681003 0.492282 0.260251
0.708200 0.499081 0.267050
0.735451 0.505894 0.273863
0.762755 0.512720 0.280689
0.790109 0.519559 0.287527
0.817512 0.526409 0.294378
0.844963 0.533272 0.301241
0.872459 0.540146 0.308115
0.900000 0.547031 0.315000
0.159062 0.456250 0.204062
0.175618 0.456250 0.204062
0.193340 0.456250 0.204062
0.211532 0.456250 0.204063
0.230036 0.456250 0.204063
0.248775 0.456250 0.204063
0.267703 0.456250 0.204063
0.286790 0.456250 0.204063
0.306015 0.456250 0.204063
0.325361 0.456250 0.204063
0.344814 0.456250 0.204063
0.364366 0.456250 0.204063
0.384006 0.456250 0.204063
0.403728 0.456250 0.204063
0.423527 0.456250 0.204063
0.443397 0.456250 0.204063
0.465693 0.458611 0.206423
0.492358 0.465277 0.213089
0.519101 0.471963 0.219775
0.545918 0.478667 0.226480
0.572806 0.485389 0.233202
0.599762 0.492128 0.239940
0.626781 0.498883 0.246695
0.653863 0.505653 0.253466
0.681003 0.512438 0.260251
0.708200 0.519237 0.267050
0.735451 0.526050 0.273863
0.762755 0.532876 0.280689
0.790109 0.539715 0.287527
0.817512 0.546566 0.294378
0.844963 0.553428 0.301241
0.872459 0.560302 0.308115
0.900000 0.567188 0.315000
0.165781 0.483125 0.210781
0.182336 0.483125 0.210781
0.200059 0.483125 0.210781
0.218251 0.483125 0.210781
0.236755 0.483125 0.210781
0.255493 0.483125 0.210781
0.274422 0.483125 0.210781
0.293509 0.483125 0.210781
0.312734 0.483125 0.210781
0.332080 0.483125 0.210781
0.351533 0.483125 0.210781
0.371084 0.483125 0.210781
0.390725 0.483125 0.210781
0.410447 0.483125 0.210781
0.430246 0.483125 0.210781
0.450115 0.483125 0.210781
0.470051 0.483125 0.210781
0.492358 0.485433 0.213089
0.519101 0.492119 0.219775
0.545918 0.498823 0.226480
0.572806 0.505545 0.233202
0.599762 0.512284 0.239940
0.626781 0.519039 0.246695
0.653863 0.525809 0.253466
0.681003 0.532594 0.260251
0.708200 0.539394 0.267050
0.735451 0.546206 0.273863
0.762755 0.553032 0.280689
0.790109 0.559871 0.287527
0.817512 0.566722 0.294378
0.844963 0.573584 0.301241
0.872459 0.580459 0.308115
0.900000 0.587344 0.315000
0.172500 0.510000 0.217500
0.189055 0.510000 0.217500
0.206778 0.510000 0.217500
0.224970 0.510000 0.217500
0.243473 0.510000 0.217500
0.262212 0.510000 0.217500
0.281141 0.510000 0.217500
0.300228 0.510000 0.217500
0.319453 0.510000 0.217500
0.338798 0.510000 0.217500
0.358252 0.510000 0.217500
0.377803 0.510000 0.217500
0.397443 0.510000 0.217500
0.417166 0.510000 0.217500
0.436965 0.510000 0.217500
0.456834 0.510000 0.217500
0.476770 0.510000 0.217500
0.496768 0.510000 0.217500
0.519101 0.512275 0.219775
0.545918 0.518980 0.226480
0.572806 0.525702 0.233202
0.599762 0.532440 0.239940
0.626781 0.539195 0.246695
0.653863 0.545966 0.253466
0.681003 0.552751 0.260251
0.708200 0.559550 0.267050
0.735451 0.566363 0.273863
0.762755 0.573189 0.280689
0.790109 0.580027 0.287527
0.817512 0.586878 0.294378
0.844963 0.593741 0.301241
0.872459 0.600615 0.308115
0.900000 0.607500 0.315000
0.179219 0.536875 0.224219
0.195774 0.536875 0.224219
0.213497 0.536875 0.224219
0.231689 0.536875 0.224219
0.250192 0.536875 0.224219
0.268931 0.536875 0.224219
0.287859 0.536875 0.224219
0.306947 0.536875 0.224219
0.326171 0.536875 0.224219
0.345517 0.536875 0.224219
0.364971 0.536875 0.224219
0.384522 0.536875 0.224219
0.404162 0.536875 0.224219
0.423885 0.536875 0.224219
0.443683 0.536875 0.224219
0.463553 0.536875 0.224219
0.483489 0.536875 0.224219
0.503487 0.536875 0.224219
0.523544 0.536875 0.224219
0.545918 0.539136 0.226480
0.572806 0.545858 0.233202
0.599762 0.552597 0.239940
0.626781 0.559352 0.246695
0.653863 0.566122 0.253466
0.681003 0.572907 0.260251
0.708200 0.579706 0.267050
0.735451 0.586519 0.273863
0.762755 0.593345 0.280689
0.790109 0.600184 0.287527
0.817512 0.607034 0.294378
0.844963 0.613897 0.301241
0.872459 0.620771 0.308115
0.900000 0.627656 0.315000
0.185938 0.563750 0.230938
0.202493 0.563750 0.230937
0.220215 0.563750 0.230937
0.238407 0.563750 0.230938
0.256911 0.563750 0.230938
0.275650 0.563750 0.230938
0.294578 0.563750 0.230938
0.313665 0.563750 0.230938
0.332890 0.563750 0.230938
0.352236 0.563750 0.230938
0.371689 0.563750 0.230938
0.391241 0.563750 0.230938
0.410881 0.563750 0.230938
0.430603 0.563750 0.230938
0.450402 0.563750 0.230938
0.470272 0.563750 0.230938
0.490207 0.563750 0.230938
0.510206 0.563750 0.230938
0.530263 0.563750 0.230938
0.550376 0.563750 0.230938
0.572806 0.566014 0.233202
0.599762 0.572753 0.239940
0.626781 0.579508 0.246695
0.653863 0.586278 0.253466
0.681003 0.593063 0.260251
0.708200 0.599862 0.267050
0.735451 0.606675 0.273863
0.762755 0.613501 0.280689
0.790109 0.620340 0.287527
0.817512 0.627191 0.294378
0.844963 0.634053 0.301241
0.872459 0.640927 0.308115
0.900000 0.647812 0.315000
0.192656 0.590625 0.237656
0.209211 0.590625 0.237656
0.226934 0.590625 0.237656
0.245126 0.590625 0.237656
0.263630 0.590625 0.237656
0.282368 0.590625 0.237656
0.301297 0.590625 0.237656
0.320384 0.590625 0.237656
0.339609 0.590625 0.237656
0.358955 0.590625 0.237656
0.378408 0.590625 0.237656
0.397959 0.590625 0.237656
0.417600 0.590625 0.237656
0.437322 0.590625 0.237656
0.457121 0.590625 0.237656
0.476990 0.590625 0.237656
0.496926 0.590625 0.237656
0.516925 0.590625 0.237656
0.536982 0.590625 0.237656
0.557095 0.590625 0.237656
0.577261 0.590625 0.237656
0.599762 0.592909 0.239940
0.626781 0.599664 0.246695
0.653863 0.606434 0.253466
0.681003 0.613219 0.260251
0.708200 0.620019 0.267050
0.735451 0.626831 0.273863
0.762755 0.633657 0.280689
0.790109 0.640496 0.287527
0.817512 0.647347 0.294378
0.844963 0.654209 0.301241
0.872459 0.661084 0.308115
0.900000 0.667969 0.315000
0.199375 0.617500 0.244375
0.215930 0.617500 0.244375
0.233653 0.617500 0.244375
0.251845 0.617500 0.244375
0.270348 0.617500 0.244375
0.289087 0.617500 0.244375
0.308016 0.617500 0.244375
0.327103 0.617500 0.244375
0.346328 0.617500 0.244375
0.365673 0.617500 0.244375
0.385127 0.617500 0.244375
0.404678 0.617500 0.244375
0.424318 0.617500 0.244375
0.444041 0.617500 0.244375
0.463840 0.617500 0.244375
0.483709 0.617500 0.244375
0.503645 0.617500 0.244375
0.523643 0.617500 0.244375
0.543701 0.617500 0.244375
0.563814 0.617500 0.244375
0.583980 0.617500 0.244375
0.604196 0.617500 0.244375
0.626781 0.619820 0.246695
0.653863 0.626591 0.253466
0.681003 0.633376 0.260251
0.708200 0.640175 0.267050
0.735451 0.646988 0.273863
0.762755 0.653814 0.280689
0.790109 0.660652 0.287527
0.817512 0.667503 0.294378
0.844963 0.674366 0.301241
0.872459 0.681240 0.308115
0.900000 0.688125 0.315000
0.206094 0.644375 0.251094
0.222649 0.644375 0.251094
0.240372 0.644375 0.251094
0.258564 0.644375 0.251094
0.277067 0.644375 0.251094
0.295806 0.644375 0.251094
0.314734 0.644375 0.251094
0.333822 0.644375 0.251094
0.353046 0.644375 0.251094
0.372392 0.644375 0.251094
0.391846 0.644375 0.251094
0.411397 0.644375 0.251094
0.431037 0.644375 0.251094
0.450760 0.644375 0.251094
0.470558 0.644375 0.251094
0.490428 0.644375 0.251094
0.510364 0.644375 0.251094
0.530362 0.644375 0.251094
0.550419 0.644375 0.251094
0.570532 0.644375 0.251094
0.590698 0.644375 0.251094
0.610915 0.644375 0.251094
0.631180 0.644375 0.251094
0.653863 0.646747 0.253466
0.681003 0.653532 0.260251
0.708200 0.660331 0.267050
0.735451 0.667144 0.273863
0.762755 0.673970 0.280689
0.790109 0.680809 0.287527
0.817512 0.687659 0.294378
0.844963 0.694522 0.301241
0.872459 0.701396 0.308115
0.900000 0.708281 0.315000
0.212813 0.671250 0.257812
0.229368 0.671250 0.257813
0.247090 0.671250 0.257812
0.265282 0.671250 0.257812
0.283786 0.671250 0.257812
0.302525 0.671250 0.257812
0.321453 0.671250 0.257812
0.340540 0.671250 0.257812
0.359765 0.671250 0.257812
0.379111 0.671250 0.257812
0.398564 0.671250 0.257812
0.418116 0.671250 0.257812
0.437756 0.671250 0.257812
0.457478 0.671250 0.257812
0.477277 0.671250 0.257812
0.497147 0.671250 0.257812
0.517082 0.671250 0.257812
0.537081 0.671250 0.257812
0.557138 0.671250 0.257812
0.577251 0.671250 0.257812
0.597417 0.671250 0.257812
0.617634 0.671250 0.257812
0.637899 0.671250 0.257812
0.658210 0.671250 0.257812
0.681003 0.673688 0.260251
0.708200 0.680487 0.267050
0.735451 0.687300 0.273863
0.762755 0.694126 0.280689
0.790109 0.700965 0.287527
0.817512 0.707816 0.294378
0.844963 0.714678 0.301241
0.872459 0.721552 0.308115
0.900000 0.728437 0.315000
0.219531 0.698125 0.264531
0.236086 0.698125 0.264531
0.253809 0.698125 0.264531
0.272001 0.698125 0.264531
0.290505 0.698125 0.264531
0.309243 0.698125 0.264531
0.328172 0.698125 0.264531
0.347259 0.698125 0.264531
0.366484 0.698125 0.264531
0.385830 0.698125 0.264531
0.405283 0.698125 0.264531
0.424834 0.698125 0.264531
0.444475 0.698125 0.264531
0.464197 0.698125 0.264531
0.483996 0.698125 0.264531
0.503865 0.698125 0.264531
0.523801 0.698125 0.264531
0.543800 0.698125 0.264531
0.563857 0.698125 0.264531
0.583970 0.698125 0.264531
0.604136 0.698125 0.264531
0.624353 0.698125 0.264531
0.644617 0.698125 0.264531
0.664928 0.698125 0.264531
0.685283 0.698125 0.264531
0.708200 0.700644 0.267050
0.735451 0.707456 0.273863
0.762755 0.714282 0.280689
0.790109 0.721121 0.287527
0.817512 0.727972 0.294378
0.844963 0.734834 0.301241
0.872459 0.741709 0.308115
0.900000 0.748594 0.315000
0.226250 0.725000 0.271250
0.242805 0.725000 0.271250
0.260528 0.725000 0.271250
0.278720 0.725000 0.271250
0.297223 0.725000 0.271250
0.315962 0.725000 0.271250
0.334891 0.725000 0.271250
0.353978 0.725000 0.271250
0.373203 0.725000 0.271250
0.392548 0.725000 0.271250
0.412002 0.725000 0.271250
0.431553 0.725000 0.271250
0.451193 0.725000 0.271250
0.470916 0.725000 0.271250
0.490715 0.725000 0.271250
0.510584 0.725000 0.271250
0.530520 0.725000 0.271250
0.550518 0.725000 0.271250
0.570576 0.725000 0.271250
0.590689 0.725000 0.271250
0.610855 0.725000 0.271250
0.631071 0.725000 0.271250
0.651336 0.725000 0.271250
0.671647 0.725000 0.271250
0.692002 0.725000 0.271250
0.712400 0.725000 0.271250
0.735451 0.727613 0.273863
0.762755 0.734439 0.280689
0.790109 0.741277 0.287527
0.817512 0.748128 0.294378
0.844963 0.754991 0.301241
0.872459 0.761865 0.308115
0.900000 0.768750 0.315000
0.232969 0.751875 0.277969
0.249524 0.751875 0.277969
0.267247 0.751875 0.277969
0.285439 0.751875 0.277969
0.303942 0.751875 0.277969
0.322681 0.751875 0.277969
0.341609 0.751875 0.277969
0.360697 0.751875 0.277969
0.379921 0.751875 0.277969
0.399267 0.751875 0.277969
0.418721 0.751875 0.277969
0.438272 0.751875 0.277969
0.457912 0.751875 0.277969
0.477635 0.751875 0.277969
0.497433 0.751875 0.277969
0.517303 0.751875 0.277969
0.537239 0.751875 0.277969
0.557237 0.751875 0.277969
0.577294 0.751875 0.277969
0.597407 0.751875 0.277969
0.617573 0.751875 0.277969
0.637790 0.751875 0.277969
0.658055 0.751875 0.277969
0.678366 0.751875 0.277969
0.698721 0.751875 0.277969
0.719119 0.751875 0.277969
0.739557 0.751875 0.277969
0.762755 0.754595 0.280689
0.790109 0.761434 0.287527
0.817512 0.768284 0.294378
0.844963 0.775147 0.301241
0.872459 0.782021 0.308115
0.900000 0.788906 0.315000
0.239687 0.778750 0.284687
0.256243 0.778750 0.284688
0.273965 0.778750 0.284687
0.292157 0.778750 0.284687
0.310661 0.778750 0.284687
0.329400 0.778750 0.284687
0.348328 0.778750 0.284687
0.367415 0.778750 0.284687
0.386640 0.778750 0.284687
0.405986 0.778750 0.284687
0.425439 0.778750 0.284687
0.444991 0.778750 0.284687
0.464631 0.778750 0.284687
0.484353 0.778750 0.284687
0.504152 0.778750 0.284687
0.524022 0.778750 0.284687
0.543957 0.778750 0.284687
0.563956 0.778750 0.284687
0.584013 0.778750 0.284687
0.604126 0.778750 0.284687
0.624292 0.778750 0.284687
0.644509 0.778750 0.284687
0.664774 0.778750 0.284687
0.685085 0.778750 0.284687
0.705440 0.778750 0.284687
0.725837 0.778750 0.284687
0.746276 0.778750 0.284687
