app/src/main/assets/luts/natural.cube
TITLE "Natural"
LUT_3D_SIZE 9
DOMAIN_MIN 0.0 0.0 0.0
DOMAIN_MAX 1.0 1.0 1.0
0.000000 0.000000 0.000000
0.138559 0.000000 0.000000
0.269540 0.000000 0.000000
0.397805 0.000000 0.000000
0.524338 0.000000 0.000000
0.649598 0.000000 0.000000
0.773854 0.000000 0.000000
0.897280 0.000000 0.000000
1.000000 0.000000 0.000000
0.000000 0.131611 0.000000
0.138559 0.131611 0.000000
0.269540 0.131611 0.000000
0.397805 0.131611 0.000000
0.524338 0.131611 0.000000
0.649598 0.131611 0.000000
0.773854 0.131611 0.000000
0.897280 0.131611 0.000000
1.000000 0.131611 0.000000
0.000000 0.259599 0.000000
0.138559 0.259599 0.000000
0.269540 0.259599 0.000000
0.397805 0.259599 0.000000
0.524338 0.259599 0.000000
0.649598 0.259599 0.000000
0.773854 0.259599 0.000000
0.897280 0.259599 0.000000
1.000000 0.259599 0.000000
0.000000 0.386253 0.000000
0.138559 0.386253 0.000000
0.269540 0.386253 0.000000
0.397805 0.386253 0.000000
0.524338 0.386253 0.000000
0.649598 0.386253 0.000000
0.773854 0.386253 0.000000
0.897280 0.386253 0.000000
1.000000 0.386253 0.000000
0.000000 0.512050 0.000000
0.138559 0.512050 0.000000
0.269540 0.512050 0.000000
0.397805 0.512050 0.000000
0.524338 0.512050 0.000000
0.649598 0.512050 0.000000
0.773854 0.512050 0.000000
0.897280 0.512050 0.000000
1.000000 0.512050 0.000000
0.000000 0.637212 0.000000
0.138559 0.637212 0.000000
0.269540 0.637212 0.000000
0.397805 0.637212 0.000000
0.524338 0.637212 0.000000
0.649598 0.637212 0.000000
0.773854 0.637212 0.000000
0.897280 0.637212 0.000000
1.000000 0.637212 0.000000
0.000000 0.761871 0.000000
0.138559 0.761871 0.000000
0.269540 0.761871 0.000000
0.397805 0.761871 0.000000
0.524338 0.761871 0.000000
0.649598 0.761871 0.000000
0.773854 0.761871 0.000000
0.897280 0.761871 0.000000
1.000000 0.761871 0.000000
0.000000 0.886113 0.000000
0.138559 0.886113 0.000000
0.269540 0.886113 0.000000
0.397805 0.886113 0.000000
0.524338 0.886113 0.000000
0.649598 0.886113 0.000000
0.773854 0.886113 0.000000
0.897280 0.886113 0.000000
1.000000 0.886113 0.000000
0.000000 1.000000 0.000000
0.138559 1.000000 0.000000
0.269540 1.000000 0.000000
0.397805 1.000000 0.000000
0.524338 1.000000 0.000000
0.649598 1.000000 0.000000
0.773854 1.000000 0.000000
0.897280 1.000000 0.000000
1.000000 1.000000 0.000000
0.000000 0.000000 0.125000
0.138559 0.000000 0.125000
0.269540 0.000000 0.125000
0.397805 0.000000 0.125000
0.524338 0.000000 0.125000
0.649598 0.000000 0.125000
0.773854 0.000000 0.125000
0.897280 0.000000 0.125000
1.000000 0.000000 0.125000
0.000000 0.131611 0.125000
0.138559 0.131611 0.125000
0.269540 0.131611 0.125000
0.397805 0.131611 0.125000
0.524338 0.131611 0.125000
0.649598 0.131611 0.125000
0.773854 0.131611 0.125000
0.897280 0.131611 0.125000
1.000000 0.131611 0.125000
0.000000 0.259599 0.125000
0.138559 0.259599 0.125000
0.269540 0.259599 0.125000
0.397805 0.259599 0.125000
0.524338 0.259599 0.125000
0.649598 0.259599 0.125000
0.773854 0.259599 0.125000
0.897280 0.259599 0.125000
1.000000 0.259599 0.125000
0.000000 0.386253 0.125000
0.138559 0.386253 0.125000
0.269540 0.386253 0.125000
0.397805 0.386253 0.125000
0.524338 0.386253 0.125000
0.649598 0.386253 0.125000
0.773854 0.386253 0.125000
0.897280 0.386253 0.125000
1.000000 0.386253 0.125000
0.000000 0.512050 0.125000
0.138559 0.512050 0.125000
0.269540 0.512050 0.125000
0.397805 0.512050 0.125000
0.524338 0.512050 0.125000
0.649598 0.512050 0.125000
0.773854 0.512050 0.125000
0.897280 0.512050 0.125000
1.000000 0.512050 0.125000
0.000000 0.637212 0.125000
0.138559 0.637212 0.125000
0.269540 0.637212 0.125000
0.397805 0.637212 0.125000
0.524338 0.637212 0.125000
0.649598 0.637212 0.125000
0.773854 0.637212 0.125000
0.897280 0.637212 0.125000
1.000000 0.637212 0.125000
0.000000 0.761871 0.125000
0.138559 0.761871 0.125000
0.269540 0.761871 0.125000
0.397805 0.761871 0.125000
0.524338 0.761871 0.125000
0.649598 0.761871 0.125000
0.773854 0.761871 0.125000
0.897280 0.761871 0.125000
1.000000 0.761871 0.125000
0.000000 0.886113 0.125000
0.138559 0.886113 0.125000
0.269540 0.886113 0.125000
0.397805 0.886113 0.125000
0.524338 0.886113 0.125000
0.649598 0.886113 0.125000
0.773854 0.886113 0.125000
0.897280 0.886113 0.125000
1.000000 0.886113 0.125000
0.000000 1.000000 0.125000
0.138559 1.000000 0.125000
0.269540 1.000000 0.125000
0.397805 1.000000 0.125000
0.524338 1.000000 0.125000
0.649598 1.000000 0.125000
0.773854 1.000000 0.125000
0.897280 1.000000 0.125000
1.000000 1.000000 0.125000
0.000000 0.000000 0.250000
0.138559 0.000000 0.250000
0.269540 0.000000 0.250000
0.397805 0.000000 0.250000
0.524338 0.000000 0.250000
0.649598 0.000000 0.250000
0.773854 0.000000 0.250000
0.897280 0.000000 0.250000
1.000000 0.000000 0.250000
0.000000 0.131611 0.250000
0.138559 0.131611 0.250000
0.269540 0.131611 0.250000
0.397805 0.131611 0.250000
0.524338 0.131611 0.250000
0.649598 0.131611 0.250000
0.773854 0.131611 0.250000
0.897280 0.131611 0.250000
1.000000 0.131611 0.250000
0.000000 0.259599 0.250000
0.138559 0.259599 0.250000
0.269540 0.259599 0.250000
0.397805 0.259599 0.250000
0.524338 0.259599 0.250000
0.649598 0.259599 0.250000
0.773854 0.259599 0.250000
0.897280 0.259599 0.250000
1.000000 0.259599 0.250000
0.000000 0.386253 0.250000
0.138559 0.386253 0.250000
0.269540 0.386253 0.250000
0.397805 0.386253 0.250000
0.524338 0.386253 0.250000
0.649598 0.386253 0.250000
0.773854 0.386253 0.250000
0.897280 0.386253 0.250000
1.000000 0.386253 0.250000
0.000000 0.512050 0.250000
0.138559 0.512050 0.250000
0.269540 0.512050 0.250000
0.397805 0.512050 0.250000
0.524338 0.512050 0.250000
0.649598 0.512050 0.250000
0.773854 0.512050 0.250000
0.897280 0.512050 0.250000
1.000000 0.512050 0.250000
0.000000 0.637212 0.250000
0.138559 0.637212 0.250000
0.269540 0.637212 0.250000
0.397805 0.637212 0.250000
0.524338 0.637212 0.250000
0.649598 0.637212 0.250000
0.773854 0.637212 0.250000
0.897280 0.637212 0.250000
1.000000 0.637212 0.250000
0.000000 0.761871 0.250000
0.138559 0.761871 0.250000
0.269540 0.761871 0.250000
0.397805 0.761871 0.250000
0.524338 0.761871 0.250000
0.649598 0.761871 0.250000
0.773854 0.761871 0.250000
0.897280 0.761871 0.250000
1.000000 0.761871 0.250000
0.000000 0.886113 0.250000
0.138559 0.886113 0.250000
0.269540 0.886113 0.250000
0.397805 0.886113 0.250000
0.524338 0.886113 0.250000
0.649598 0.886113 0.250000
0.773854 0.886113 0.250000
0.897280 0.886113 0.250000
1.000000 0.886113 0.250000
0.000000 1.000000 0.250000
0.138559 1.000000 0.250000
0.269540 1.000000 0.250000
0.397805 1.000000 0.250000
0.524338 1.000000 0.250000
0.649598 1.000000 0.250000
0.773854 1.000000 0.250000
0.897280 1.000000 0.250000
1.000000 1.000000 0.250000
0.000000 0.000000 0.375000
0.138559 0.000000 0.375000
0.269540 0.000000 0.375000
0.397805 0.000000 0.375000
0.524338 0.000000 0.375000
0.649598 0.000000 0.375000
0.773854 0.000000 0.375000
0.897280 0.000000 0.375000
1.000000 0.000000 0.375000
0.000000 0.131611 0.375000
0.138559 0.131611 0.375000
0.269540 0.131611 0.375000
0.397805 0.131611 0.375000
0.524338 0.131611 0.375000
0.649598 0.131611 0.375000
0.773854 0.131611 0.375000
0.897280 0.131611 0.375000
1.000000 0.131611 0.375000
0.000000 0.259599 0.375000
0.138559 0.259599 0.375000
0.269540 0.259599 0.375000
0.397805 0.259599 0.375000
0.524338 0.259599 0.375000
0.649598 0.259599 0.375000
0.773854 0.259599 0.375000
0.897280 0.259599 0.375000
1.000000 0.259599 0.375000
0.000000 0.386253 0.375000
0.138559 0.386253 0.375000
0.269540 0.386253 0.375000
0.397805 0.386253 0.375000
0.524338 0.386253 0.375000
0.649598 0.386253 0.375000
0.773854 0.386253 0.375000
0.897280 0.386253 0.375000
1.000000 0.386253 0.375000
0.000000 0.512050 0.375000
0.138559 0.512050 0.375000
0.269540 0.512050 0.375000
0.397805 0.512050 0.375000
0.524338 0.512050 0.375000
0.649598 0.512050 0.375000
0.773854 0.512050 0.375000
0.897280 0.512050 0.375000
1.000000 0.512050 0.375000
0.000000 0.637212 0.375000
0.138559 0.637212 0.375000
0.269540 0.637212 0.375000
0.397805 0.637212 0.375000
0.524338 0.637212 0.375000
0.649598 0.637212 0.375000
0.773854 0.637212 0.375000
0.897280 0.637212 0.375000
1.000000 0.637212 0.375000
0.000000 0.761871 0.375000
0.138559 0.761871 0.375000
0.269540 0.761871 0.375000
0.397805 0.761871 0.375000
0.524338 0.761871 0.375000
0.649598 0.761871 0.375000
0.773854 0.761871 0.375000
0.897280 0.761871 0.375000
1.000000 0.761871 0.375000
0.000000 0.886113 0.375000
0.138559 0.886113 0.375000
0.269540 0.886113 0.375000
0.397805 0.886113 0.375000
0.524338 0.886113 0.375000
0.649598 0.886113 0.375000
0.773854 0.886113 0.375000
0.897280 0.886113 0.375000
1.000000 0.886113 0.375000
0.000000 1.000000 0.375000
0.138559 1.000000 0.375000
0.269540 1.000000 0.375000
0.397805 1.000000 0.375000
0.524338 1.000000 0.375000
0.649598 1.000000 0.375000
0.773854 1.000000 0.375000
0.897280 1.000000 0.375000
1.000000 1.000000 0.375000
0.000000 0.000000 0.500000
0.138559 0.000000 0.500000
0.269540 0.000000 0.500000
0.397805 0.000000 0.500000
0.524338 0.000000 0.500000
0.649598 0.000000 0.500000
0.773854 0.000000 0.500000
0.897280 0.000000 0.500000
1.000000 0.000000 0.500000
0.000000 0.131611 0.500000
0.138559 0.131611 0.500000
0.269540 0.131611 0.500000
0.397805 0.131611 0.500000
0.524338 0.131611 0.500000
0.649598 0.131611 0.500000
0.773854 0.131611 0.500000
0.897280 0.131611 0.500000
1.000000 0.131611 0.500000
0.000000 0.259599 0.500000
0.138559 0.259599 0.500000
0.269540 0.259599 0.500000
0.397805 0.259599 0.500000
0.524338 0.259599 0.500000
0.649598 0.259599 0.500000
0.773854 0.259599 0.500000
0.897280 0.259599 0.500000
1.000000 0.259599 0.500000
0.000000 0.386253 0.500000
0.138559 0.386253 0.500000
0.269540 0.386253 0.500000
0.397805 0.386253 0.500000
0.524338 0.386253 0.500000
0.649598 0.386253 0.500000
0.773854 0.386253 0.500000
0.897280 0.386253 0.500000
1.000000 0.386253 0.500000
0.000000 0.512050 0.500000
0.138559 0.512050 0.500000
0.269540 0.512050 0.500000
0.397805 0.512050 0.500000
0.524338 0.512050 0.500000
0.649598 0.512050 0.500000
0.773854 0.512050 0.500000
0.897280 0.512050 0.500000
1.000000 0.512050 0.500000
0.000000 0.637212 0.500000
0.138559 0.637212 0.500000
0.269540 0.637212 0.500000
0.397805 0.637212 0.500000
0.524338 0.637212 0.500000
0.649598 0.637212 0.500000
0.773854 0.637212 0.500000
0.897280 0.637212 0.500000
1.000000 0.637212 0.500000
0.000000 0.761871 0.500000
0.138559 0.761871 0.500000
0.269540 0.761871 0.500000
0.397805 0.761871 0.500000
0.524338 0.761871 0.500000
0.649598 0.761871 0.500000
0.773854 0.761871 0.500000
0.897280 0.761871 0.500000
1.000000 0.761871 0.500000
0.000000 0.886113 0.500000
0.138559 0.886113 0.500000
0.269540 0.886113 0.500000
0.397805 0.886113 0.500000
0.524338 0.886113 0.500000
0.649598 0.886113 0.500000
0.773854 0.886113 0.500000
0.897280 0.886113 0.500000
1.000000 0.886113 0.500000
0.000000 1.000000 0.500000
0.138559 1.000000 0.500000
0.269540 1.000000 0.500000
0.397805 1.000000 0.500000
0.524338 1.000000 0.500000
0.649598 1.000000 0.500000
0.773854 1.000000 0.500000
0.897280 1.000000 0.500000
1.000000 1.000000 0.500000
0.000000 0.000000 0.625000
0.138559 0.000000 0.625000
0.269540 0.000000 0.625000
0.397805 0.000000 0.625000
0.524338 0.000000 0.625000
0.649598 0.000000 0.625000
0.773854 0.000000 0.625000
0.897280 0.000000 0.625000
1.000000 0.000000 0.625000
0.000000 0.131611 0.625000
0.138559 0.131611 0.625000
0.269540 0.131611 0.625000
0.397805 0.131611 0.625000
0.524338 0.131611 0.625000
0.649598 0.131611 0.625000
0.773854 0.131611 0.625000
0.897280 0.131611 0.625000
1.000000 0.131611 0.625000
0.000000 0.259599 0.625000
0.138559 0.259599 0.625000
0.269540 0.259599 0.625000
0.397805 0.259599 0.625000
0.524338 0.259599 0.625000
0.649598 0.259599 0.625000
0.773854 0.259599 0.625000
0.897280 0.259599 0.625000
1.000000 0.259599 0.625000
0.000000 0.386253 0.625000
0.138559 0.386253 0.625000
0.269540 0.386253 0.625000
0.397805 0.386253 0.625000
0.524338 0.386253 0.625000
0.649598 0.386253 0.625000
0.773854 0.386253 0.625000
0.897280 0.386253 0.625000
1.000000 0.386253 0.625000
0.000000 0.512050 0.625000
0.138559 0.512050 0.625000
0.269540 0.512050 0.625000
0.397805 0.512050 0.625000
0.524338 0.512050 0.625000
0.649598 0.512050 0.625000
0.773854 0.512050 0.625000
0.897280 0.512050 0.625000
1.000000 0.512050 0.625000
0.000000 0.637212 0.625000
0.138559 0.637212 0.625000
0.269540 0.637212 0.625000
0.397805 0.637212 0.625000
0.524338 0.637212 0.625000
0.649598 0.637212 0.625000
0.773854 0.637212 0.625000
0.897280 0.637212 0.625000
1.000000 0.637212 0.625000
0.000000 0.761871 0.625000
0.138559 0.761871 0.625000
0.269540 0.761871 0.625000
0.397805 0.761871 0.625000
0.524338 0.761871 0.625000
0.649598 0.761871 0.625000
0.773854 0.761871 0.625000
0.897280 0.761871 0.625000
1.000000 0.761871 0.625000
0.000000 0.886113 0.625000
0.138559 0.886113 0.625000
0.269540 0.886113 0.625000
0.397805 0.886113 0.625000
0.524338 0.886113 0.625000
0.649598 0.886113 0.625000
0.773854 0.886113 0.625000
0.897280 0.886113 0.625000
1.000000 0.886113 0.625000
0.000000 1.000000 0.625000
0.138559 1.000000 0.625000
0.269540 1.000000 0.625000
0.397805 1.000000 0.625000
0.524338 1.000000 0.625000
0.649598 1.000000 0.625000
0.773854 1.000000 0.625000
0.897280 1.000000 0.625000
1.000000 1.000000 0.625000
0.000000 0.000000 0.750000
0.138559 0.000000 0.750000
0.269540 0.000000 0.750000
0.397805 0.000000 0.750000
0.524338 0.000000 0.750000
0.649598 0.000000 0.750000
0.773854 0.000000 0.750000
0.897280 0.000000 0.750000
1.000000 0.000000 0.750000
0.000000 0.131611 0.750000
0.138559 0.131611 0.750000
0.269540 0.131611 0.750000
0.397805 0.131611 0.750000
0.524338 0.131611 0.750000
0.649598 0.131611 0.750000
0.773854 0.131611 0.750000
0.897280 0.131611 0.750000
1.000000 0.131611 0.750000
0.000000 0.259599 0.750000
0.138559 0.259599 0.750000
0.269540 0.259599 0.750000
0.397805 0.259599 0.750000
0.524338 0.259599 0.750000
0.649598 0.259599 0.750000
0.773854 0.259599 0.750000
0.897280 0.259599 0.750000
1.000000 0.259599 0.750000
0.000000 0.386253 0.750000
0.138559 0.386253 0.750000
0.269540 0.386253 0.750000
0.397805 0.386253 0.750000
0.524338 0.386253 0.750000
0.649598 0.386253 0.750000
0.773854 0.386253 0.750000
0.897280 0.386253 0.750000
1.000000 0.386253 0.750000
0.000000 0.512050 0.750000
0.138559 0.512050 0.750000
0.269540 0.512050 0.750000
0.397805 0.512050 0.750000
0.524338 0.512050 0.750000
0.649598 0.512050 0.750000
0.773854 0.512050 0.750000
0.897280 0.512050 0.750000
1.000000 0.512050 0.750000
0.000000 0.637212 0.750000
0.138559 0.637212 0.750000
0.269540 0.637212 0.750000
0.397805 0.637212 0.750000
0.524338 0.637212 0.750000
0.649598 0.637212 0.750000
0.773854 0.637212 0.750000
0.897280 0.637212 0.750000
1.000000 0.637212 0.750000
0.000000 0.761871 0.750000
0.138559 0.761871 0.750000
0.269540 0.761871 0.750000
0.397805 0.761871 0.750000
0.524338 0.761871 0.750000
0.649598 0.761871 0.750000
0.773854 0.761871 0.750000
0.897280 0.761871 0.750000
1.000000 0.761871 0.750000
0.000000 0.886113 0.750000
0.138559 0.886113 0.750000
0.269540 0.886113 0.750000
0.397805 0.886113 0.750000
0.524338 0.886113 0.750000
0.649598 0.886113 0.750000
0.773854 0.886113 0.750000
0.897280 0.886113 0.750000
1.000000 0.886113 0.750000
0.000000 1.000000 0.750000
0.138559 1.000000 0.750000
0.269540 1.000000 0.750000
0.397805 1.000000 0.750000
0.524338 1.000000 0.750000
0.649598 1.000000 0.750000
0.773854 1.000000 0.750000
0.897280 1.000000 0.750000
1.000000 1.000000 0.750000
0.000000 0.000000 0.875000
0.138559 0.000000 0.875000
0.269540 0.000000 0.875000
0.397805 0.000000 0.875000
0.524338 0.000000 0.875000
0.649598 0.000000 0.875000
0.773854 0.000000 0.875000
0.897280 0.000000 0.875000
1.000000 0.000000 0.875000
0.000000 0.131611 0.875000
0.138559 0.131611 0.875000
0.269540 0.131611 0.875000
0.397805 0.131611 0.875000
0.524338 0.131611 0.875000
0.649598 0.131611 0.875000
0.773854 0.131611 0.875000
0.897280 0.131611 0.875000
1.000000 0.131611 0.875000
0.000000 0.259599 0.875000
0.138559 0.259599 0.875000
0.269540 0.259599 0.875000
0.397805 0.259599 0.875000
0.524338 0.259599 0.875000
0.649598 0.259599 0.875000
0.773854 0.259599 0.875000
0.897280 0.259599 0.875000
1.000000 0.259599 0.875000
0.000000 0.386253 0.875000
0.138559 0.386253 0.875000
0.269540 0.386253 0.875000
0.397805 0.386253 0.875000
0.524338 0.386253 0.875000
0.649598 0.386253 0.875000
0.773854 0.386253 0.875000
0.897280 0.386253 0.875000
1.000000 0.386253 0.875000
0.000000 0.512050 0.875000
0.138559 0.512050 0.875000
0.269540 0.512050 0.875000
0.397805 0.512050 0.875000
0.524338 0.512050 0.875000
0.649598 0.512050 0.875000
0.773854 0.512050 0.875000
0.897280 0.512050 0.875000
1.000000 0.512050 0.875000
0.000000 0.637212 0.875000
0.138559 0.637212 0.875000
0.269540 0.637212 0.875000
0.397805 0.637212 0.875000
0.524338 0.637212 0.875000
0.649598 0.637212 0.875000
0.773854 0.637212 0.875000
0.897280 0.637212 0.875000
1.000000 0.637212 0.875000
0.000000 0.761871 0.875000
0.138559 0.761871 0.875000
0.269540 0.761871 0.875000
0.397805 0.761871 0.875000
0.524338 0.761871 0.875000
0.649598 0.761871 0.875000
0.773854 0.761871 0.875000
0.897280 0.761871 0.875000
1.000000 0.761871 0.875000
0.000000 0.886113 0.875000
0.138559 0.886113 0.875000
0.269540 0.886113 0.875000
0.397805 0.886113 0.875000
0.524338 0.886113 0.875000
0.649598 0.886113 0.875000
0.773854 0.886113 0.875000
0.897280 0.886113 0.875000
1.000000 0.886113 0.875000
0.000000 1.000000 0.875000
0.138559 1.000000 0.875000
0.269540 1.000000 0.875000
0.397805 1.000000 0.875000
0.524338 1.000000 0.875000
0.649598 1.000000 0.875000
0.773854 1.000000 0.875000
0.897280 1.000000 0.875000
1.000000 1.000000 0.875000
0.000000 0.000000 1.000000
0.138559 0.000000 1.000000
0.269540 0.000000 1.000000
0.397805 0.000000 1.000000
0.524338 0.000000 1.000000
0.649598 0.000000 1.000000
0.773854 0.000000 1.000000
0.897280 0.000000 1.000000
1.000000 0.000000 1.000000
0.000000 0.131611 1.000000
0.138559 0.131611 1.000000
0.269540 0.131611 1.000000
0.397805 0.131611 1.000000
0.524338 0.131611 1.000000
0.649598 0.131611 1.000000
0.773854 0.131611 1.000000
0.897280 0.131611 1.000000
1.000000 0.131611 1.000000
0.000000 0.259599 1.000000
0.138559 0.259599 1.000000
0.269540 0.259599 1.000000
0.397805 0.259599 1.000000
0.524338 0.259599 1.000000
0.649598 0.259599 1.000000
0.773854 0.259599 1.000000
0.897280 0.259599 1.000000
1.000000 0.259599 1.000000
0.000000 0.386253 1.000000
0.138559 0.386253 1.000000
0.269540 0.386253 1.000000
0.397805 0.386253 1.000000
0.524338 0.386253 1.000000
0.649598 0.386253 1.000000
0.773854 0.386253 1.000000
0.897280 0.386253 1.000000
1.000000 0.386253 1.000000
0.000000 0.512050 1.000000
0.138559 0.512050 1.000000
0.269540 0.512050 1.000000
0.397805 0.512050 1.000000
0.524338 0.512050 1.000000
0.649598 0.512050 1.000000
0.773854 0.512050 1.000000
0.897280 0.512050 1.000000
1.000000 0.512050 1.000000
0.000000 0.637212 1.000000
0.138559 0.637212 1.000000
0.269540 0.637212 1.000000
0.397805 0.637212 1.000000
0.524338 0.637212 1.000000
0.649598 0.637212 1.000000
0.773854 0.637212 1.000000
0.897280 0.637212 1.000000
1.000000 0.637212 1.000000
0.000000 0.761871 1.000000
0.138559 0.761871 1.000000
0.269540 0.761871 1.000000
0.397805 0.761871 1.000000
0.524338 0.761871 1.000000
0.649598 0.761871 1.000000
0.773854 0.761871 1.000000
0.897280 0.761871 1.000000
1.000000 0.761871 1.000000
0.000000 0.886113 1.000000
0.138559 0.886113 1.000000
0.269540 0.886113 1.000000
0.397805 0.886113 1.000000
0.524338 0.886113 1.000000
0.649598 0.886113 1.000000
0.773854 0.886113 1.000000
0.897280 0.886113 1.000000
1.000000 0.886113 1.000000
0.000000 1.000000 1.000000
0.138559 1.000000 1.000000
0.269540 1.000000 1.000000
0.397805 1.000000 1.000000
0.524338 1.000000 1.000000
0.649598 1.000000 1.000000
0.773854 1.000000 1.000000
0.897280 1.000000 1.000000
1.000000 1.000000 1.000000
