app/src/main/assets/luts/natural.cube
TITLE "Natural"
LUT_3D_SIZE 33
DOMAIN_MIN 0.0 0.0 0.0
DOMAIN_MAX 1.0 1.0 1.0
0.000000 0.000000 0.000000
0.036615 0.000000 0.000000
0.071227 0.000000 0.000000
0.105122 0.000000 0.000000
0.138559 0.000000 0.000000
0.171659 0.000000 0.000000
0.204494 0.000000 0.000000
0.237110 0.000000 0.000000
0.269540 0.000000 0.000000
0.301807 0.000000 0.000000
0.333931 0.000000 0.000000
0.365926 0.000000 0.000000
0.397805 0.000000 0.000000
0.429578 0.000000 0.000000
0.461253 0.000000 0.000000
0.492838 0.000000 0.000000
0.524338 0.000000 0.000000
0.555760 0.000000 0.000000
0.587108 0.000000 0.000000
0.618386 0.000000 0.000000
0.649598 0.000000 0.000000
0.680749 0.000000 0.000000
0.711839 0.000000 0.000000
0.742874 0.000000 0.000000
0.773854 0.000000 0.000000
0.804783 0.000000 0.000000
0.835662 0.000000 0.000000
0.866494 0.000000 0.000000
0.897280 0.000000 0.000000
0.928022 0.000000 0.000000
0.958722 0.000000 0.000000
0.989381 0.000000 0.000000
1.000000 0.000000 0.000000
0.000000 0.033828 0.000000
0.036615 0.033828 0.000000
0.071227 0.033828 0.000000
0.105122 0.033828 0.000000
0.138559 0.033828 0.000000
0.171659 0.033828 0.000000
0.204494 0.033828 0.000000
0.237110 0.033828 0.000000
0.269540 0.033828 0.000000
0.301807 0.033828 0.000000
0.333931 0.033828 0.000000
0.365926 0.033828 0.000000
0.397805 0.033828 0.000000
0.429578 0.033828 0.000000
0.461253 0.033828 0.000000
0.492838 0.033828 0.000000
0.524338 0.033828 0.000000
0.555760 0.033828 0.000000
0.587108 0.033828 0.000000
0.618386 0.033828 0.000000
0.649598 0.033828 0.000000
0.680749 0.033828 0.000000
0.711839 0.033828 0.000000
0.742874 0.033828 0.000000
0.773854 0.033828 0.000000
0.804783 0.033828 0.000000
0.835662 0.033828 0.000000
0.866494 0.033828 0.000000
0.897280 0.033828 0.000000
0.928022 0.033828 0.000000
0.958722 0.033828 0.000000
0.989381 0.033828 0.000000
1.000000 0.033828 0.000000
0.000000 0.066724 0.000000
0.036615 0.066724 0.000000
0.071227 0.066724 0.000000
0.105122 0.066724 0.000000
0.138559 0.066724 0.000000
0.171659 0.066724 0.000000
0.204494 0.066724 0.000000
0.237110 0.066724 0.000000
0.269540 0.066724 0.000000
0.301807 0.066724 0.000000
0.333931 0.066724 0.000000
0.365926 0.066724 0.000000
0.397805 0.066724 0.000000
0.429578 0.066724 0.000000
0.461253 0.066724 0.000000
0.492838 0.066724 0.000000
0.524338 0.066724 0.000000
0.555760 0.066724 0.000000
0.587108 0.066724 0.000000
0.618386 0.066724 0.000000
0.649598 0.066724 0.000000
0.680749 0.066724 0.000000
0.711839 0.066724 0.000000
0.742874 0.066724 0.000000
0.773854 0.066724 0.000000
0.804783 0.066724 0.000000
0.835662 0.066724 0.000000
0.866494 0.066724 0.000000
0.897280 0.066724 0.000000
0.928022 0.066724 0.000000
0.958722 0.066724 0.000000
0.989381 0.066724 0.000000
1.000000 0.066724 0.000000
0.000000 0.099278 0.000000
0.036615 0.099278 0.000000
0.071227 0.099278 0.000000
0.105122 0.099278 0.000000
0.138559 0.099278 0.000000
0.171659 0.099278 0.000000
0.204494 0.099278 0.000000
0.237110 0.099278 0.000000
0.269540 0.099278 0.000000
0.301807 0.099278 0.000000
0.333931 0.099278 0.000000
0.365926 0.099278 0.000000
0.397805 0.099278 0.000000
0.429578 0.099278 0.000000
0.461253 0.099278 0.000000
0.492838 0.099278 0.000000
0.524338 0.099278 0.000000
0.555760 0.099278 0.000000
0.587108 0.099278 0.000000
0.618386 0.099278 0.000000
0.649598 0.099278 0.000000
0.680749 0.099278 0.000000
0.711839 0.099278 0.000000
0.742874 0.099278 0.000000
0.773854 0.099278 0.000000
0.804783 0.099278 0.000000
0.835662 0.099278 0.000000
0.866494 0.099278 0.000000
0.897280 0.099278 0.000000
0.928022 0.099278 0.000000
0.958722 0.099278 0.000000
0.989381 0.099278 0.000000
1.000000 0.099278 0.000000
0.000000 0.131611 0.000000
0.036615 0.131611 0.000000
0.071227 0.131611 0.000000
0.105122 0.131611 0.000000
0.138559 0.131611 0.000000
0.171659 0.131611 0.000000
0.204494 0.131611 0.000000
0.237110 0.131611 0.000000
0.269540 0.131611 0.000000
0.301807 0.131611 0.000000
0.333931 0.131611 0.000000
0.365926 0.131611 0.000000
0.397805 0.131611 0.000000
0.429578 0.131611 0.000000
0.461253 0.131611 0.000000
0.492838 0.131611 0.000000
0.524338 0.131611 0.000000
0.555760 0.131611 0.000000
0.587108 0.131611 0.000000
0.618386 0.131611 0.000000
0.649598 0.131611 0.000000
0.680749 0.131611 0.000000
0.711839 0.131611 0.000000
0.742874 0.131611 0.000000
0.773854 0.131611 0.000000
0.804783 0.131611 0.000000
0.835662 0.131611 0.000000
0.866494 0.131611 0.000000
0.897280 0.131611 0.000000
0.928022 0.131611 0.000000
0.958722 0.131611 0.000000
0.989381 0.131611 0.000000
1.000000 0.131611 0.000000
0.000000 0.163782 0.000000
0.036615 0.163782 0.000000
0.071227 0.163782 0.000000
0.105122 0.163782 0.000000
0.138559 0.163782 0.000000
0.171659 0.163782 0.000000
0.204494 0.163782 0.000000
0.237110 0.163782 0.000000
0.269540 0.163782 0.000000
0.301807 0.163782 0.000000
0.333931 0.163782 0.000000
0.365926 0.163782 0.000000
0.397805 0.163782 0.000000
0.429578 0.163782 0.000000
0.461253 0.163782 0.000000
0.492838 0.163782 0.000000
0.524338 0.163782 0.000000
0.555760 0.163782 0.000000
0.587108 0.163782 0.000000
0.618386 0.163782 0.000000
0.649598 0.163782 0.000000
0.680749 0.163782 0.000000
0.711839 0.163782 0.000000
0.742874 0.163782 0.000000
0.773854 0.163782 0.000000
0.804783 0.163782 0.000000
0.835662 0.163782 0.000000
0.866494 0.163782 0.000000
0.897280 0.163782 0.000000
0.928022 0.163782 0.000000
0.958722 0.163782 0.000000
0.989381 0.163782 0.000000
1.000000 0.163782 0.000000
0.000000 0.195823 0.000000
0.036615 0.195823 0.000000
0.071227 0.195823 0.000000
0.105122 0.195823 0.000000
0.138559 0.195823 0.000000
0.171659 0.195823 0.000000
0.204494 0.195823 0.000000
0.237110 0.195823 0.000000
0.269540 0.195823 0.000000
0.301807 0.195823 0.000000
0.333931 0.195823 0.000000
0.365926 0.195823 0.000000
0.397805 0.195823 0.000000
0.429578 0.195823 0.000000
0.461253 0.195823 0.000000
0.492838 0.195823 0.000000
0.524338 0.195823 0.000000
0.555760 0.195823 0.000000
0.587108 0.195823 0.000000
0.618386 0.195823 0.000000
0.649598 0.195823 0.000000
0.680749 0.195823 0.000000
0.711839 0.195823 0.000000
0.742874 0.195823 0.000000
0.773854 0.195823 0.000000
0.804783 0.195823 0.000000
0.835662 0.195823 0.000000
0.866494 0.195823 0.000000
0.897280 0.195823 0.000000
0.928022 0.195823 0.000000
0.958722 0.195823 0.000000
0.989381 0.195823 0.000000
1.000000 0.195823 0.000000
0.000000 0.227756 0.000000
0.036615 0.227756 0.000000
0.071227 0.227756 0.000000
0.105122 0.227756 0.000000
0.138559 0.227756 0.000000
0.171659 0.227756 0.000000
0.204494 0.227756 0.000000
0.237110 0.227756 0.000000
0.269540 0.227756 0.000000
0.301807 0.227756 0.000000
0.333931 0.227756 0.000000
0.365926 0.227756 0.000000
0.397805 0.227756 0.000000
0.429578 0.227756 0.000000
0.461253 0.227756 0.000000
0.492838 0.227756 0.000000
0.524338 0.227756 0.000000
0.555760 0.227756 0.000000
0.587108 0.227756 0.000000
0.618386 0.227756 0.000000
0.649598 0.227756 0.000000
0.680749 0.227756 0.000000
0.711839 0.227756 0.000000
0.742874 0.227756 0.000000
0.773854 0.227756 0.000000
0.804783 0.227756 0.000000
0.835662 0.227756 0.000000
0.866494 0.227756 0.000000
0.897280 0.227756 0.000000
0.928022 0.227756 0.000000
0.958722 0.227756 0.000000
0.989381 0.227756 0.000000
1.000000 0.227756 0.000000
0.000000 0.259599 0.000000
0.036615 0.259599 0.000000
0.071227 0.259599 0.000000
0.105122 0.259599 0.000000
0.138559 0.259599 0.000000
0.171659 0.259599 0.000000
0.204494 0.259599 0.000000
0.237110 0.259599 0.000000
0.269540 0.259599 0.000000
0.301807 0.259599 0.000000
0.333931 0.259599 0.000000
0.365926 0.259599 0.000000
0.397805 0.259599 0.000000
0.429578 0.259599 0.000000
0.461253 0.259599 0.000000
0.492838 0.259599 0.000000
0.524338 0.259599 0.000000
0.555760 0.259599 0.000000
0.587108 0.259599 0.000000
0.618386 0.259599 0.000000
0.649598 0.259599 0.000000
0.680749 0.259599 0.000000
0.711839 0.259599 0.000000
0.742874 0.259599 0.000000
0.773854 0.259599 0.000000
0.804783 0.259599 0.000000
0.835662 0.259599 0.000000
0.866494 0.259599 0.000000
0.897280 0.259599 0.000000
0.928022 0.259599 0.000000
0.958722 0.259599 0.000000
0.989381 0.259599 0.000000
1.000000 0.259599 0.000000
0.000000 0.291361 0.000000
0.036615 0.291361 0.000000
0.071227 0.291361 0.000000
0.105122 0.291361 0.000000
0.138559 0.291361 0.000000
0.171659 0.291361 0.000000
0.204494 0.291361 0.000000
0.237110 0.291361 0.000000
0.269540 0.291361 0.000000
0.301807 0.291361 0.000000
0.333931 0.291361 0.000000
0.365926 0.291361 0.000000
0.397805 0.291361 0.000000
0.429578 0.291361 0.000000
0.461253 0.291361 0.000000
0.492838 0.291361 0.000000
0.524338 0.291361 0.000000
0.555760 0.291361 0.000000
0.587108 0.291361 0.000000
0.618386 0.291361 0.000000
0.649598 0.291361 0.000000
0.680749 0.291361 0.000000
0.711839 0.291361 0.000000
0.742874 0.291361 0.000000
0.773854 0.291361 0.000000
0.804783 0.291361 0.000000
0.835662 0.291361 0.000000
0.866494 0.291361 0.000000
0.897280 0.291361 0.000000
0.928022 0.291361 0.000000
0.958722 0.291361 0.000000
0.989381 0.291361 0.000000
1.000000 0.291361 0.000000
0.000000 0.323053 0.000000
0.036615 0.323053 0.000000
0.071227 0.323053 0.000000
0.105122 0.323053 0.000000
0.138559 0.323053 0.000000
0.171659 0.323053 0.000000
0.204494 0.323053 0.000000
0.237110 0.323053 0.000000
0.269540 0.323053 0.000000
0.301807 0.323053 0.000000
0.333931 0.323053 0.000000
0.365926 0.323053 0.000000
0.397805 0.323053 0.000000
0.429578 0.323053 0.000000
0.461253 0.323053 0.000000
0.492838 0.323053 0.000000
0.524338 0.323053 0.000000
0.555760 0.323053 0.000000
0.587108 0.323053 0.000000
0.618386 0.323053 0.000000
0.649598 0.323053 0.000000
0.680749 0.323053 0.000000
0.711839 0.323053 0.000000
0.742874 0.323053 0.000000
0.773854 0.323053 0.000000
0.804783 0.323053 0.000000
0.835662 0.323053 0.000000
0.866494 0.323053 0.000000
0.897280 0.323053 0.000000
0.928022 0.323053 0.000000
0.958722 0.323053 0.000000
0.989381 0.323053 0.000000
1.000000 0.323053 0.000000
0.000000 0.354682 0.000000
0.036615 0.354682 0.000000
0.071227 0.354682 0.000000
0.105122 0.354682 0.000000
0.138559 0.354682 0.000000
0.171659 0.354682 0.000000
0.204494 0.354682 0.000000
0.237110 0.354682 0.000000
0.269540 0.354682 0.000000
0.301807 0.354682 0.000000
0.333931 0.354682 0.000000
0.365926 0.354682 0.000000
0.397805 0.354682 0.000000
0.429578 0.354682 0.000000
0.461253 0.354682 0.000000
0.492838 0.354682 0.000000
0.524338 0.354682 0.000000
0.555760 0.354682 0.000000
0.587108 0.354682 0.000000
0.618386 0.354682 0.000000
0.649598 0.354682 0.000000
0.680749 0.354682 0.000000
0.711839 0.354682 0.000000
0.742874 0.354682 0.000000
0.773854 0.354682 0.000000
0.804783 0.354682 0.000000
0.835662 0.354682 0.000000
0.866494 0.354682 0.000000
0.897280 0.354682 0.000000
0.928022 0.354682 0.000000
0.958722 0.354682 0.000000
0.989381 0.354682 0.000000
1.000000 0.354682 0.000000
0.000000 0.386253 0.000000
0.036615 0.386253 0.000000
0.071227 0.386253 0.000000
0.105122 0.386253 0.000000
0.138559 0.386253 0.000000
0.171659 0.386253 0.000000
0.204494 0.386253 0.000000
0.237110 0.386253 0.000000
0.269540 0.386253 0.000000
0.301807 0.386253 0.000000
0.333931 0.386253 0.000000
0.365926 0.386253 0.000000
0.397805 0.386253 0.000000
0.429578 0.386253 0.000000
0.461253 0.386253 0.000000
0.492838 0.386253 0.000000
0.524338 0.386253 0.000000
0.555760 0.386253 0.000000
0.587108 0.386253 0.000000
0.618386 0.386253 0.000000
0.649598 0.386253 0.000000
0.680749 0.386253 0.000000
0.711839 0.386253 0.000000
0.742874 0.386253 0.000000
0.773854 0.386253 0.000000
0.804783 0.386253 0.000000
0.835662 0.386253 0.000000
0.866494 0.386253 0.000000
0.897280 0.386253 0.000000
0.928022 0.386253 0.000000
0.958722 0.386253 0.000000
0.989381 0.386253 0.000000
1.000000 0.386253 0.000000
0.000000 0.417772 0.000000
0.036615 0.417772 0.000000
0.071227 0.417772 0.000000
0.105122 0.417772 0.000000
0.138559 0.417772 0.000000
0.171659 0.417772 0.000000
0.204494 0.417772 0.000000
0.237110 0.417772 0.000000
0.269540 0.417772 0.000000
0.301807 0.417772 0.000000
0.333931 0.417772 0.000000
0.365926 0.417772 0.000000
0.397805 0.417772 0.000000
0.429578 0.417772 0.000000
0.461253 0.417772 0.000000
0.492838 0.417772 0.000000
0.524338 0.417772 0.000000
0.555760 0.417772 0.000000
0.587108 0.417772 0.000000
0.618386 0.417772 0.000000
0.649598 0.417772 0.000000
0.680749 0.417772 0.000000
0.711839 0.417772 0.000000
0.742874 0.417772 0.000000
0.773854 0.417772 0.000000
0.804783 0.417772 0.000000
0.835662 0.417772 0.000000
0.866494 0.417772 0.000000
0.897280 0.417772 0.000000
0.928022 0.417772 0.000000
0.958722 0.417772 0.000000
0.989381 0.417772 0.000000
1.000000 0.417772 0.000000
0.000000 0.449242 0.000000
0.036615 0.449242 0.000000
0.071227 0.449242 0.000000
0.105122 0.449242 0.000000
0.138559 0.449242 0.000000
0.171659 0.449242 0.000000
0.204494 0.449242 0.000000
0.237110 0.449242 0.000000
0.269540 0.449242 0.000000
0.301807 0.449242 0.000000
0.333931 0.449242 0.000000
0.365926 0.449242 0.000000
0.397805 0.449242 0.000000
0.429578 0.449242 0.000000
0.461253 0.449242 0.000000
0.492838 0.449242 0.000000
0.524338 0.449242 0.000000
0.555760 0.449242 0.000000
0.587108 0.449242 0.000000
0.618386 0.449242 0.000000
0.649598 0.449242 0.000000
0.680749 0.449242 0.000000
0.711839 0.449242 0.000000
0.742874 0.449242 0.000000
0.773854 0.449242 0.000000
0.804783 0.449242 0.000000
0.835662 0.449242 0.000000
0.866494 0.449242 0.000000
0.897280 0.449242 0.000000
0.928022 0.449242 0.000000
0.958722 0.449242 0.000000
0.989381 0.449242 0.000000
1.000000 0.449242 0.000000
0.000000 0.480666 0.000000
0.036615 0.480666 0.000000
0.071227 0.480666 0.000000
0.105122 0.480666 0.000000
0.138559 0.480666 0.000000
0.171659 0.480666 0.000000
0.204494 0.480666 0.000000
0.237110 0.480666 0.000000
0.269540 0.480666 0.000000
0.301807 0.480666 0.000000
0.333931 0.480666 0.000000
0.365926 0.480666 0.000000
0.397805 0.480666 0.000000
0.429578 0.480666 0.000000
0.461253 0.480666 0.000000
0.492838 0.480666 0.000000
0.524338 0.480666 0.000000
0.555760 0.480666 0.000000
0.587108 0.480666 0.000000
0.618386 0.480666 0.000000
0.649598 0.480666 0.000000
0.680749 0.480666 0.000000
0.711839 0.480666 0.000000
0.742874 0.480666 0.000000
0.773854 0.480666 0.000000
0.804783 0.480666 0.000000
0.835662 0.480666 0.000000
0.866494 0.480666 0.000000
0.897280 0.480666 0.000000
0.928022 0.480666 0.000000
0.958722 0.480666 0.000000
0.989381 0.480666 0.000000
1.000000 0.480666 0.000000
0.000000 0.512050 0.000000
0.036615 0.512050 0.000000
0.071227 0.512050 0.000000
0.105122 0.512050 0.000000
0.138559 0.512050 0.000000
0.171659 0.512050 0.000000
0.204494 0.512050 0.000000
0.237110 0.512050 0.000000
0.269540 0.512050 0.000000
0.301807 0.512050 0.000000
0.333931 0.512050 0.000000
0.365926 0.512050 0.000000
0.397805 0.512050 0.000000
0.429578 0.512050 0.000000
0.461253 0.512050 0.000000
0.492838 0.512050 0.000000
0.524338 0.512050 0.000000
0.555760 0.512050 0.000000
0.587108 0.512050 0.000000
0.618386 0.512050 0.000000
0.649598 0.512050 0.000000
0.680749 0.512050 0.000000
0.711839 0.512050 0.000000
0.742874 0.512050 0.000000
0.773854 0.512050 0.000000
0.804783 0.512050 0.000000
0.835662 0.512050 0.000000
0.866494 0.512050 0.000000
0.897280 0.512050 0.000000
0.928022 0.512050 0.000000
0.958722 0.512050 0.000000
0.989381 0.512050 0.000000
1.000000 0.512050 0.000000
0.000000 0.543393 0.000000
0.036615 0.543393 0.000000
0.071227 0.543393 0.000000
0.105122 0.543393 0.000000
0.138559 0.543393 0.000000
0.171659 0.543393 0.000000
0.204494 0.543393 0.000000
0.237110 0.543393 0.000000
0.269540 0.543393 0.000000
0.301807 0.543393 0.000000
0.333931 0.543393 0.000000
0.365926 0.543393 0.000000
0.397805 0.543393 0.000000
0.429578 0.543393 0.000000
0.461253 0.543393 0.000000
0.492838 0.543393 0.000000
0.524338 0.543393 0.000000
0.555760 0.543393 0.000000
0.587108 0.543393 0.000000
0.618386 0.543393 0.000000
0.649598 0.543393 0.000000
0.680749 0.543393 0.000000
0.711839 0.543393 0.000000
0.742874 0.543393 0.000000
0.773854 0.543393 0.000000
0.804783 0.543393 0.000000
0.835662 0.543393 0.000000
0.866494 0.543393 0.000000
0.897280 0.543393 0.000000
0.928022 0.543393 0.000000
0.958722 0.543393 0.000000
0.989381 0.543393 0.000000
1.000000 0.543393 0.000000
0.000000 0.574700 0.000000
0.036615 0.574700 0.000000
0.071227 0.574700 0.000000
0.105122 0.574700 0.000000
0.138559 0.574700 0.000000
0.171659 0.574700 0.000000
0.204494 0.574700 0.000000
0.237110 0.574700 0.000000
0.269540 0.574700 0.000000
0.301807 0.574700 0.000000
0.333931 0.574700 0.000000
0.365926 0.574700 0.000000
0.397805 0.574700 0.000000
0.429578 0.574700 0.000000
0.461253 0.574700 0.000000
0.492838 0.574700 0.000000
0.524338 0.574700 0.000000
0.555760 0.574700 0.000000
0.587108 0.574700 0.000000
0.618386 0.574700 0.000000
0.649598 0.574700 0.000000
0.680749 0.574700 0.000000
0.711839 0.574700 0.000000
0.742874 0.574700 0.000000
0.773854 0.574700 0.000000
0.804783 0.574700 0.000000
0.835662 0.574700 0.000000
0.866494 0.574700 0.000000
0.897280 0.574700 0.000000
0.928022 0.574700 0.000000
0.958722 0.574700 0.000000
0.989381 0.574700 0.000000
1.000000 0.574700 0.000000
0.000000 0.605973 0.000000
0.036615 0.605973 0.000000
0.071227 0.605973 0.000000
0.105122 0.605973 0.000000
0.138559 0.605973 0.000000
0.171659 0.605973 0.000000
0.204494 0.605973 0.000000
0.237110 0.605973 0.000000
0.269540 0.605973 0.000000
0.301807 0.605973 0.000000
0.333931 0.605973 0.000000
0.365926 0.605973 0.000000
0.397805 0.605973 0.000000
0.429578 0.605973 0.000000
0.461253 0.605973 0.000000
0.492838 0.605973 0.000000
0.524338 0.605973 0.000000
0.555760 0.605973 0.000000
0.587108 0.605973 0.000000
0.618386 0.605973 0.000000
0.649598 0.605973 0.000000
0.680749 0.605973 0.000000
0.711839 0.605973 0.000000
0.742874 0.605973 0.000000
0.773854 0.605973 0.000000
0.804783 0.605973 0.000000
0.835662 0.605973 0.000000
0.866494 0.605973 0.000000
0.897280 0.605973 0.000000
0.928022 0.605973 0.000000
0.958722 0.605973 0.000000
0.989381 0.605973 0.000000
1.000000 0.605973 0.000000
0.000000 0.637212 0.000000
0.036615 0.637212 0.000000
0.071227 0.637212 0.000000
0.105122 0.637212 0.000000
0.138559 0.637212 0.000000
0.171659 0.637212 0.000000
0.204494 0.637212 0.000000
0.237110 0.637212 0.000000
0.269540 0.637212 0.000000
0.301807 0.637212 0.000000
0.333931 0.637212 0.000000
0.365926 0.637212 0.000000
0.397805 0.637212 0.000000
0.429578 0.637212 0.000000
0.461253 0.637212 0.000000
0.492838 0.637212 0.000000
0.524338 0.637212 0.000000
0.555760 0.637212 0.000000
0.587108 0.637212 0.000000
0.618386 0.637212 0.000000
0.649598 0.637212 0.000000
0.680749 0.637212 0.000000
0.711839 0.637212 0.000000
0.742874 0.637212 0.000000
0.773854 0.637212 0.000000
0.804783 0.637212 0.000000
0.835662 0.637212 0.000000
0.866494 0.637212 0.000000
0.897280 0.637212 0.000000
0.928022 0.637212 0.000000
0.958722 0.637212 0.000000
0.989381 0.637212 0.000000
1.000000 0.637212 0.000000
0.000000 0.668420 0.000000
0.036615 0.668420 0.000000
0.071227 0.668420 0.000000
0.105122 0.668420 0.000000
0.138559 0.668420 0.000000
0.171659 0.668420 0.000000
0.204494 0.668420 0.000000
0.237110 0.668420 0.000000
0.269540 0.668420 0.000000
0.301807 0.668420 0.000000
0.333931 0.668420 0.000000
0.365926 0.668420 0.000000
0.397805 0.668420 0.000000
0.429578 0.668420 0.000000
0.461253 0.668420 0.000000
0.492838 0.668420 0.000000
0.524338 0.668420 0.000000
0.555760 0.668420 0.000000
0.587108 0.668420 0.000000
0.618386 0.668420 0.000000
0.649598 0.668420 0.000000
0.680749 0.668420 0.000000
0.711839 0.668420 0.000000
0.742874 0.668420 0.000000
0.773854 0.668420 0.000000
0.804783 0.668420 0.000000
0.835662 0.668420 0.000000
0.866494 0.668420 0.000000
0.897280 0.668420 0.000000
0.928022 0.668420 0.000000
0.958722 0.668420 0.000000
0.989381 0.668420 0.000000
1.000000 0.668420 0.000000
0.000000 0.699598 0.000000
0.036615 0.699598 0.000000
0.071227 0.699598 0.000000
0.105122 0.699598 0.000000
0.138559 0.699598 0.000000
0.171659 0.699598 0.000000
0.204494 0.699598 0.000000
0.237110 0.699598 0.000000
0.269540 0.699598 0.000000
0.301807 0.699598 0.000000
0.333931 0.699598 0.000000
0.365926 0.699598 0.000000
0.397805 0.699598 0.000000
0.429578 0.699598 0.000000
0.461253 0.699598 0.000000
0.492838 0.699598 0.000000
0.524338 0.699598 0.000000
0.555760 0.699598 0.000000
0.587108 0.699598 0.000000
0.618386 0.699598 0.000000
0.649598 0.699598 0.000000
0.680749 0.699598 0.000000
0.711839 0.699598 0.000000
0.742874 0.699598 0.000000
0.773854 0.699598 0.000000
0.804783 0.699598 0.000000
0.835662 0.699598 0.000000
0.866494 0.699598 0.000000
0.897280 0.699598 0.000000
0.928022 0.699598 0.000000
0.958722 0.699598 0.000000
0.989381 0.699598 0.000000
1.000000 0.699598 0.000000
0.000000 0.730748 0.000000
0.036615 0.730748 0.000000
0.071227 0.730748 0.000000
0.105122 0.730748 0.000000
0.138559 0.730748 0.000000
0.171659 0.730748 0.000000
0.204494 0.730748 0.000000
0.237110 0.730748 0.000000
0.269540 0.730748 0.000000
0.301807 0.730748 0.000000
0.333931 0.730748 0.000000
0.365926 0.730748 0.000000
0.397805 0.730748 0.000000
0.429578 0.730748 0.000000
0.461253 0.730748 0.000000
0.492838 0.730748 0.000000
0.524338 0.730748 0.000000
0.555760 0.730748 0.000000
0.587108 0.730748 0.000000
0.618386 0.730748 0.000000
0.649598 0.730748 0.000000
0.680749 0.730748 0.000000
0.711839 0.730748 0.000000
0.742874 0.730748 0.000000
0.773854 0.730748 0.000000
0.804783 0.730748 0.000000
0.835662 0.730748 0.000000
0.866494 0.730748 0.000000
0.897280 0.730748 0.000000
0.928022 0.730748 0.000000
0.958722 0.730748 0.000000
0.989381 0.730748 0.000000
1.000000 0.730748 0.000000
0.000000 0.761871 0.000000
0.036615 0.761871 0.000000
0.071227 0.761871 0.000000
0.105122 0.761871 0.000000
0.138559 0.761871 0.000000
0.171659 0.761871 0.000000
0.204494 0.761871 0.000000
0.237110 0.761871 0.000000
0.269540 0.761871 0.000000
0.301807 0.761871 0.000000
0.333931 0.761871 0.000000
0.365926 0.761871 0.000000
0.397805 0.761871 0.000000
0.429578 0.761871 0.000000
0.461253 0.761871 0.000000
0.492838 0.761871 0.000000
0.524338 0.761871 0.000000
0.555760 0.761871 0.000000
0.587108 0.761871 0.000000
0.618386 0.761871 0.000000
0.649598 0.761871 0.000000
0.680749 0.761871 0.000000
0.711839 0.761871 0.000000
0.742874 0.761871 0.000000
0.773854 0.761871 0.000000
0.804783 0.761871 0.000000
0.835662 0.761871 0.000000
0.866494 0.761871 0.000000
0.897280 0.761871 0.000000
0.928022 0.761871 0.000000
0.958722 0.761871 0.000000
0.989381 0.761871 0.000000
1.000000 0.761871 0.000000
0.000000 0.792968 0.000000
0.036615 0.792968 0.000000
0.071227 0.792968 0.000000
0.105122 0.792968 0.000000
0.138559 0.792968 0.000000
0.171659 0.792968 0.000000
0.204494 0.792968 0.000000
0.237110 0.792968 0.000000
0.269540 0.792968 0.000000
0.301807 0.792968 0.000000
0.333931 0.792968 0.000000
0.365926 0.792968 0.000000
0.397805 0.792968 0.000000
0.429578 0.792968 0.000000
0.461253 0.792968 0.000000
0.492838 0.792968 0.000000
0.524338 0.792968 0.000000
0.555760 0.792968 0.000000
0.587108 0.792968 0.000000
0.618386 0.792968 0.000000
0.649598 0.792968 0.000000
0.680749 0.792968 0.000000
0.711839 0.792968 0.000000
0.742874 0.792968 0.000000
0.773854 0.792968 0.000000
0.804783 0.792968 0.000000
0.835662 0.792968 0.000000
0.866494 0.792968 0.000000
0.897280 0.792968 0.000000
0.928022 0.792968 0.000000
0.958722 0.792968 0.000000
0.989381 0.792968 0.000000
1.000000 0.792968 0.000000
0.000000 0.824040 0.000000
0.036615 0.824040 0.000000
0.071227 0.824040 0.000000
0.105122 0.824040 0.000000
0.138559 0.824040 0.000000
0.171659 0.824040 0.000000
0.204494 0.824040 0.000000
0.237110 0.824040 0.000000
0.269540 0.824040 0.000000
0.301807 0.824040 0.000000
0.333931 0.824040 0.000000
0.365926 0.824040 0.000000
0.397805 0.824040 0.000000
0.429578 0.824040 0.000000
0.461253 0.824040 0.000000
0.492838 0.824040 0.000000
0.524338 0.824040 0.000000
0.555760 0.824040 0.000000
0.587108 0.824040 0.000000
0.618386 0.824040 0.000000
0.649598 0.824040 0.000000
0.680749 0.824040 0.000000
0.711839 0.824040 0.000000
0.742874 0.824040 0.000000
0.773854 0.824040 0.000000
0.804783 0.824040 0.000000
0.835662 0.824040 0.000000
0.866494 0.824040 0.000000
