app/src/main/assets/luts/natural.cube
TITLE "Natural"
LUT_3D_SIZE 5
DOMAIN_MIN 0.0 0.0 0.0
DOMAIN_MAX 1.0 1.0 1.0
0.000000 0.000000 0.000000
0.269540 0.000000 0.000000
0.524338 0.000000 0.000000
0.773854 0.000000 0.000000
1.000000 0.000000 0.000000
0.000000 0.259599 0.000000
0.269540 0.259599 0.000000
0.524338 0.259599 0.000000
0.773854 0.259599 0.000000
1.000000 0.259599 0.000000
0.000000 0.512050 0.000000
0.269540 0.512050 0.000000
0.524338 0.512050 0.000000
0.773854 0.512050 0.000000
1.000000 0.512050 0.000000
0.000000 0.761871 0.000000
0.269540 0.761871 0.000000
0.524338 0.761871 0.000000
0.773854 0.761871 0.000000
1.000000 0.761871 0.000000
0.000000 1.000000 0.000000
0.269540 1.000000 0.000000
0.524338 1.000000 0.000000
0.773854 1.000000 0.000000
1.000000 1.000000 0.000000
0.000000 0.000000 0.250000
0.269540 0.000000 0.250000
0.524338 0.000000 0.250000
0.773854 0.000000 0.250000
1.000000 0.000000 0.250000
0.000000 0.259599 0.250000
0.269540 0.259599 0.250000
0.524338 0.259599 0.250000
0.773854 0.259599 0.250000
1.000000 0.259599 0.250000
0.000000 0.512050 0.250000
0.269540 0.512050 0.250000
0.524338 0.512050 0.250000
0.773854 0.512050 0.250000
1.000000 0.512050 0.250000
0.000000 0.761871 0.250000
0.269540 0.761871 0.250000
0.524338 0.761871 0.250000
0.773854 0.761871 0.250000
1.000000 0.761871 0.250000
0.000000 1.000000 0.250000
0.269540 1.000000 0.250000
0.524338 1.000000 0.250000
0.773854 1.000000 0.250000
1.000000 1.000000 0.250000
0.000000 0.000000 0.500000
0.269540 0.000000 0.500000
0.524338 0.000000 0.500000
0.773854 0.000000 0.500000
1.000000 0.000000 0.500000
0.000000 0.259599 0.500000
0.269540 0.259599 0.500000
0.524338 0.259599 0.500000
0.773854 0.259599 0.500000
1.000000 0.259599 0.500000
0.000000 0.512050 0.500000
0.269540 0.512050 0.500000
0.524338 0.512050 0.500000
0.773854 0.512050 0.500000
1.000000 0.512050 0.500000
0.000000 0.761871 0.500000
0.269540 0.761871 0.500000
0.524338 0.761871 0.500000
0.773854 0.761871 0.500000
1.000000 0.761871 0.500000
0.000000 1.000000 0.500000
0.269540 1.000000 0.500000
0.524338 1.000000 0.500000
0.773854 1.000000 0.500000
1.000000 1.000000 0.500000
0.000000 0.000000 0.750000
0.269540 0.000000 0.750000
0.524338 0.000000 0.750000
0.773854 0.000000 0.750000
1.000000 0.000000 0.750000
0.000000 0.259599 0.750000
0.269540 0.259599 0.750000
0.524338 0.259599 0.750000
0.773854 0.259599 0.750000
1.000000 0.259599 0.750000
0.000000 0.512050 0.750000
0.269540 0.512050 0.750000
0.524338 0.512050 0.750000
0.773854 0.512050 0.750000
1.000000 0.512050 0.750000
0.000000 0.761871 0.750000
0.269540 0.761871 0.750000
0.524338 0.761871 0.750000
0.773854 0.761871 0.750000
1.000000 0.761871 0.750000
0.000000 1.000000 0.750000
0.269540 1.000000 0.750000
0.524338 1.000000 0.750000
0.773854 1.000000 0.750000
1.000000 1.000000 0.750000
0.000000 0.000000 1.000000
0.269540 0.000000 1.000000
0.524338 0.000000 1.000000
0.773854 0.000000 1.000000
1.000000 0.000000 1.000000
0.000000 0.259599 1.000000
0.269540 0.259599 1.000000
0.524338 0.259599 1.000000
0.773854 0.259599 1.000000
1.000000 0.259599 1.000000
0.000000 0.512050 1.000000
0.269540 0.512050 1.000000
0.524338 0.512050 1.000000
0.773854 0.512050 1.000000
1.000000 0.512050 1.000000
0.000000 0.761871 1.000000
0.269540 0.761871 1.000000
0.524338 0.761871 1.000000
0.773854 0.761871 1.000000
1.000000 0.761871 1.000000
0.000000 1.000000 1.000000
0.269540 1.000000 1.000000
0.524338 1.000000 1.000000
0.773854 1.000000 1.000000
1.000000 1.000000 1.000000
