app/src/main/assets/luts/noir.cube
TITLE "Noir"
LUT_3D_SIZE 5
DOMAIN_MIN 0.0 0.0 0.0
DOMAIN_MAX 1.0 1.0 1.0
0.000000 0.000000 0.000000
0.034711 0.034711 0.034711
0.101412 0.101412 0.101412
0.173538 0.173538 0.173538
0.249430 0.249430 0.249430
0.098847 0.098847 0.098847
0.170811 0.170811 0.170811
0.246582 0.246582 0.246582
0.325306 0.325306 0.325306
0.406460 0.406460 0.406460
0.243738 0.243738 0.243738
0.322364 0.322364 0.322364
0.403436 0.403436 0.403436
0.486596 0.486596 0.486596
0.571583 0.571583 0.571583
0.400415 0.400415 0.400415
0.483503 0.483503 0.483503
0.568426 0.568426 0.568426
0.654983 0.654983 0.654983
0.743016 0.743016 0.743016
0.565272 0.565272 0.565272
0.651772 0.651772 0.651772
0.739753 0.739753 0.739753
0.829086 0.829086 0.829086
0.919664 0.919664 0.919664
0.000000 0.000000 0.000000
0.059323 0.059323 0.059323
0.128391 0.128391 0.128391
0.202085 0.202085 0.202085
0.279169 0.279169 0.279169
0.125757 0.125757 0.125757
0.199308 0.199308 0.199308
0.276282 0.276282 0.276282
0.355983 0.355983 0.355983
0.437965 0.437965 0.437965
0.273399 0.273399 0.273399
0.353008 0.353008 0.353008
0.434912 0.434912 0.434912
0.518795 0.518795 0.518795
0.604423 0.604423 0.604423
0.431862 0.431862 0.431862
0.515677 0.515677 0.515677
0.601244 0.601244 0.601244
0.688381 0.688381 0.688381
0.776942 0.776942 0.776942
0.598068 0.598068 0.598068
0.685149 0.685149 0.685149
0.773660 0.773660 0.773660
0.863479 0.863479 0.863479
0.954507 0.954507 0.954507
0.020057 0.020057 0.020057
0.084987 0.084987 0.084987
0.156028 0.156028 0.156028
0.231119 0.231119 0.231119
0.309300 0.309300 0.309300
0.153335 0.153335 0.153335
0.228298 0.228298 0.228298
0.306376 0.306376 0.306376
0.386990 0.386990 0.386990
0.469755 0.469755 0.469755
0.303456 0.303456 0.303456
0.383985 0.383985 0.383985
0.466675 0.466675 0.466675
0.551248 0.551248 0.551248
0.637491 0.637491 0.637491
0.463598 0.463598 0.463598
0.548106 0.548106 0.548106
0.634291 0.634291 0.634291
0.721986 0.721986 0.721986
0.811057 0.811057 0.811057
0.631092 0.631092 0.631092
0.718734 0.718734 0.718734
0.807757 0.807757 0.807757
0.898048 0.898048 0.898048
0.989514 0.989514 0.989514
0.043854 0.043854 0.043854
0.111505 0.111505 0.111505
0.184245 0.184245 0.184245
0.260599 0.260599 0.260599
0.339795 0.339795 0.339795
0.181499 0.181499 0.181499
0.257736 0.257736 0.257736
0.336837 0.336837 0.336837
0.418309 0.418309 0.418309
0.501816 0.501816 0.501816
0.333882 0.333882 0.333882
0.415274 0.415274 0.415274
0.498711 0.498711 0.498711
0.583943 0.583943 0.583943
0.670777 0.670777 0.670777
0.495608 0.495608 0.495608
0.580778 0.580778 0.580778
0.667556 0.667556 0.667556
0.755790 0.755790 0.755790
0.845355 0.845355 0.845355
0.664337 0.664337 0.664337
0.752520 0.752520 0.752520
0.842038 0.842038 0.842038
0.932787 0.932787 0.932787
1.000000 1.000000 1.000000
0.068892 0.068892 0.068892
0.138743 0.138743 0.138743
0.212982 0.212982 0.212982
0.290490 0.290490 0.290490
0.370631 0.370631 0.370631
0.210187 0.210187 0.210187
0.287589 0.287589 0.287589
0.367641 0.367641 0.367641
0.449923 0.449923 0.449923
0.534137 0.534137 0.534137
0.364654 0.364654 0.364654
0.446860 0.446860 0.446860
0.531007 0.531007 0.531007
0.616870 0.616870 0.616870
0.704274 0.704274 0.704274
0.527880 0.527880 0.527880
0.613683 0.613683 0.613683
0.701033 0.701033 0.701033
0.789788 0.789788 0.789788
0.879832 0.879832 0.879832
0.697793 0.697793 0.697793
0.786499 0.786499 0.786499
0.876498 0.876498 0.876498
0.967692 0.967692 0.967692
1.000000 1.000000 1.000000
