app/src/main/assets/luts/noir.cube
TITLE "Noir"
LUT_3D_SIZE 9
DOMAIN_MIN 0.0 0.0 0.0
DOMAIN_MAX 1.0 1.0 1.0
0.000000 0.000000 0.000000
0.004654 0.004654 0.004654
0.034711 0.034711 0.034711
0.067213 0.067213 0.067213
0.101412 0.101412 0.101412
0.136931 0.136931 0.136931
0.173538 0.173538 0.173538
0.211076 0.211076 0.211076
0.249430 0.249430 0.249430
0.033556 0.033556 0.033556
0.065984 0.065984 0.065984
0.100129 0.100129 0.100129
0.135603 0.135603 0.135603
0.172174 0.172174 0.172174
0.209680 0.209680 0.209680
0.248005 0.248005 0.248005
0.287061 0.287061 0.287061
0.326778 0.326778 0.326778
0.098847 0.098847 0.098847
0.134278 0.134278 0.134278
0.170811 0.170811 0.170811
0.208285 0.208285 0.208285
0.246582 0.246582 0.246582
0.285613 0.285613 0.285613
0.325306 0.325306 0.325306
0.365604 0.365604 0.365604
0.406460 0.406460 0.406460
0.169450 0.169450 0.169450
0.206891 0.206891 0.206891
0.245160 0.245160 0.245160
0.284164 0.284164 0.284164
0.323834 0.323834 0.323834
0.364112 0.364112 0.364112
0.404948 0.404948 0.404948
0.446304 0.446304 0.446304
0.488144 0.488144 0.488144
0.243738 0.243738 0.243738
0.282717 0.282717 0.282717
0.322364 0.322364 0.322364
0.362620 0.362620 0.362620
0.403436 0.403436 0.403436
0.444773 0.444773 0.444773
0.486596 0.486596 0.486596
0.528875 0.528875 0.528875
0.571583 0.571583 0.571583
0.320894 0.320894 0.320894
0.361128 0.361128 0.361128
0.401925 0.401925 0.401925
0.443244 0.443244 0.443244
0.485049 0.485049 0.485049
0.527311 0.527311 0.527311
0.570004 0.570004 0.570004
0.613104 0.613104 0.613104
0.656590 0.656590 0.656590
0.400415 0.400415 0.400415
0.441715 0.441715 0.441715
0.483503 0.483503 0.483503
0.525749 0.525749 0.525749
0.568426 0.568426 0.568426
0.611511 0.611511 0.611511
0.654983 0.654983 0.654983
0.698824 0.698824 0.698824
0.743016 0.743016 0.743016
0.481957 0.481957 0.481957
0.524187 0.524187 0.524187
0.566849 0.566849 0.566849
0.609919 0.609919 0.609919
0.653377 0.653377 0.653377
0.697205 0.697205 0.697205
0.741384 0.741384 0.741384
0.785901 0.785901 0.785901
0.830741 0.830741 0.830741
0.565272 0.565272 0.565272
0.608328 0.608328 0.608328
0.651772 0.651772 0.651772
0.695586 0.695586 0.695586
0.739753 0.739753 0.739753
0.784258 0.784258 0.784258
0.829086 0.829086 0.829086
0.874225 0.874225 0.874225
0.919664 0.919664 0.919664
0.000000 0.000000 0.000000
0.015745 0.015745 0.015745
0.046869 0.046869 0.046869
0.080077 0.080077 0.080077
0.114813 0.114813 0.114813
0.150769 0.150769 0.150769
0.187747 0.187747 0.187747
0.225608 0.225608 0.225608
0.264249 0.264249 0.264249
0.045682 0.045682 0.045682
0.078826 0.078826 0.078826
0.113512 0.113512 0.113512
0.149427 0.149427 0.149427
0.186371 0.186371 0.186371
0.224201 0.224201 0.224201
0.262814 0.262814 0.262814
0.302130 0.302130 0.302130
0.342082 0.342082 0.342082
0.112213 0.112213 0.112213
0.148087 0.148087 0.148087
0.184995 0.184995 0.184995
0.222795 0.222795 0.222795
0.261381 0.261381 0.261381
0.300672 0.300672 0.300672
0.340602 0.340602 0.340602
0.381118 0.381118 0.381118
0.422176 0.422176 0.422176
0.183621 0.183621 0.183621
0.221390 0.221390 0.221390
0.259948 0.259948 0.259948
0.299214 0.299214 0.299214
0.339122 0.339122 0.339122
0.379618 0.379618 0.379618
0.420656 0.420656 0.420656
0.462201 0.462201 0.462201
0.504217 0.504217 0.504217
0.258517 0.258517 0.258517
0.297758 0.297758 0.297758
0.337643 0.337643 0.337643
0.378118 0.378118 0.378118
0.419138 0.419138 0.419138
0.460664 0.460664 0.460664
0.502663 0.502663 0.502663
0.545109 0.545109 0.545109
0.587974 0.587974 0.587974
0.336165 0.336165 0.336165
0.376619 0.376619 0.376619
0.417619 0.417619 0.417619
0.459127 0.459127 0.459127
0.501110 0.501110 0.501110
0.543539 0.543539 0.543539
0.586390 0.586390 0.586390
0.629639 0.629639 0.629639
0.673267 0.673267 0.673267
0.416102 0.416102 0.416102
0.457592 0.457592 0.457592
0.499558 0.499558 0.499558
0.541971 0.541971 0.541971
0.584806 0.584806 0.584806
0.628041 0.628041 0.628041
0.671656 0.671656 0.671656
0.715633 0.715633 0.715633
0.759955 0.759955 0.759955
0.498006 0.498006 0.498006
0.540403 0.540403 0.540403
0.583223 0.583223 0.583223
0.626444 0.626444 0.626444
0.670045 0.670045 0.670045
0.714008 0.714008 0.714008
0.758318 0.758318 0.758318
0.802960 0.802960 0.802960
0.847920 0.847920 0.847920
0.581641 0.581641 0.581641
0.624847 0.624847 0.624847
0.668434 0.668434 0.668434
0.712385 0.712385 0.712385
0.756682 0.756682 0.756682
0.801312 0.801312 0.801312
0.846260 0.846260 0.846260
0.891515 0.891515 0.891515
0.937065 0.937065 0.937065
0.000000 0.000000 0.000000
0.027310 0.027310 0.027310
0.059323 0.059323 0.059323
0.093161 0.093161 0.093161
0.128391 0.128391 0.128391
0.164756 0.164756 0.164756
0.202085 0.202085 0.202085
0.240254 0.240254 0.240254
0.279169 0.279169 0.279169
0.058109 0.058109 0.058109
0.091889 0.091889 0.091889
0.127073 0.127073 0.127073
0.163400 0.163400 0.163400
0.200696 0.200696 0.200696
0.238836 0.238836 0.238836
0.277725 0.277725 0.277725
0.317290 0.317290 0.317290
0.357471 0.357471 0.357471
0.125757 0.125757 0.125757
0.162046 0.162046 0.162046
0.199308 0.199308 0.199308
0.237419 0.237419 0.237419
0.276282 0.276282 0.276282
0.315823 0.315823 0.315823
0.355983 0.355983 0.355983
0.396711 0.396711 0.396711
0.437965 0.437965 0.437965
0.197922 0.197922 0.197922
0.236003 0.236003 0.236003
0.274840 0.274840 0.274840
0.314357 0.314357 0.314357
0.354495 0.354495 0.354495
0.395203 0.395203 0.395203
0.436438 0.436438 0.436438
0.478166 0.478166 0.478166
0.520355 0.520355 0.520355
0.273399 0.273399 0.273399
0.312892 0.312892 0.312892
0.353008 0.353008 0.353008
0.393695 0.393695 0.393695
0.434912 0.434912 0.434912
0.476623 0.476623 0.476623
0.518795 0.518795 0.518795
0.561404 0.561404 0.561404
0.604423 0.604423 0.604423
0.351522 0.351522 0.351522
0.392189 0.392189 0.392189
0.433387 0.433387 0.433387
0.475080 0.475080 0.475080
0.517236 0.517236 0.517236
0.559829 0.559829 0.559829
0.602834 0.602834 0.602834
0.646230 0.646230 0.646230
0.689998 0.689998 0.689998
0.431862 0.431862 0.431862
0.473538 0.473538 0.473538
0.515677 0.515677 0.515677
0.558254 0.558254 0.558254
0.601244 0.601244 0.601244
0.644626 0.644626 0.644626
0.688381 0.688381 0.688381
0.732491 0.732491 0.732491
0.776942 0.776942 0.776942
0.514119 0.514119 0.514119
0.556680 0.556680 0.556680
0.599656 0.599656 0.599656
0.643024 0.643024 0.643024
0.686765 0.686765 0.686765
0.730862 0.730862 0.730862
0.775301 0.775301 0.775301
0.820065 0.820065 0.820065
0.865143 0.865143 0.865143
0.598068 0.598068 0.598068
0.641421 0.641421 0.641421
0.685149 0.685149 0.685149
0.729234 0.729234 0.729234
0.773660 0.773660 0.773660
0.818413 0.818413 0.818413
0.863479 0.863479 0.863479
0.908848 0.908848 0.908848
0.954507 0.954507 0.954507
0.008774 0.008774 0.008774
0.039259 0.039259 0.039259
0.072038 0.072038 0.072038
0.106445 0.106445 0.106445
0.142132 0.142132 0.142132
0.178882 0.178882 0.178882
0.216544 0.216544 0.216544
0.255007 0.255007 0.255007
0.294187 0.294187 0.294187
0.070801 0.070801 0.070801
0.105155 0.105155 0.105155
0.140800 0.140800 0.140800
0.177513 0.177513 0.177513
0.215144 0.215144 0.215144
0.253579 0.253579 0.253579
0.292734 0.292734 0.292734
0.332540 0.332540 0.332540
0.372943 0.372943 0.372943
0.139468 0.139468 0.139468
0.176146 0.176146 0.176146
0.213744 0.213744 0.213744
0.252152 0.252152 0.252152
0.291282 0.291282 0.291282
0.331065 0.331065 0.331065
0.371447 0.371447 0.371447
0.412380 0.412380 0.412380
0.453825 0.453825 0.453825
0.212346 0.212346 0.212346
0.250726 0.250726 0.250726
0.289830 0.289830 0.289830
0.329591 0.329591 0.329591
0.369951 0.369951 0.369951
0.410864 0.410864 0.410864
0.452292 0.452292 0.452292
0.494199 0.494199 0.494199
0.536557 0.536557 0.536557
0.288379 0.288379 0.288379
0.328117 0.328117 0.328117
0.368456 0.368456 0.368456
0.409350 0.409350 0.409350
0.450759 0.450759 0.450759
0.492649 0.492649 0.492649
0.534991 0.534991 0.534991
0.577758 0.577758 0.577758
0.620929 0.620929 0.620929
0.366962 0.366962 0.366962
0.407836 0.407836 0.407836
0.449227 0.449227 0.449227
0.491100 0.491100 0.491100
0.533425 0.533425 0.533425
0.576178 0.576178 0.576178
0.619334 0.619334 0.619334
0.662874 0.662874 0.662874
0.706780 0.706780 0.706780
0.447695 0.447695 0.447695
0.489551 0.489551 0.489551
0.531860 0.531860 0.531860
0.574598 0.574598 0.574598
0.617740 0.617740 0.617740
0.661266 0.661266 0.661266
0.705158 0.705158 0.705158
0.749400 0.749400 0.749400
0.793976 0.793976 0.793976
0.530296 0.530296 0.530296
0.573018 0.573018 0.573018
0.616145 0.616145 0.616145
0.659658 0.659658 0.659658
0.703537 0.703537 0.703537
0.747766 0.747766 0.747766
0.792330 0.792330 0.792330
0.837216 0.837216 0.837216
0.882410 0.882410 0.882410
0.614552 0.614552 0.614552
0.658051 0.658051 0.658051
0.701916 0.701916 0.701916
0.746133 0.746133 0.746133
0.790685 0.790685 0.790685
0.835559 0.835559 0.835559
0.880742 0.880742 0.880742
0.926223 0.926223 0.926223
0.971990 0.971990 0.971990
0.020057 0.020057 0.020057
0.051533 0.051533 0.051533
0.084987 0.084987 0.084987
0.119915 0.119915 0.119915
0.156028 0.156028 0.156028
0.193141 0.193141 0.193141
0.231119 0.231119 0.231119
0.269865 0.269865 0.269865
0.309300 0.309300 0.309300
0.083728 0.083728 0.083728
0.118607 0.118607 0.118607
0.154681 0.154681 0.154681
0.191759 0.191759 0.191759
0.229708 0.229708 0.229708
0.268427 0.268427 0.268427
0.307837 0.307837 0.307837
0.347877 0.347877 0.347877
0.388494 0.388494 0.388494
0.153335 0.153335 0.153335
0.190379 0.190379 0.190379
0.228298 0.228298 0.228298
0.266990 0.266990 0.266990
0.306376 0.306376 0.306376
0.346394 0.346394 0.346394
0.386990 0.386990 0.386990
0.428123 0.428123 0.428123
0.469755 0.469755 0.469755
0.226888 0.226888 0.226888
0.265554 0.265554 0.265554
0.304915 0.304915 0.304915
0.344911 0.344911 0.344911
0.385487 0.385487 0.385487
0.426601 0.426601 0.426601
0.468215 0.468215 0.468215
0.510297 0.510297 0.510297
0.552820 0.552820 0.552820
0.303456 0.303456 0.303456
0.343429 0.343429 0.343429
0.383985 0.383985 0.383985
0.425079 0.425079 0.425079
0.466675 0.466675 0.466675
0.508741 0.508741 0.508741
0.551248 0.551248 0.551248
0.594172 0.594172 0.594172
0.637491 0.637491 0.637491
0.382483 0.382483 0.382483
0.423558 0.423558 0.423558
0.465136 0.465136 0.465136
0.507185 0.507185 0.507185
0.549677 0.549677 0.549677
0.592586 0.592586 0.592586
0.635891 0.635891 0.635891
0.679572 0.679572 0.679572
0.723612 0.723612 0.723612
0.463598 0.463598 0.463598
0.505630 0.505630 0.505630
0.548106 0.548106 0.548106
0.591000 0.591000 0.591000
0.634291 0.634291 0.634291
0.677958 0.677958 0.677958
0.721986 0.721986 0.721986
0.766357 0.766357 0.766357
0.811057 0.811057 0.811057
0.546536 0.546536 0.546536
0.589415 0.589415 0.589415
0.632691 0.632691 0.632691
0.676345 0.676345 0.676345
0.720360 0.720360 0.720360
0.764718 0.764718 0.764718
0.809406 0.809406 0.809406
0.854411 0.854411 0.854411
0.899720 0.899720 0.899720
0.631092 0.631092 0.631092
0.674733 0.674733 0.674733
0.718734 0.718734 0.718734
0.763080 0.763080 0.763080
0.807757 0.807757 0.807757
0.852750 0.852750 0.852750
0.898048 0.898048 0.898048
0.943639 0.943639 0.943639
0.989514 0.989514 0.989514
0.031776 0.031776 0.031776
0.064090 0.064090 0.064090
0.098149 0.098149 0.098149
0.133555 0.133555 0.133555
0.170068 0.170068 0.170068
0.207525 0.207525 0.207525
0.245806 0.245806 0.245806
0.284823 0.284823 0.284823
0.324503 0.324503 0.324503
0.096870 0.096870 0.096870
0.132232 0.132232 0.132232
0.168707 0.168707 0.168707
0.206131 0.206131 0.206131
0.244384 0.244384 0.244384
0.283375 0.283375 0.283375
0.323032 0.323032 0.323032
0.363298 0.363298 0.363298
0.404123 0.404123 0.404123
0.167348 0.167348 0.167348
0.204739 0.204739 0.204739
0.242963 0.242963 0.242963
0.281928 0.281928 0.281928
0.321562 0.321562 0.321562
0.361806 0.361806 0.361806
0.402612 0.402612 0.402612
0.443939 0.443939 0.443939
0.485752 0.485752 0.485752
0.241543 0.241543 0.241543
0.280483 0.280483 0.280483
0.320093 0.320093 0.320093
0.360315 0.360315 0.360315
0.401101 0.401101 0.401101
0.442410 0.442410 0.442410
0.484206 0.484206 0.484206
0.526459 0.526459 0.526459
0.569143 0.569143 0.569143
0.318624 0.318624 0.318624
0.358825 0.358825 0.358825
0.399591 0.399591 0.399591
0.440881 0.440881 0.440881
0.482660 0.482660 0.482660
0.524897 0.524897 0.524897
0.567566 0.567566 0.567566
0.610643 0.610643 0.610643
0.654107 0.654107 0.654107
0.398082 0.398082 0.398082
0.439353 0.439353 0.439353
0.481115 0.481115 0.481115
0.523335 0.523335 0.523335
0.565988 0.565988 0.565988
0.609051 0.609051 0.609051
0.652502 0.652502 0.652502
0.696322 0.696322 0.696322
0.740494 0.740494 0.740494
0.479570 0.479570 0.479570
0.521774 0.521774 0.521774
0.564412 0.564412 0.564412
0.607460 0.607460 0.607460
0.650896 0.650896 0.650896
0.694703 0.694703 0.694703
0.738863 0.738863 0.738863
0.783361 0.783361 0.783361
0.828183 0.828183 0.828183
0.562836 0.562836 0.562836
0.605869 0.605869 0.605869
0.649292 0.649292 0.649292
0.693085 0.693085 0.693085
0.737233 0.737233 0.737233
0.781718 0.781718 0.781718
0.826529 0.826529 0.826529
0.871651 0.871651 0.871651
0.917073 0.917073 0.917073
0.647688 0.647688 0.647688
0.691468 0.691468 0.691468
0.735602 0.735602 0.735602
0.780076 0.780076 0.780076
0.824875 0.824875 0.824875
0.869985 0.869985 0.869985
0.915396 0.915396 0.915396
0.961097 0.961097 0.961097
1.000000 1.000000 1.000000
0.043854 0.043854 0.043854
0.076896 0.076896 0.076896
0.111505 0.111505 0.111505
0.147356 0.147356 0.147356
0.184245 0.184245 0.184245
0.222028 0.222028 0.222028
0.260599 0.260599 0.260599
0.299877 0.299877 0.299877
0.339795 0.339795 0.339795
0.110208 0.110208 0.110208
0.146018 0.146018 0.146018
0.182871 0.182871 0.182871
0.220624 0.220624 0.220624
0.259167 0.259167 0.259167
0.298420 0.298420 0.298420
0.338315 0.338315 0.338315
0.378800 0.378800 0.378800
0.419828 0.419828 0.419828
0.181499 0.181499 0.181499
0.219220 0.219220 0.219220
0.257736 0.257736 0.257736
0.296964 0.296964 0.296964
0.336837 0.336837 0.336837
0.377300 0.377300 0.377300
0.418309 0.418309 0.418309
0.459826 0.459826 0.459826
0.501816 0.501816 0.501816
0.256306 0.256306 0.256306
0.295509 0.295509 0.295509
0.335359 0.335359 0.335359
0.375802 0.375802 0.375802
0.416791 0.416791 0.416791
0.458290 0.458290 0.458290
0.500263 0.500263 0.500263
0.542684 0.542684 0.542684
0.585526 0.585526 0.585526
0.333882 0.333882 0.333882
0.374304 0.374304 0.374304
0.415274 0.415274 0.415274
0.456754 0.456754 0.456754
0.498711 0.498711 0.498711
0.541116 0.541116 0.541116
0.583943 0.583943 0.583943
0.627170 0.627170 0.627170
0.670777 0.670777 0.670777
0.413758 0.413758 0.413758
0.455220 0.455220 0.455220
0.497159 0.497159 0.497159
0.539548 0.539548 0.539548
0.582360 0.582360 0.582360
0.625573 0.625573 0.625573
0.669166 0.669166 0.669166
0.713123 0.713123 0.713123
0.757426 0.757426 0.757426
0.495608 0.495608 0.495608
0.537981 0.537981 0.537981
0.580778 0.580778 0.580778
0.623976 0.623976 0.623976
0.667556 0.667556 0.667556
0.711499 0.711499 0.711499
0.755790 0.755790 0.755790
0.800413 0.800413 0.800413
0.845355 0.845355 0.845355
0.579196 0.579196 0.579196
0.622380 0.622380 0.622380
0.665946 0.665946 0.665946
0.709876 0.709876 0.709876
0.754155 0.754155 0.754155
0.798766 0.798766 0.798766
0.843696 0.843696 0.843696
0.888934 0.888934 0.888934
0.934467 0.934467 0.934467
0.664337 0.664337 0.664337
0.708254 0.708254 0.708254
0.752520 0.752520 0.752520
0.797119 0.797119 0.797119
0.842038 0.842038 0.842038
0.887264 0.887264 0.887264
0.932787 0.932787 0.932787
0.978595 0.978595 0.978595
1.000000 1.000000 1.000000
0.056238 0.056238 0.056238
0.089928 0.089928 0.089928
0.125040 0.125040 0.125040
0.161307 0.161307 0.161307
0.198552 0.198552 0.198552
0.236646 0.236646 0.236646
0.275495 0.275495 0.275495
0.315024 0.315024 0.315024
0.355171 0.355171 0.355171
0.123727 0.123727 0.123727
0.159955 0.159955 0.159955
0.197166 0.197166 0.197166
0.235231 0.235231 0.235231
0.274054 0.274054 0.274054
0.313558 0.313558 0.313558
0.353684 0.353684 0.353684
0.394380 0.394380 0.394380
0.435606 0.435606 0.435606
0.195781 0.195781 0.195781
0.233817 0.233817 0.233817
0.272613 0.272613 0.272613
0.312094 0.312094 0.312094
0.352197 0.352197 0.352197
0.392874 0.392874 0.392874
0.434080 0.434080 0.434080
0.475781 0.475781 0.475781
0.517945 0.517945 0.517945
0.271173 0.271173 0.271173
0.310630 0.310630 0.310630
0.350711 0.350711 0.350711
0.391368 0.391368 0.391368
0.432555 0.432555 0.432555
0.474239 0.474239 0.474239
0.516386 0.516386 0.516386
0.558970 0.558970 0.558970
0.601967 0.601967 0.601967
0.349226 0.349226 0.349226
0.389862 0.389862 0.389862
0.431031 0.431031 0.431031
0.472697 0.472697 0.472697
0.514827 0.514827 0.514827
0.557396 0.557396 0.557396
0.600378 0.600378 0.600378
0.643752 0.643752 0.643752
0.687500 0.687500 0.687500
0.429508 0.429508 0.429508
0.471155 0.471155 0.471155
0.513269 0.513269 0.513269
0.555822 0.555822 0.555822
0.598789 0.598789 0.598789
0.642150 0.642150 0.642150
0.685884 0.685884 0.685884
0.729974 0.729974 0.729974
0.774406 0.774406 0.774406
0.511712 0.511712 0.511712
0.554249 0.554249 0.554249
0.597202 0.597202 0.597202
0.640548 0.640548 0.640548
0.684268 0.684268 0.684268
0.728346 0.728346 0.728346
0.772765 0.772765 0.772765
0.817511 0.817511 0.817511
0.862572 0.862572 0.862572
0.595614 0.595614 0.595614
0.638946 0.638946 0.638946
0.682653 0.682653 0.682653
0.726718 0.726718 0.726718
0.771125 0.771125 0.771125
0.815860 0.815860 0.815860
0.860909 0.860909 0.860909
0.906260 0.906260 0.906260
0.951903 0.951903 0.951903
0.681039 0.681039 0.681039
0.725091 0.725091 0.725091
0.769485 0.769485 0.769485
0.814208 0.814208 0.814208
0.859246 0.859246 0.859246
0.904587 0.904587 0.904587
0.950219 0.950219 0.950219
0.996134 0.996134 0.996134
1.000000 1.000000 1.000000
0.068892 0.068892 0.068892
0.103165 0.103165 0.103165
0.138743 0.138743 0.138743
0.175400 0.175400 0.175400
0.212982 0.212982 0.212982
0.251374 0.251374 0.251374
0.290490 0.290490 0.290490
0.330261 0.330261 0.330261
0.370631 0.370631 0.370631
0.137414 0.137414 0.137414
0.174034 0.174034 0.174034
0.211584 0.211584 0.211584
0.249948 0.249948 0.249948
0.289039 0.289039 0.289039
0.328787 0.328787 0.328787
0.369135 0.369135 0.369135
0.410038 0.410038 0.410038
0.451455 0.451455 0.451455
0.210187 0.210187 0.210187
0.248523 0.248523 0.248523
0.287589 0.287589 0.287589
0.327313 0.327313 0.327313
0.367641 0.367641 0.367641
0.408524 0.408524 0.408524
0.449923 0.449923 0.449923
0.491804 0.491804 0.491804
0.534137 0.534137 0.534137
0.286139 0.286139 0.286139
0.325841 0.325841 0.325841
0.366147 0.366147 0.366147
0.407011 0.407011 0.407011
0.448391 0.448391 0.448391
0.490255 0.490255 0.490255
0.532572 0.532572 0.532572
0.575316 0.575316 0.575316
0.618464 0.618464 0.618464
0.364654 0.364654 0.364654
0.405498 0.405498 0.405498
0.446860 0.446860 0.446860
0.488707 0.488707 0.488707
0.531007 0.531007 0.531007
0.573736 0.573736 0.573736
0.616870 0.616870 0.616870
0.660389 0.660389 0.660389
0.704274 0.704274 0.704274
0.445330 0.445330 0.445330
0.487159 0.487159 0.487159
0.529443 0.529443 0.529443
0.572157 0.572157 0.572157
0.615276 0.615276 0.615276
0.658781 0.658781 0.658781
0.702653 0.702653 0.702653
0.746875 0.746875 0.746875
0.791433 0.791433 0.791433
0.527880 0.527880 0.527880
0.570578 0.570578 0.570578
0.613683 0.613683 0.613683
0.657174 0.657174 0.657174
0.701033 0.701033 0.701033
0.745242 0.745242 0.745242
0.789788 0.789788 0.789788
0.834655 0.834655 0.834655
0.879832 0.879832 0.879832
0.612090 0.612090 0.612090
0.655567 0.655567 0.655567
0.699413 0.699413 0.699413
0.743610 0.743610 0.743610
0.788143 0.788143 0.788143
0.832999 0.832999 0.832999
0.878165 0.878165 0.878165
0.923629 0.923629 0.923629
0.969381 0.969381 0.969381
0.697793 0.697793 0.697793
0.741978 0.741978 0.741978
0.786499 0.786499 0.786499
0.831343 0.831343 0.831343
0.876498 0.876498 0.876498
0.921951 0.921951 0.921951
0.967692 0.967692 0.967692
1.000000 1.000000 1.000000
1.000000 1.000000 1.000000
