app/src/main/assets/luts/noir.cube
TITLE "Noir"
LUT_3D_SIZE 33
DOMAIN_MIN 0.0 0.0 0.0
DOMAIN_MAX 1.0 1.0 1.0
0.000000 0.000000 0.000000
0.000000 0.000000 0.000000
0.000000 0.000000 0.000000
0.000000 0.000000 0.000000
0.004654 0.004654 0.004654
0.011867 0.011867 0.011867
0.019300 0.019300 0.019300
0.026923 0.026923 0.026923
0.034711 0.034711 0.034711
0.042647 0.042647 0.042647
0.050717 0.050717 0.050717
0.058909 0.058909 0.058909
0.067213 0.067213 0.067213
0.075622 0.075622 0.075622
0.084129 0.084129 0.084129
0.092727 0.092727 0.092727
0.101412 0.101412 0.101412
0.110179 0.110179 0.110179
0.119023 0.119023 0.119023
0.127941 0.127941 0.127941
0.136931 0.136931 0.136931
0.145987 0.145987 0.145987
0.155109 0.155109 0.155109
0.164294 0.164294 0.164294
0.173538 0.173538 0.173538
0.182840 0.182840 0.182840
0.192199 0.192199 0.192199
0.201611 0.201611 0.201611
0.211076 0.211076 0.211076
0.220592 0.220592 0.220592
0.230157 0.230157 0.230157
0.239770 0.239770 0.239770
0.249430 0.249430 0.249430
0.000000 0.000000 0.000000
0.000000 0.000000 0.000000
0.004394 0.004394 0.004394
0.011597 0.011597 0.011597
0.019023 0.019023 0.019023
0.026640 0.026640 0.026640
0.034422 0.034422 0.034422
0.042353 0.042353 0.042353
0.050418 0.050418 0.050418
0.058605 0.058605 0.058605
0.066906 0.066906 0.066906
0.075311 0.075311 0.075311
0.083814 0.083814 0.083814
0.092409 0.092409 0.092409
0.101091 0.101091 0.101091
0.109855 0.109855 0.109855
0.118696 0.118696 0.118696
0.127612 0.127612 0.127612
0.136599 0.136599 0.136599
0.145653 0.145653 0.145653
0.154773 0.154773 0.154773
0.163955 0.163955 0.163955
0.173197 0.173197 0.173197
0.182497 0.182497 0.182497
0.191853 0.191853 0.191853
0.201264 0.201264 0.201264
0.210727 0.210727 0.210727
0.220241 0.220241 0.220241
0.229804 0.229804 0.229804
0.239416 0.239416 0.239416
0.249074 0.249074 0.249074
0.258777 0.258777 0.258777
0.268525 0.268525 0.268525
0.004133 0.004133 0.004133
0.011328 0.011328 0.011328
0.018747 0.018747 0.018747
0.026356 0.026356 0.026356
0.034133 0.034133 0.034133
0.042059 0.042059 0.042059
0.050119 0.050119 0.050119
0.058302 0.058302 0.058302
0.066598 0.066598 0.066598
0.075000 0.075000 0.075000
0.083500 0.083500 0.083500
0.092091 0.092091 0.092091
0.100770 0.100770 0.100770
0.109531 0.109531 0.109531
0.118370 0.118370 0.118370
0.127283 0.127283 0.127283
0.136267 0.136267 0.136267
0.145319 0.145319 0.145319
0.154436 0.154436 0.154436
0.163616 0.163616 0.163616
0.172856 0.172856 0.172856
0.182154 0.182154 0.182154
0.191508 0.191508 0.191508
0.200917 0.200917 0.200917
0.210378 0.210378 0.210378
0.219890 0.219890 0.219890
0.229452 0.229452 0.229452
0.239061 0.239061 0.239061
0.248717 0.248717 0.248717
0.258419 0.258419 0.258419
0.268165 0.268165 0.268165
0.277955 0.277955 0.277955
0.287786 0.287786 0.287786
0.018470 0.018470 0.018470
0.026073 0.026073 0.026073
0.033844 0.033844 0.033844
0.041765 0.041765 0.041765
0.049820 0.049820 0.049820
0.057999 0.057999 0.057999
0.066291 0.066291 0.066291
0.074689 0.074689 0.074689
0.083185 0.083185 0.083185
0.091774 0.091774 0.091774
0.100449 0.100449 0.100449
0.109207 0.109207 0.109207
0.118043 0.118043 0.118043
0.126954 0.126954 0.126954
0.135935 0.135935 0.135935
0.144985 0.144985 0.144985
0.154099 0.154099 0.154099
0.163277 0.163277 0.163277
0.172515 0.172515 0.172515
0.181811 0.181811 0.181811
0.191163 0.191163 0.191163
0.200570 0.200570 0.200570
0.210029 0.210029 0.210029
0.219539 0.219539 0.219539
0.229099 0.229099 0.229099
0.238707 0.238707 0.238707
0.248361 0.248361 0.248361
0.258062 0.258062 0.258062
0.267806 0.267806 0.267806
0.277594 0.277594 0.277594
0.287424 0.287424 0.287424
0.297295 0.297295 0.297295
0.307206 0.307206 0.307206
0.033556 0.033556 0.033556
0.041471 0.041471 0.041471
0.049521 0.049521 0.049521
0.057696 0.057696 0.057696
0.065984 0.065984 0.065984
0.074378 0.074378 0.074378
0.082871 0.082871 0.082871
0.091456 0.091456 0.091456
0.100129 0.100129 0.100129
0.108883 0.108883 0.108883
0.117717 0.117717 0.117717
0.126624 0.126624 0.126624
0.135603 0.135603 0.135603
0.144651 0.144651 0.144651
0.153763 0.153763 0.153763
0.162938 0.162938 0.162938
0.172174 0.172174 0.172174
0.181468 0.181468 0.181468
0.190818 0.190818 0.190818
0.200223 0.200223 0.200223
0.209680 0.209680 0.209680
0.219188 0.219188 0.219188
0.228746 0.228746 0.228746
0.238352 0.238352 0.238352
0.248005 0.248005 0.248005
0.257704 0.257704 0.257704
0.267447 0.267447 0.267447
0.277233 0.277233 0.277233
0.287061 0.287061 0.287061
0.296931 0.296931 0.296931
0.306841 0.306841 0.306841
0.316790 0.316790 0.316790
0.326778 0.326778 0.326778
0.049223 0.049223 0.049223
0.057393 0.057393 0.057393
0.065677 0.065677 0.065677
0.074068 0.074068 0.074068
0.082557 0.082557 0.082557
0.091139 0.091139 0.091139
0.099808 0.099808 0.099808
0.108560 0.108560 0.108560
0.117390 0.117390 0.117390
0.126295 0.126295 0.126295
0.135272 0.135272 0.135272
0.144317 0.144317 0.144317
0.153427 0.153427 0.153427
0.162600 0.162600 0.162600
0.171833 0.171833 0.171833
0.181125 0.181125 0.181125
0.190473 0.190473 0.190473
0.199876 0.199876 0.199876
0.209331 0.209331 0.209331
0.218838 0.218838 0.218838
0.228394 0.228394 0.228394
0.237998 0.237998 0.237998
0.247649 0.247649 0.247649
0.257346 0.257346 0.257346
0.267088 0.267088 0.267088
0.276872 0.276872 0.276872
0.286699 0.286699 0.286699
0.296567 0.296567 0.296567
0.306476 0.306476 0.306476
0.316423 0.316423 0.316423
0.326410 0.326410 0.326410
0.336434 0.336434 0.336434
0.346495 0.346495 0.346495
0.065371 0.065371 0.065371
0.073757 0.073757 0.073757
0.082243 0.082243 0.082243
0.090821 0.090821 0.090821
0.099488 0.099488 0.099488
0.108237 0.108237 0.108237
0.117064 0.117064 0.117064
0.125967 0.125967 0.125967
0.134940 0.134940 0.134940
0.143983 0.143983 0.143983
0.153090 0.153090 0.153090
0.162261 0.162261 0.162261
0.171492 0.171492 0.171492
0.180782 0.180782 0.180782
0.190128 0.190128 0.190128
0.199529 0.199529 0.199529
0.208982 0.208982 0.208982
0.218487 0.218487 0.218487
0.228041 0.228041 0.228041
0.237644 0.237644 0.237644
0.247294 0.247294 0.247294
0.256989 0.256989 0.256989
0.266728 0.266728 0.266728
0.276512 0.276512 0.276512
0.286337 0.286337 0.286337
0.296203 0.296203 0.296203
0.306110 0.306110 0.306110
0.316057 0.316057 0.316057
0.326042 0.326042 0.326042
0.336064 0.336064 0.336064
0.346124 0.346124 0.346124
0.356220 0.356220 0.356220
0.366351 0.366351 0.366351
0.081929 0.081929 0.081929
0.090504 0.090504 0.090504
0.099167 0.099167 0.099167
0.107913 0.107913 0.107913
0.116738 0.116738 0.116738
0.125638 0.125638 0.125638
0.134609 0.134609 0.134609
0.143649 0.143649 0.143649
0.152754 0.152754 0.152754
0.161923 0.161923 0.161923
0.171152 0.171152 0.171152
0.180439 0.180439 0.180439
0.189783 0.189783 0.189783
0.199182 0.199182 0.199182
0.208634 0.208634 0.208634
0.218136 0.218136 0.218136
0.227689 0.227689 0.227689
0.237290 0.237290 0.237290
0.246938 0.246938 0.246938
0.256631 0.256631 0.256631
0.266369 0.266369 0.266369
0.276151 0.276151 0.276151
0.285975 0.285975 0.285975
0.295840 0.295840 0.295840
0.305745 0.305745 0.305745
0.315690 0.315690 0.315690
0.325674 0.325674 0.325674
0.335695 0.335695 0.335695
0.345753 0.345753 0.345753
0.355848 0.355848 0.355848
0.365978 0.365978 0.365978
0.376142 0.376142 0.376142
0.386341 0.386341 0.386341
0.098847 0.098847 0.098847
0.107590 0.107590 0.107590
0.116412 0.116412 0.116412
0.125309 0.125309 0.125309
0.134278 0.134278 0.134278
0.143315 0.143315 0.143315
0.152418 0.152418 0.152418
0.161584 0.161584 0.161584
0.170811 0.170811 0.170811
0.180097 0.180097 0.180097
0.189439 0.189439 0.189439
0.198835 0.198835 0.198835
0.208285 0.208285 0.208285
0.217786 0.217786 0.217786
0.227337 0.227337 0.227337
0.236936 0.236936 0.236936
0.246582 0.246582 0.246582
0.256274 0.256274 0.256274
0.266010 0.266010 0.266010
0.275790 0.275790 0.275790
0.285613 0.285613 0.285613
0.295476 0.295476 0.295476
0.305380 0.305380 0.305380
0.315324 0.315324 0.315324
0.325306 0.325306 0.325306
0.335326 0.335326 0.335326
0.345382 0.345382 0.345382
0.355476 0.355476 0.355476
0.365604 0.365604 0.365604
0.375768 0.375768 0.375768
0.385965 0.385965 0.385965
0.396196 0.396196 0.396196
0.406460 0.406460 0.406460
0.116086 0.116086 0.116086
0.124980 0.124980 0.124980
0.133947 0.133947 0.133947
0.142981 0.142981 0.142981
0.152082 0.152082 0.152082
0.161246 0.161246 0.161246
0.170471 0.170471 0.170471
0.179754 0.179754 0.179754
0.189094 0.189094 0.189094
0.198489 0.198489 0.198489
0.207936 0.207936 0.207936
0.217436 0.217436 0.217436
0.226985 0.226985 0.226985
0.236582 0.236582 0.236582
0.246226 0.246226 0.246226
0.255917 0.255917 0.255917
0.265651 0.265651 0.265651
0.275430 0.275430 0.275430
0.285250 0.285250 0.285250
0.295113 0.295113 0.295113
0.305015 0.305015 0.305015
0.314957 0.314957 0.314957
0.324938 0.324938 0.324938
0.334956 0.334956 0.334956
0.345012 0.345012 0.345012
0.355104 0.355104 0.355104
0.365231 0.365231 0.365231
0.375393 0.375393 0.375393
0.385590 0.385590 0.385590
0.395819 0.395819 0.395819
0.406082 0.406082 0.406082
0.416378 0.416378 0.416378
0.426705 0.426705 0.426705
0.133616 0.133616 0.133616
0.142648 0.142648 0.142648
0.151746 0.151746 0.151746
0.160908 0.160908 0.160908
0.170130 0.170130 0.170130
0.179411 0.179411 0.179411
0.188749 0.188749 0.188749
0.198142 0.198142 0.198142
0.207588 0.207588 0.207588
0.217085 0.217085 0.217085
0.226632 0.226632 0.226632
0.236228 0.236228 0.236228
0.245871 0.245871 0.245871
0.255559 0.255559 0.255559
0.265292 0.265292 0.265292
0.275069 0.275069 0.275069
0.284888 0.284888 0.284888
0.294749 0.294749 0.294749
0.304650 0.304650 0.304650
0.314591 0.314591 0.314591
0.324570 0.324570 0.324570
0.334587 0.334587 0.334587
0.344641 0.344641 0.344641
0.354732 0.354732 0.354732
0.364858 0.364858 0.364858
0.375019 0.375019 0.375019
0.385214 0.385214 0.385214
0.395443 0.395443 0.395443
0.405704 0.405704 0.405704
0.415998 0.415998 0.415998
0.426324 0.426324 0.426324
0.436681 0.436681 0.436681
0.447069 0.447069 0.447069
0.151410 0.151410 0.151410
0.160569 0.160569 0.160569
0.169790 0.169790 0.169790
0.179069 0.179069 0.179069
0.188405 0.188405 0.188405
0.197796 0.197796 0.197796
0.207240 0.207240 0.207240
0.216735 0.216735 0.216735
0.226280 0.226280 0.226280
0.235874 0.235874 0.235874
0.245515 0.245515 0.245515
0.255202 0.255202 0.255202
0.264934 0.264934 0.264934
0.274709 0.274709 0.274709
0.284526 0.284526 0.284526
0.294385 0.294385 0.294385
0.304285 0.304285 0.304285
0.314224 0.314224 0.314224
0.324202 0.324202 0.324202
0.334218 0.334218 0.334218
0.344271 0.344271 0.344271
0.354360 0.354360 0.354360
0.364485 0.364485 0.364485
0.374644 0.374644 0.374644
0.384838 0.384838 0.384838
0.395066 0.395066 0.395066
0.405326 0.405326 0.405326
0.415619 0.415619 0.415619
0.425944 0.425944 0.425944
0.436300 0.436300 0.436300
0.446686 0.446686 0.446686
0.457103 0.457103 0.457103
0.467550 0.467550 0.467550
0.169450 0.169450 0.169450
0.178727 0.178727 0.178727
0.188060 0.188060 0.188060
0.197449 0.197449 0.197449
0.206891 0.206891 0.206891
0.216385 0.216385 0.216385
0.225928 0.225928 0.225928
0.235520 0.235520 0.235520
0.245160 0.245160 0.245160
0.254845 0.254845 0.254845
0.264575 0.264575 0.264575
0.274348 0.274348 0.274348
0.284164 0.284164 0.284164
0.294022 0.294022 0.294022
0.303920 0.303920 0.303920
0.313858 0.313858 0.313858
0.323834 0.323834 0.323834
0.333849 0.333849 0.333849
0.343900 0.343900 0.343900
0.353988 0.353988 0.353988
0.364112 0.364112 0.364112
0.374270 0.374270 0.374270
0.384463 0.384463 0.384463
0.394689 0.394689 0.394689
0.404948 0.404948 0.404948
0.415240 0.415240 0.415240
0.425563 0.425563 0.425563
0.435918 0.435918 0.435918
0.446304 0.446304 0.446304
0.456719 0.456719 0.456719
0.467165 0.467165 0.467165
0.477640 0.477640 0.477640
0.488144 0.488144 0.488144
0.187716 0.187716 0.187716
0.197103 0.197103 0.197103
0.206543 0.206543 0.206543
0.216035 0.216035 0.216035
0.225576 0.225576 0.225576
0.235167 0.235167 0.235167
0.244804 0.244804 0.244804
0.254488 0.254488 0.254488
0.264216 0.264216 0.264216
0.273988 0.273988 0.273988
0.283803 0.283803 0.283803
0.293659 0.293659 0.293659
0.303555 0.303555 0.303555
0.313492 0.313492 0.313492
0.323467 0.323467 0.323467
0.333480 0.333480 0.333480
0.343530 0.343530 0.343530
0.353616 0.353616 0.353616
0.363738 0.363738 0.363738
0.373896 0.373896 0.373896
0.384087 0.384087 0.384087
0.394312 0.394312 0.394312
0.404570 0.404570 0.404570
0.414860 0.414860 0.414860
0.425183 0.425183 0.425183
0.435537 0.435537 0.435537
0.445921 0.445921 0.445921
0.456336 0.456336 0.456336
0.466780 0.466780 0.466780
0.477254 0.477254 0.477254
0.487757 0.487757 0.487757
0.498288 0.498288 0.498288
0.508847 0.508847 0.508847
0.206195 0.206195 0.206195
0.215684 0.215684 0.215684
0.225224 0.225224 0.225224
0.234813 0.234813 0.234813
0.244449 0.244449 0.244449
0.254131 0.254131 0.254131
0.263857 0.263857 0.263857
0.273628 0.273628 0.273628
0.283441 0.283441 0.283441
0.293295 0.293295 0.293295
0.303191 0.303191 0.303191
0.313125 0.313125 0.313125
0.323099 0.323099 0.323099
0.333111 0.333111 0.333111
0.343159 0.343159 0.343159
0.353245 0.353245 0.353245
0.363365 0.363365 0.363365
0.373521 0.373521 0.373521
0.383711 0.383711 0.383711
0.393935 0.393935 0.393935
0.404192 0.404192 0.404192
0.414481 0.414481 0.414481
0.424803 0.424803 0.424803
0.435155 0.435155 0.435155
0.445538 0.445538 0.445538
0.455952 0.455952 0.455952
0.466395 0.466395 0.466395
0.476868 0.476868 0.476868
0.487370 0.487370 0.487370
0.497900 0.497900 0.497900
0.508458 0.508458 0.508458
0.519044 0.519044 0.519044
0.529656 0.529656 0.529656
0.224873 0.224873 0.224873
0.234459 0.234459 0.234459
0.244093 0.244093 0.244093
0.253774 0.253774 0.253774
0.263499 0.263499 0.263499
0.273268 0.273268 0.273268
0.283079 0.283079 0.283079
0.292932 0.292932 0.292932
0.302826 0.302826 0.302826
0.312759 0.312759 0.312759
0.322731 0.322731 0.322731
0.332742 0.332742 0.332742
0.342789 0.342789 0.342789
0.352873 0.352873 0.352873
0.362992 0.362992 0.362992
0.373147 0.373147 0.373147
0.383336 0.383336 0.383336
0.393558 0.393558 0.393558
0.403814 0.403814 0.403814
0.414102 0.414102 0.414102
0.424422 0.424422 0.424422
0.434774 0.434774 0.434774
0.445156 0.445156 0.445156
0.455568 0.455568 0.455568
0.466011 0.466011 0.466011
0.476482 0.476482 0.476482
0.486983 0.486983 0.486983
0.497512 0.497512 0.497512
0.508069 0.508069 0.508069
0.518654 0.518654 0.518654
0.529266 0.529266 0.529266
0.539904 0.539904 0.539904
0.550569 0.550569 0.550569
0.243738 0.243738 0.243738
0.253417 0.253417 0.253417
0.263140 0.263140 0.263140
0.272907 0.272907 0.272907
0.282717 0.282717 0.282717
0.292569 0.292569 0.292569
0.302461 0.302461 0.302461
0.312393 0.312393 0.312393
0.322364 0.322364 0.322364
0.332373 0.332373 0.332373
0.342419 0.342419 0.342419
0.352501 0.352501 0.352501
0.362620 0.362620 0.362620
0.372773 0.372773 0.372773
0.382960 0.382960 0.382960
0.393182 0.393182 0.393182
0.403436 0.403436 0.403436
0.413723 0.413723 0.413723
0.424042 0.424042 0.424042
0.434392 0.434392 0.434392
0.444773 0.444773 0.444773
0.455185 0.455185 0.455185
0.465626 0.465626 0.465626
0.476097 0.476097 0.476097
0.486596 0.486596 0.486596
0.497124 0.497124 0.497124
0.507680 0.507680 0.507680
0.518264 0.518264 0.518264
0.528875 0.528875 0.528875
0.539512 0.539512 0.539512
0.550176 0.550176 0.550176
0.560867 0.560867 0.560867
0.571583 0.571583 0.571583
0.262782 0.262782 0.262782
0.272547 0.272547 0.272547
0.282356 0.282356 0.282356
0.292206 0.292206 0.292206
0.302096 0.302096 0.302096
0.312027 0.312027 0.312027
0.321996 0.321996 0.321996
0.332004 0.332004 0.332004
0.342049 0.342049 0.342049
0.352130 0.352130 0.352130
0.362247 0.362247 0.362247
0.372399 0.372399 0.372399
0.382585 0.382585 0.382585
0.392805 0.392805 0.392805
0.403058 0.403058 0.403058
0.413344 0.413344 0.413344
0.423662 0.423662 0.423662
0.434011 0.434011 0.434011
0.444391 0.444391 0.444391
0.454801 0.454801 0.454801
0.465241 0.465241 0.465241
0.475711 0.475711 0.475711
0.486209 0.486209 0.486209
0.496736 0.496736 0.496736
0.507291 0.507291 0.507291
0.517874 0.517874 0.517874
0.528484 0.528484 0.528484
0.539120 0.539120 0.539120
0.549784 0.549784 0.549784
0.560473 0.560473 0.560473
0.571188 0.571188 0.571188
0.581928 0.581928 0.581928
0.592694 0.592694 0.592694
0.281994 0.281994 0.281994
0.291843 0.291843 0.291843
0.301732 0.301732 0.301732
0.311661 0.311661 0.311661
0.321629 0.321629 0.321629
0.331635 0.331635 0.331635
0.341678 0.341678 0.341678
0.351758 0.351758 0.351758
0.361874 0.361874 0.361874
0.372025 0.372025 0.372025
0.382210 0.382210 0.382210
0.392429 0.392429 0.392429
0.402681 0.402681 0.402681
0.412965 0.412965 0.412965
0.423282 0.423282 0.423282
0.433630 0.433630 0.433630
0.444008 0.444008 0.444008
0.454418 0.454418 0.454418
0.464857 0.464857 0.464857
0.475325 0.475325 0.475325
0.485823 0.485823 0.485823
0.496349 0.496349 0.496349
0.506903 0.506903 0.506903
0.517484 0.517484 0.517484
0.528093 0.528093 0.528093
0.538729 0.538729 0.538729
0.549391 0.549391 0.549391
0.560079 0.560079 0.560079
0.570793 0.570793 0.570793
0.581533 0.581533 0.581533
0.592297 0.592297 0.592297
0.603086 0.603086 0.603086
0.613900 0.613900 0.613900
0.301367 0.301367 0.301367
0.311295 0.311295 0.311295
0.321262 0.321262 0.321262
0.331266 0.331266 0.331266
0.341308 0.341308 0.341308
0.351387 0.351387 0.351387
0.361501 0.361501 0.361501
0.371651 0.371651 0.371651
0.381834 0.381834 0.381834
0.392052 0.392052 0.392052
0.402303 0.402303 0.402303
0.412586 0.412586 0.412586
0.422902 0.422902 0.422902
0.433248 0.433248 0.433248
0.443626 0.443626 0.443626
0.454034 0.454034 0.454034
0.464472 0.464472 0.464472
0.474940 0.474940 0.474940
0.485436 0.485436 0.485436
0.495961 0.495961 0.495961
0.506514 0.506514 0.506514
0.517094 0.517094 0.517094
0.527702 0.527702 0.527702
0.538337 0.538337 0.538337
0.548998 0.548998 0.548998
0.559686 0.559686 0.559686
0.570399 0.570399 0.570399
0.581137 0.581137 0.581137
0.591901 0.591901 0.591901
0.602689 0.602689 0.602689
0.613502 0.613502 0.613502
0.624339 0.624339 0.624339
0.635200 0.635200 0.635200
0.320894 0.320894 0.320894
0.330897 0.330897 0.330897
0.340938 0.340938 0.340938
0.351015 0.351015 0.351015
0.361128 0.361128 0.361128
0.371277 0.371277 0.371277
0.381459 0.381459 0.381459
0.391676 0.391676 0.391676
0.401925 0.401925 0.401925
0.412207 0.412207 0.412207
0.422522 0.422522 0.422522
0.432867 0.432867 0.432867
0.443244 0.443244 0.443244
0.453651 0.453651 0.453651
0.464088 0.464088 0.464088
0.474554 0.474554 0.474554
0.485049 0.485049 0.485049
0.495573 0.495573 0.495573
0.506125 0.506125 0.506125
0.516705 0.516705 0.516705
0.527311 0.527311 0.527311
0.537945 0.537945 0.537945
0.548605 0.548605 0.548605
0.559292 0.559292 0.559292
0.570004 0.570004 0.570004
0.580742 0.580742 0.580742
0.591504 0.591504 0.591504
0.602292 0.602292 0.602292
0.613104 0.613104 0.613104
0.623940 0.623940 0.623940
0.634800 0.634800 0.634800
0.645683 0.645683 0.645683
0.656590 0.656590 0.656590
0.340568 0.340568 0.340568
0.350644 0.350644 0.350644
0.360756 0.360756 0.360756
0.370903 0.370903 0.370903
0.381084 0.381084 0.381084
0.391299 0.391299 0.391299
0.401548 0.401548 0.401548
0.411829 0.411829 0.411829
0.422142 0.422142 0.422142
0.432486 0.432486 0.432486
0.442861 0.442861 0.442861
0.453267 0.453267 0.453267
0.463703 0.463703 0.463703
0.474168 0.474168 0.474168
0.484663 0.484663 0.484663
0.495185 0.495185 0.495185
0.505736 0.505736 0.505736
0.516315 0.516315 0.516315
0.526921 0.526921 0.526921
0.537554 0.537554 0.537554
0.548213 0.548213 0.548213
0.558898 0.558898 0.558898
0.569609 0.569609 0.569609
0.580346 0.580346 0.580346
0.591108 0.591108 0.591108
0.601894 0.601894 0.601894
0.612705 0.612705 0.612705
0.623541 0.623541 0.623541
0.634400 0.634400 0.634400
0.645282 0.645282 0.645282
0.656188 0.656188 0.656188
0.667117 0.667117 0.667117
0.678068 0.678068 0.678068
0.360383 0.360383 0.360383
0.370529 0.370529 0.370529
0.380709 0.380709 0.380709
0.390923 0.390923 0.390923
0.401170 0.401170 0.401170
0.411450 0.411450 0.411450
0.421762 0.421762 0.421762
0.432105 0.432105 0.432105
0.442479 0.442479 0.442479
0.452884 0.452884 0.452884
0.463319 0.463319 0.463319
0.473783 0.473783 0.473783
0.484276 0.484276 0.484276
0.494798 0.494798 0.494798
0.505348 0.505348 0.505348
0.515925 0.515925 0.515925
0.526530 0.526530 0.526530
0.537162 0.537162 0.537162
0.547820 0.547820 0.547820
0.558505 0.558505 0.558505
0.569215 0.569215 0.569215
0.579951 0.579951 0.579951
0.590712 0.590712 0.590712
0.601497 0.601497 0.601497
0.612307 0.612307 0.612307
0.623142 0.623142 0.623142
0.634000 0.634000 0.634000
0.644881 0.644881 0.644881
0.655786 0.655786 0.655786
0.666714 0.666714 0.666714
0.677665 0.677665 0.677665
0.688638 0.688638 0.688638
0.699634 0.699634 0.699634
0.380334 0.380334 0.380334
0.390546 0.390546 0.390546
0.400792 0.400792 0.400792
0.411071 0.411071 0.411071
0.421382 0.421382 0.421382
0.431724 0.431724 0.431724
0.442097 0.442097 0.442097
0.452501 0.452501 0.452501
0.462934 0.462934 0.462934
0.473397 0.473397 0.473397
0.483890 0.483890 0.483890
0.494410 0.494410 0.494410
0.504959 0.504959 0.504959
0.515536 0.515536 0.515536
0.526139 0.526139 0.526139
0.536770 0.536770 0.536770
0.547428 0.547428 0.547428
0.558111 0.558111 0.558111
0.568821 0.568821 0.568821
0.579555 0.579555 0.579555
0.590315 0.590315 0.590315
0.601100 0.601100 0.601100
0.611909 0.611909 0.611909
0.622743 0.622743 0.622743
0.633600 0.633600 0.633600
0.644481 0.644481 0.644481
0.655385 0.655385 0.655385
0.666312 0.666312 0.666312
0.677262 0.677262 0.677262
0.688234 0.688234 0.688234
0.699229 0.699229 0.699229
0.710245 0.710245 0.710245
0.721284 0.721284 0.721284
0.400415 0.400415 0.400415
0.410692 0.410692 0.410692
0.421002 0.421002 0.421002
0.431343 0.431343 0.431343
0.441715 0.441715 0.441715
0.452117 0.452117 0.452117
0.462550 0.462550 0.462550
0.473012 0.473012 0.473012
0.483503 0.483503 0.483503
0.494023 0.494023 0.494023
0.504570 0.504570 0.504570
0.515146 0.515146 0.515146
0.525749 0.525749 0.525749
0.536379 0.536379 0.536379
0.547035 0.547035 0.547035
0.557718 0.557718 0.557718
0.568426 0.568426 0.568426
0.579160 0.579160 0.579160
0.589919 0.589919 0.589919
0.600703 0.600703 0.600703
0.611511 0.611511 0.611511
0.622344 0.622344 0.622344
0.633200 0.633200 0.633200
0.644080 0.644080 0.644080
0.654983 0.654983 0.654983
0.665910 0.665910 0.665910
0.676859 0.676859 0.676859
0.687830 0.687830 0.687830
0.698824 0.698824 0.698824
0.709840 0.709840 0.709840
0.720877 0.720877 0.720877
0.731936 0.731936 0.731936
0.743016 0.743016 0.743016
0.420622 0.420622 0.420622
0.430962 0.430962 0.430962
0.441333 0.441333 0.441333
0.451734 0.451734 0.451734
0.462166 0.462166 0.462166
0.472627 0.472627 0.472627
0.483117 0.483117 0.483117
0.493635 0.493635 0.493635
0.504182 0.504182 0.504182
0.514756 0.514756 0.514756
0.525358 0.525358 0.525358
0.535987 0.535987 0.535987
0.546643 0.546643 0.546643
0.557324 0.557324 0.557324
0.568032 0.568032 0.568032
0.578765 0.578765 0.578765
0.589523 0.589523 0.589523
0.600306 0.600306 0.600306
0.611113 0.611113 0.611113
0.621945 0.621945 0.621945
0.632800 0.632800 0.632800
0.643679 0.643679 0.643679
0.654582 0.654582 0.654582
0.665507 0.665507 0.665507
0.676455 0.676455 0.676455
0.687426 0.687426 0.687426
0.698419 0.698419 0.698419
0.709434 0.709434 0.709434
0.720471 0.720471 0.720471
0.731529 0.731529 0.731529
0.742608 0.742608 0.742608
0.753709 0.753709 0.753709
0.764830 0.764830 0.764830
0.440951 0.440951 0.440951
0.451351 0.451351 0.451351
0.461781 0.461781 0.461781
0.472241 0.472241 0.472241
0.482730 0.482730 0.482730
0.493248 0.493248 0.493248
0.503793 0.503793 0.503793
0.514367 0.514367 0.514367
0.524968 0.524968 0.524968
0.535596 0.535596 0.535596
0.546250 0.546250 0.546250
0.556931 0.556931 0.556931
0.567637 0.567637 0.567637
0.578369 0.578369 0.578369
0.589126 0.589126 0.589126
0.599908 0.599908 0.599908
0.610715 0.610715 0.610715
0.621546 0.621546 0.621546
0.632400 0.632400 0.632400
0.643279 0.643279 0.643279
0.654180 0.654180 0.654180
0.665105 0.665105 0.665105
0.676052 0.676052 0.676052
0.687022 0.687022 0.687022
0.698014 0.698014 0.698014
0.709028 0.709028 0.709028
0.720064 0.720064 0.720064
0.731122 0.731122 0.731122
