app/src/main/assets/luts/portra_400.cube
TITLE "Portra 400"
LUT_3D_SIZE 9
DOMAIN_MIN 0.0 0.0 0.0
DOMAIN_MAX 1.0 1.0 1.0
0.040000 0.030800 0.021600
0.181582 0.042127 0.032927
0.304201 0.051936 0.042736
0.420554 0.061244 0.052044
0.533016 0.070241 0.061041
0.642670 0.079014 0.069814
0.750138 0.087611 0.078411
0.855821 0.096066 0.086866
0.960000 0.104400 0.095200
0.049519 0.158987 0.031119
0.181582 0.160795 0.032927
0.304201 0.170605 0.042736
0.420554 0.179913 0.052044
0.533016 0.188910 0.061041
0.642670 0.197682 0.069814
0.750138 0.206280 0.078411
0.855821 0.214734 0.086866
0.960000 0.223068 0.095200
0.059135 0.279187 0.040735
0.189390 0.279187 0.040735
0.304201 0.281188 0.042736
0.420554 0.290497 0.052044
0.533016 0.299494 0.061041
0.642670 0.308266 0.069814
0.750138 0.316863 0.078411
0.855821 0.325318 0.086866
0.960000 0.333652 0.095200
0.068502 0.396280 0.050102
0.198757 0.396280 0.050102
0.311567 0.396280 0.050102
0.420554 0.398221 0.052044
0.533016 0.407218 0.061041
0.642670 0.415991 0.069814
0.750138 0.424588 0.078411
0.855821 0.433043 0.086866
0.960000 0.441377 0.095200
0.077712 0.511398 0.059312
0.207967 0.511398 0.059312
0.320776 0.511398 0.059312
0.427821 0.511398 0.059312
0.533016 0.513128 0.061041
0.642670 0.521900 0.069814
0.750138 0.530497 0.078411
0.855821 0.538952 0.086866
0.960000 0.547286 0.095200
0.086806 0.625071 0.068406
0.217061 0.625071 0.068406
0.329870 0.625071 0.068406
0.436915 0.625071 0.068406
0.540380 0.625071 0.068406
0.642670 0.626479 0.069814
0.750138 0.635077 0.078411
0.855821 0.643531 0.086866
0.960000 0.651866 0.095200
0.095808 0.737605 0.077408
0.226064 0.737605 0.077408
0.338873 0.737605 0.077408
0.445918 0.737605 0.077408
0.549383 0.737605 0.077408
0.650265 0.737605 0.077408
0.750138 0.738608 0.078411
0.855821 0.747063 0.086866
0.960000 0.755397 0.095200
0.104736 0.849201 0.086336
0.234991 0.849201 0.086336
0.347801 0.849201 0.086336
0.454846 0.849201 0.086336
0.558311 0.849201 0.086336
0.659193 0.849201 0.086336
0.758063 0.849201 0.086336
0.855821 0.849731 0.086866
0.960000 0.858065 0.095200
0.113600 0.960000 0.095200
0.243855 0.960000 0.095200
0.356665 0.960000 0.095200
0.463709 0.960000 0.095200
0.567175 0.960000 0.095200
0.668057 0.960000 0.095200
0.766927 0.960000 0.095200
0.864156 0.960000 0.095200
0.960000 0.960000 0.095200
0.047600 0.038400 0.135000
0.181582 0.042127 0.138727
0.304201 0.051936 0.148536
0.420554 0.061244 0.157844
0.533016 0.070241 0.166841
0.642670 0.079014 0.175614
0.750138 0.087611 0.184211
0.855821 0.096066 0.192666
0.960000 0.104400 0.201000
0.049519 0.158987 0.136919
0.181582 0.160795 0.138727
0.304201 0.170605 0.148536
0.420554 0.179913 0.157844
0.533016 0.188910 0.166841
0.642670 0.197682 0.175614
0.750138 0.206280 0.184211
0.855821 0.214734 0.192666
0.960000 0.223068 0.201000
0.059135 0.279187 0.146535
0.189390 0.279187 0.146535
0.304201 0.281188 0.148536
0.420554 0.290497 0.157844
0.533016 0.299494 0.166841
0.642670 0.308266 0.175614
0.750138 0.316863 0.184211
0.855821 0.325318 0.192666
0.960000 0.333652 0.201000
0.068502 0.396280 0.155902
0.198757 0.396280 0.155902
0.311567 0.396280 0.155902
0.420554 0.398221 0.157844
0.533016 0.407218 0.166841
0.642670 0.415991 0.175614
0.750138 0.424588 0.184211
0.855821 0.433043 0.192666
0.960000 0.441377 0.201000
0.077712 0.511398 0.165112
0.207967 0.511398 0.165112
0.320776 0.511398 0.165112
0.427821 0.511398 0.165112
0.533016 0.513128 0.166841
0.642670 0.521900 0.175614
0.750138 0.530497 0.184211
0.855821 0.538952 0.192666
0.960000 0.547286 0.201000
0.086806 0.625071 0.174206
0.217061 0.625071 0.174206
0.329870 0.625071 0.174206
0.436915 0.625071 0.174206
0.540380 0.625071 0.174206
0.642670 0.626479 0.175614
0.750138 0.635077 0.184211
0.855821 0.643531 0.192666
0.960000 0.651866 0.201000
0.095808 0.737605 0.183208
0.226064 0.737605 0.183208
0.338873 0.737605 0.183208
0.445918 0.737605 0.183208
0.549383 0.737605 0.183208
0.650265 0.737605 0.183208
0.750138 0.738608 0.184211
0.855821 0.747063 0.192666
0.960000 0.755397 0.201000
0.104736 0.849201 0.192136
0.234991 0.849201 0.192136
0.347801 0.849201 0.192136
0.454846 0.849201 0.192136
0.558311 0.849201 0.192136
0.659193 0.849201 0.192136
0.758063 0.849201 0.192136
0.855821 0.849731 0.192666
0.960000 0.858065 0.201000
0.113600 0.960000 0.201000
0.243855 0.960000 0.201000
0.356665 0.960000 0.201000
0.463709 0.960000 0.201000
0.567175 0.960000 0.201000
0.668057 0.960000 0.201000
0.766927 0.960000 0.201000
0.864156 0.960000 0.201000
0.960000 0.960000 0.201000
0.056800 0.047600 0.250000
0.187055 0.047600 0.250000
0.304201 0.051936 0.254336
0.420554 0.061244 0.263644
0.533016 0.070241 0.272641
0.642670 0.079014 0.281414
0.750138 0.087611 0.290011
0.855821 0.096066 0.298466
0.960000 0.104400 0.306800
0.056800 0.166268 0.250000
0.187055 0.166268 0.250000
0.304201 0.170605 0.254336
0.420554 0.179913 0.263644
0.533016 0.188910 0.272641
0.642670 0.197682 0.281414
0.750138 0.206280 0.290011
0.855821 0.214734 0.298466
0.960000 0.223068 0.306800
0.059135 0.279187 0.252335
0.189390 0.279187 0.252335
0.304201 0.281188 0.254336
0.420554 0.290497 0.263644
0.533016 0.299494 0.272641
0.642670 0.308266 0.281414
0.750138 0.316863 0.290011
0.855821 0.325318 0.298466
0.960000 0.333652 0.306800
0.068502 0.396280 0.261702
0.198757 0.396280 0.261702
0.311567 0.396280 0.261702
0.420554 0.398221 0.263644
0.533016 0.407218 0.272641
0.642670 0.415991 0.281414
0.750138 0.424588 0.290011
0.855821 0.433043 0.298466
0.960000 0.441377 0.306800
0.077712 0.511398 0.270912
0.207967 0.511398 0.270912
0.320776 0.511398 0.270912
0.427821 0.511398 0.270912
0.533016 0.513128 0.272641
0.642670 0.521900 0.281414
0.750138 0.530497 0.290011
0.855821 0.538952 0.298466
0.960000 0.547286 0.306800
0.086806 0.625071 0.280006
0.217061 0.625071 0.280006
0.329870 0.625071 0.280006
0.436915 0.625071 0.280006
0.540380 0.625071 0.280006
0.642670 0.626479 0.281414
0.750138 0.635077 0.290011
0.855821 0.643531 0.298466
0.960000 0.651866 0.306800
0.095808 0.737605 0.289008
0.226064 0.737605 0.289008
0.338873 0.737605 0.289008
0.445918 0.737605 0.289008
0.549383 0.737605 0.289008
0.650265 0.737605 0.289008
0.750138 0.738608 0.290011
0.855821 0.747063 0.298466
0.960000 0.755397 0.306800
0.104736 0.849201 0.297936
0.234991 0.849201 0.297936
0.347801 0.849201 0.297936
0.454846 0.849201 0.297936
0.558311 0.849201 0.297936
0.659193 0.849201 0.297936
0.758063 0.849201 0.297936
0.855821 0.849731 0.298466
0.960000 0.858065 0.306800
0.113600 0.960000 0.306800
0.243855 0.960000 0.306800
0.356665 0.960000 0.306800
0.463709 0.960000 0.306800
0.567175 0.960000 0.306800
0.668057 0.960000 0.306800
0.766927 0.960000 0.306800
0.864156 0.960000 0.306800
0.960000 0.960000 0.306800
0.066000 0.056800 0.365000
0.196255 0.056800 0.365000
0.309065 0.056800 0.365000
0.420554 0.061244 0.369444
0.533016 0.070241 0.378441
0.642670 0.079014 0.387214
0.750138 0.087611 0.395811
0.855821 0.096066 0.404266
0.960000 0.104400 0.412600
0.066000 0.175468 0.365000
0.196255 0.175468 0.365000
0.309065 0.175468 0.365000
0.420554 0.179913 0.369444
0.533016 0.188910 0.378441
0.642670 0.197682 0.387214
0.750138 0.206280 0.395811
0.855821 0.214734 0.404266
0.960000 0.223068 0.412600
0.066000 0.286052 0.365000
0.196255 0.286052 0.365000
0.309065 0.286052 0.365000
0.420554 0.290497 0.369444
0.533016 0.299494 0.378441
0.642670 0.308266 0.387214
0.750138 0.316863 0.395811
0.855821 0.325318 0.404266
0.960000 0.333652 0.412600
0.068502 0.396280 0.367502
0.198757 0.396280 0.367502
0.311567 0.396280 0.367502
0.420554 0.398221 0.369444
0.533016 0.407218 0.378441
0.642670 0.415991 0.387214
0.750138 0.424588 0.395811
0.855821 0.433043 0.404266
0.960000 0.441377 0.412600
0.077712 0.511398 0.376712
0.207967 0.511398 0.376712
0.320776 0.511398 0.376712
0.427821 0.511398 0.376712
0.533016 0.513128 0.378441
0.642670 0.521900 0.387214
0.750138 0.530497 0.395811
0.855821 0.538952 0.404266
0.960000 0.547286 0.412600
0.086806 0.625071 0.385806
0.217061 0.625071 0.385806
0.329870 0.625071 0.385806
0.436915 0.625071 0.385806
0.540380 0.625071 0.385806
0.642670 0.626479 0.387214
0.750138 0.635077 0.395811
0.855821 0.643531 0.404266
0.960000 0.651866 0.412600
0.095808 0.737605 0.394808
0.226064 0.737605 0.394808
0.338873 0.737605 0.394808
0.445918 0.737605 0.394808
0.549383 0.737605 0.394808
0.650265 0.737605 0.394808
0.750138 0.738608 0.395811
0.855821 0.747063 0.404266
0.960000 0.755397 0.412600
0.104736 0.849201 0.403736
0.234991 0.849201 0.403736
0.347801 0.849201 0.403736
0.454846 0.849201 0.403736
0.558311 0.849201 0.403736
0.659193 0.849201 0.403736
0.758063 0.849201 0.403736
0.855821 0.849731 0.404266
0.960000 0.858065 0.412600
0.113600 0.960000 0.412600
0.243855 0.960000 0.412600
0.356665 0.960000 0.412600
0.463709 0.960000 0.412600
0.567175 0.960000 0.412600
0.668057 0.960000 0.412600
0.766927 0.960000 0.412600
0.864156 0.960000 0.412600
0.960000 0.960000 0.412600
0.075200 0.066000 0.480000
0.205455 0.066000 0.480000
0.318265 0.066000 0.480000
0.425309 0.066000 0.480000
0.533016 0.070241 0.484241
0.642670 0.079014 0.493014
0.750138 0.087611 0.501611
0.855821 0.096066 0.510066
0.960000 0.104400 0.518400
0.075200 0.184668 0.480000
0.205455 0.184668 0.480000
0.318265 0.184668 0.480000
0.425309 0.184668 0.480000
0.533016 0.188910 0.484241
0.642670 0.197682 0.493014
0.750138 0.206280 0.501611
0.855821 0.214734 0.510066
0.960000 0.223068 0.518400
0.075200 0.295252 0.480000
0.205455 0.295252 0.480000
0.318265 0.295252 0.480000
0.425309 0.295252 0.480000
0.533016 0.299494 0.484241
0.642670 0.308266 0.493014
0.750138 0.316863 0.501611
0.855821 0.325318 0.510066
0.960000 0.333652 0.518400
0.075200 0.402977 0.480000
0.205455 0.402977 0.480000
0.318265 0.402977 0.480000
0.425309 0.402977 0.480000
0.533016 0.407218 0.484241
0.642670 0.415991 0.493014
0.750138 0.424588 0.501611
0.855821 0.433043 0.510066
0.960000 0.441377 0.518400
0.077712 0.511398 0.482512
0.207967 0.511398 0.482512
0.320776 0.511398 0.482512
0.427821 0.511398 0.482512
0.533016 0.513128 0.484241
0.642670 0.521900 0.493014
0.750138 0.530497 0.501611
0.855821 0.538952 0.510066
0.960000 0.547286 0.518400
0.086806 0.625071 0.491606
0.217061 0.625071 0.491606
0.329870 0.625071 0.491606
0.436915 0.625071 0.491606
0.540380 0.625071 0.491606
0.642670 0.626479 0.493014
0.750138 0.635077 0.501611
0.855821 0.643531 0.510066
0.960000 0.651866 0.518400
0.095808 0.737605 0.500608
0.226064 0.737605 0.500608
0.338873 0.737605 0.500608
0.445918 0.737605 0.500608
0.549383 0.737605 0.500608
0.650265 0.737605 0.500608
0.750138 0.738608 0.501611
0.855821 0.747063 0.510066
0.960000 0.755397 0.518400
0.104736 0.849201 0.509536
0.234991 0.849201 0.509536
0.347801 0.849201 0.509536
0.454846 0.849201 0.509536
0.558311 0.849201 0.509536
0.659193 0.849201 0.509536
0.758063 0.849201 0.509536
0.855821 0.849731 0.510066
0.960000 0.858065 0.518400
0.113600 0.960000 0.518400
0.243855 0.960000 0.518400
0.356665 0.960000 0.518400
0.463709 0.960000 0.518400
0.567175 0.960000 0.518400
0.668057 0.960000 0.518400
0.766927 0.960000 0.518400
0.864156 0.960000 0.518400
0.960000 0.960000 0.518400
0.084400 0.075200 0.595000
0.214655 0.075200 0.595000
0.327465 0.075200 0.595000
0.434509 0.075200 0.595000
0.537975 0.075200 0.595000
0.642670 0.079014 0.598814
0.750138 0.087611 0.607411
0.855821 0.096066 0.615866
0.960000 0.104400 0.624200
0.084400 0.193868 0.595000
0.214655 0.193868 0.595000
0.327465 0.193868 0.595000
0.434509 0.193868 0.595000
0.537975 0.193868 0.595000
0.642670 0.197682 0.598814
0.750138 0.206280 0.607411
0.855821 0.214734 0.615866
0.960000 0.223068 0.624200
0.084400 0.304452 0.595000
0.214655 0.304452 0.595000
0.327465 0.304452 0.595000
0.434509 0.304452 0.595000
0.537975 0.304452 0.595000
0.642670 0.308266 0.598814
0.750138 0.316863 0.607411
0.855821 0.325318 0.615866
0.960000 0.333652 0.624200
0.084400 0.412177 0.595000
0.214655 0.412177 0.595000
0.327465 0.412177 0.595000
0.434509 0.412177 0.595000
0.537975 0.412177 0.595000
0.642670 0.415991 0.598814
0.750138 0.424588 0.607411
0.855821 0.433043 0.615866
0.960000 0.441377 0.624200
0.084400 0.518086 0.595000
0.214655 0.518086 0.595000
0.327465 0.518086 0.595000
0.434509 0.518086 0.595000
0.537975 0.518086 0.595000
0.642670 0.521900 0.598814
0.750138 0.530497 0.607411
0.855821 0.538952 0.615866
0.960000 0.547286 0.624200
0.086806 0.625071 0.597406
0.217061 0.625071 0.597406
0.329870 0.625071 0.597406
0.436915 0.625071 0.597406
0.540380 0.625071 0.597406
0.642670 0.626479 0.598814
0.750138 0.635077 0.607411
0.855821 0.643531 0.615866
0.960000 0.651866 0.624200
0.095808 0.737605 0.606408
0.226064 0.737605 0.606408
0.338873 0.737605 0.606408
0.445918 0.737605 0.606408
0.549383 0.737605 0.606408
0.650265 0.737605 0.606408
0.750138 0.738608 0.607411
0.855821 0.747063 0.615866
0.960000 0.755397 0.624200
0.104736 0.849201 0.615336
0.234991 0.849201 0.615336
0.347801 0.849201 0.615336
0.454846 0.849201 0.615336
0.558311 0.849201 0.615336
0.659193 0.849201 0.615336
0.758063 0.849201 0.615336
0.855821 0.849731 0.615866
0.960000 0.858065 0.624200
0.113600 0.960000 0.624200
0.243855 0.960000 0.624200
0.356665 0.960000 0.624200
0.463709 0.960000 0.624200
0.567175 0.960000 0.624200
0.668057 0.960000 0.624200
0.766927 0.960000 0.624200
0.864156 0.960000 0.624200
0.960000 0.960000 0.624200
0.093600 0.084400 0.710000
0.223855 0.084400 0.710000
0.336665 0.084400 0.710000
0.443709 0.084400 0.710000
0.547175 0.084400 0.710000
0.648057 0.084400 0.710000
0.750138 0.087611 0.713211
0.855821 0.096066 0.721666
0.960000 0.104400 0.730000
0.093600 0.203068 0.710000
0.223855 0.203068 0.710000
0.336665 0.203068 0.710000
0.443709 0.203068 0.710000
0.547175 0.203068 0.710000
0.648057 0.203068 0.710000
0.750138 0.206280 0.713211
0.855821 0.214734 0.721666
0.960000 0.223068 0.730000
0.093600 0.313652 0.710000
0.223855 0.313652 0.710000
0.336665 0.313652 0.710000
0.443709 0.313652 0.710000
0.547175 0.313652 0.710000
0.648057 0.313652 0.710000
0.750138 0.316863 0.713211
0.855821 0.325318 0.721666
0.960000 0.333652 0.730000
0.093600 0.421377 0.710000
0.223855 0.421377 0.710000
0.336665 0.421377 0.710000
0.443709 0.421377 0.710000
0.547175 0.421377 0.710000
0.648057 0.421377 0.710000
0.750138 0.424588 0.713211
0.855821 0.433043 0.721666
0.960000 0.441377 0.730000
0.093600 0.527286 0.710000
0.223855 0.527286 0.710000
0.336665 0.527286 0.710000
0.443709 0.527286 0.710000
0.547175 0.527286 0.710000
0.648057 0.527286 0.710000
0.750138 0.530497 0.713211
0.855821 0.538952 0.721666
0.960000 0.547286 0.730000
0.093600 0.631866 0.710000
0.223855 0.631866 0.710000
0.336665 0.631866 0.710000
0.443709 0.631866 0.710000
0.547175 0.631866 0.710000
0.648057 0.631866 0.710000
0.750138 0.635077 0.713211
0.855821 0.643531 0.721666
0.960000 0.651866 0.730000
0.095808 0.737605 0.712208
0.226064 0.737605 0.712208
0.338873 0.737605 0.712208
0.445918 0.737605 0.712208
0.549383 0.737605 0.712208
0.650265 0.737605 0.712208
0.750138 0.738608 0.713211
0.855821 0.747063 0.721666
0.960000 0.755397 0.730000
0.104736 0.849201 0.721136
0.234991 0.849201 0.721136
0.347801 0.849201 0.721136
0.454846 0.849201 0.721136
0.558311 0.849201 0.721136
0.659193 0.849201 0.721136
0.758063 0.849201 0.721136
0.855821 0.849731 0.721666
0.960000 0.858065 0.730000
0.113600 0.960000 0.730000
0.243855 0.960000 0.730000
0.356665 0.960000 0.730000
0.463709 0.960000 0.730000
0.567175 0.960000 0.730000
0.668057 0.960000 0.730000
0.766927 0.960000 0.730000
0.864156 0.960000 0.730000
0.960000 0.960000 0.730000
0.102800 0.093600 0.825000
0.233055 0.093600 0.825000
0.345865 0.093600 0.825000
0.452909 0.093600 0.825000
0.556375 0.093600 0.825000
0.657257 0.093600 0.825000
0.756127 0.093600 0.825000
0.855821 0.096066 0.827466
0.960000 0.104400 0.835800
0.102800 0.212268 0.825000
0.233055 0.212268 0.825000
0.345865 0.212268 0.825000
0.452909 0.212268 0.825000
0.556375 0.212268 0.825000
0.657257 0.212268 0.825000
0.756127 0.212268 0.825000
0.855821 0.214734 0.827466
0.960000 0.223068 0.835800
0.102800 0.322852 0.825000
0.233055 0.322852 0.825000
0.345865 0.322852 0.825000
0.452909 0.322852 0.825000
0.556375 0.322852 0.825000
0.657257 0.322852 0.825000
0.756127 0.322852 0.825000
0.855821 0.325318 0.827466
0.960000 0.333652 0.835800
0.102800 0.430577 0.825000
0.233055 0.430577 0.825000
0.345865 0.430577 0.825000
0.452909 0.430577 0.825000
0.556375 0.430577 0.825000
0.657257 0.430577 0.825000
0.756127 0.430577 0.825000
0.855821 0.433043 0.827466
0.960000 0.441377 0.835800
0.102800 0.536486 0.825000
0.233055 0.536486 0.825000
0.345865 0.536486 0.825000
0.452909 0.536486 0.825000
0.556375 0.536486 0.825000
0.657257 0.536486 0.825000
0.756127 0.536486 0.825000
0.855821 0.538952 0.827466
0.960000 0.547286 0.835800
0.102800 0.641066 0.825000
0.233055 0.641066 0.825000
0.345865 0.641066 0.825000
0.452909 0.641066 0.825000
0.556375 0.641066 0.825000
0.657257 0.641066 0.825000
0.756127 0.641066 0.825000
0.855821 0.643531 0.827466
0.960000 0.651866 0.835800
0.102800 0.744597 0.825000
0.233055 0.744597 0.825000
0.345865 0.744597 0.825000
0.452909 0.744597 0.825000
0.556375 0.744597 0.825000
0.657257 0.744597 0.825000
0.756127 0.744597 0.825000
0.855821 0.747063 0.827466
0.960000 0.755397 0.835800
0.104736 0.849201 0.826936
0.234991 0.849201 0.826936
0.347801 0.849201 0.826936
0.454846 0.849201 0.826936
0.558311 0.849201 0.826936
0.659193 0.849201 0.826936
0.758063 0.849201 0.826936
0.855821 0.849731 0.827466
0.960000 0.858065 0.835800
0.113600 0.960000 0.835800
0.243855 0.960000 0.835800
0.356665 0.960000 0.835800
0.463709 0.960000 0.835800
0.567175 0.960000 0.835800
0.668057 0.960000 0.835800
0.766927 0.960000 0.835800
0.864156 0.960000 0.835800
0.960000 0.960000 0.835800
0.112000 0.102800 0.940000
0.242255 0.102800 0.940000
0.355065 0.102800 0.940000
0.462109 0.102800 0.940000
0.565575 0.102800 0.940000
0.666457 0.102800 0.940000
0.765327 0.102800 0.940000
0.862556 0.102800 0.940000
0.960000 0.104400 0.941600
0.112000 0.221468 0.940000
0.242255 0.221468 0.940000
0.355065 0.221468 0.940000
0.462109 0.221468 0.940000
0.565575 0.221468 0.940000
0.666457 0.221468 0.940000
0.765327 0.221468 0.940000
0.862556 0.221468 0.940000
0.960000 0.223068 0.941600
0.112000 0.332052 0.940000
0.242255 0.332052 0.940000
0.355065 0.332052 0.940000
0.462109 0.332052 0.940000
0.565575 0.332052 0.940000
0.666457 0.332052 0.940000
0.765327 0.332052 0.940000
0.862556 0.332052 0.940000
0.960000 0.333652 0.941600
0.112000 0.439777 0.940000
0.242255 0.439777 0.940000
0.355065 0.439777 0.940000
0.462109 0.439777 0.940000
0.565575 0.439777 0.940000
0.666457 0.439777 0.940000
0.765327 0.439777 0.940000
0.862556 0.439777 0.940000
0.960000 0.441377 0.941600
0.112000 0.545686 0.940000
0.242255 0.545686 0.940000
0.355065 0.545686 0.940000
0.462109 0.545686 0.940000
0.565575 0.545686 0.940000
0.666457 0.545686 0.940000
0.765327 0.545686 0.940000
0.862556 0.545686 0.940000
0.960000 0.547286 0.941600
0.112000 0.650266 0.940000
0.242255 0.650266 0.940000
0.355065 0.650266 0.940000
0.462109 0.650266 0.940000
0.565575 0.650266 0.940000
0.666457 0.650266 0.940000
0.765327 0.650266 0.940000
0.862556 0.650266 0.940000
0.960000 0.651866 0.941600
0.112000 0.753797 0.940000
0.242255 0.753797 0.940000
0.355065 0.753797 0.940000
0.462109 0.753797 0.940000
0.565575 0.753797 0.940000
0.666457 0.753797 0.940000
0.765327 0.753797 0.940000
0.862556 0.753797 0.940000
0.960000 0.755397 0.941600
0.112000 0.856465 0.940000
0.242255 0.856465 0.940000
0.355065 0.856465 0.940000
0.462109 0.856465 0.940000
0.565575 0.856465 0.940000
0.666457 0.856465 0.940000
0.765327 0.856465 0.940000
0.862556 0.856465 0.940000
0.960000 0.858065 0.941600
0.113600 0.960000 0.941600
0.243855 0.960000 0.941600
0.356665 0.960000 0.941600
0.463709 0.960000 0.941600
0.567175 0.960000 0.941600
0.668057 0.960000 0.941600
0.766927 0.960000 0.941600
0.864156 0.960000 0.941600
0.960000 0.960000 0.941600
