app/src/main/assets/luts/portra_400.cube
TITLE "Portra 400"
LUT_3D_SIZE 5
DOMAIN_MIN 0.0 0.0 0.0
DOMAIN_MAX 1.0 1.0 1.0
0.040000 0.030800 0.021600
0.304201 0.051936 0.042736
0.533016 0.070241 0.061041
0.750138 0.087611 0.078411
0.960000 0.104400 0.095200
0.059135 0.279187 0.040735
0.304201 0.281188 0.042736
0.533016 0.299494 0.061041
0.750138 0.316863 0.078411
0.960000 0.333652 0.095200
0.077712 0.511398 0.059312
0.320776 0.511398 0.059312
0.533016 0.513128 0.061041
0.750138 0.530497 0.078411
0.960000 0.547286 0.095200
0.095808 0.737605 0.077408
0.338873 0.737605 0.077408
0.549383 0.737605 0.077408
0.750138 0.738608 0.078411
0.960000 0.755397 0.095200
0.113600 0.960000 0.095200
0.356665 0.960000 0.095200
0.567175 0.960000 0.095200
0.766927 0.960000 0.095200
0.960000 0.960000 0.095200
0.056800 0.047600 0.250000
0.304201 0.051936 0.254336
0.533016 0.070241 0.272641
0.750138 0.087611 0.290011
0.960000 0.104400 0.306800
0.059135 0.279187 0.252335
0.304201 0.281188 0.254336
0.533016 0.299494 0.272641
0.750138 0.316863 0.290011
0.960000 0.333652 0.306800
0.077712 0.511398 0.270912
0.320776 0.511398 0.270912
0.533016 0.513128 0.272641
0.750138 0.530497 0.290011
0.960000 0.547286 0.306800
0.095808 0.737605 0.289008
0.338873 0.737605 0.289008
0.549383 0.737605 0.289008
0.750138 0.738608 0.290011
0.960000 0.755397 0.306800
0.113600 0.960000 0.306800
0.356665 0.960000 0.306800
0.567175 0.960000 0.306800
0.766927 0.960000 0.306800
0.960000 0.960000 0.306800
0.075200 0.066000 0.480000
0.318265 0.066000 0.480000
0.533016 0.070241 0.484241
0.750138 0.087611 0.501611
0.960000 0.104400 0.518400
0.075200 0.295252 0.480000
0.318265 0.295252 0.480000
0.533016 0.299494 0.484241
0.750138 0.316863 0.501611
0.960000 0.333652 0.518400
0.077712 0.511398 0.482512
0.320776 0.511398 0.482512
0.533016 0.513128 0.484241
0.750138 0.530497 0.501611
0.960000 0.547286 0.518400
0.095808 0.737605 0.500608
0.338873 0.737605 0.500608
0.549383 0.737605 0.500608
0.750138 0.738608 0.501611
0.960000 0.755397 0.518400
0.113600 0.960000 0.518400
0.356665 0.960000 0.518400
0.567175 0.960000 0.518400
0.766927 0.960000 0.518400
0.960000 0.960000 0.518400
0.093600 0.084400 0.710000
0.336665 0.084400 0.710000
0.547175 0.084400 0.710000
0.750138 0.087611 0.713211
0.960000 0.104400 0.730000
0.093600 0.313652 0.710000
0.336665 0.313652 0.710000
0.547175 0.313652 0.710000
0.750138 0.316863 0.713211
0.960000 0.333652 0.730000
0.093600 0.527286 0.710000
0.336665 0.527286 0.710000
0.547175 0.527286 0.710000
0.750138 0.530497 0.713211
0.960000 0.547286 0.730000
0.095808 0.737605 0.712208
0.338873 0.737605 0.712208
0.549383 0.737605 0.712208
0.750138 0.738608 0.713211
0.960000 0.755397 0.730000
0.113600 0.960000 0.730000
0.356665 0.960000 0.730000
0.567175 0.960000 0.730000
0.766927 0.960000 0.730000
0.960000 0.960000 0.730000
0.112000 0.102800 0.940000
0.355065 0.102800 0.940000
0.565575 0.102800 0.940000
0.765327 0.102800 0.940000
0.960000 0.104400 0.941600
0.112000 0.332052 0.940000
0.355065 0.332052 0.940000
0.565575 0.332052 0.940000
0.765327 0.332052 0.940000
0.960000 0.333652 0.941600
0.112000 0.545686 0.940000
0.355065 0.545686 0.940000
0.565575 0.545686 0.940000
0.765327 0.545686 0.940000
0.960000 0.547286 0.941600
0.112000 0.753797 0.940000
0.355065 0.753797 0.940000
0.565575 0.753797 0.940000
0.765327 0.753797 0.940000
0.960000 0.755397 0.941600
0.113600 0.960000 0.941600
0.356665 0.960000 0.941600
0.567175 0.960000 0.941600
0.766927 0.960000 0.941600
0.960000 0.960000 0.941600
