app/src/main/assets/luts/portra_400.cube
TITLE "Portra 400"
LUT_3D_SIZE 33
DOMAIN_MIN 0.0 0.0 0.0
DOMAIN_MAX 1.0 1.0 1.0
0.040000 0.030800 0.021600
0.080659 0.034053 0.024853
0.115872 0.036870 0.027670
0.149285 0.039543 0.030343
0.181582 0.042127 0.032927
0.213072 0.044646 0.035446
0.243934 0.047115 0.037915
0.274283 0.049543 0.040343
0.304201 0.051936 0.042736
0.333745 0.054300 0.045100
0.362963 0.056637 0.047437
0.391889 0.058951 0.049751
0.420554 0.061244 0.052044
0.448980 0.063518 0.054318
0.477188 0.065775 0.056575
0.505195 0.068016 0.058816
0.533016 0.070241 0.061041
0.560663 0.072453 0.063253
0.588148 0.074652 0.065452
0.615481 0.076838 0.067638
0.642670 0.079014 0.069814
0.669724 0.081178 0.071978
0.696649 0.083332 0.074132
0.723452 0.085476 0.076276
0.750138 0.087611 0.078411
0.776714 0.089737 0.080537
0.803183 0.091855 0.082655
0.829551 0.093964 0.084764
0.855821 0.096066 0.086866
0.881998 0.098160 0.088960
0.908084 0.100247 0.091047
0.934084 0.102327 0.093127
0.960000 0.104400 0.095200
0.041965 0.064561 0.023565
0.080659 0.065849 0.024853
0.115872 0.068666 0.027670
0.149285 0.071339 0.030343
0.181582 0.073923 0.032927
0.213072 0.076442 0.035446
0.243934 0.078911 0.037915
0.274283 0.081339 0.040343
0.304201 0.083732 0.042736
0.333745 0.086096 0.045100
0.362963 0.088433 0.047437
0.391889 0.090748 0.049751
0.420554 0.093041 0.052044
0.448980 0.095315 0.054318
0.477188 0.097571 0.056575
0.505195 0.099812 0.058816
0.533016 0.102038 0.061041
0.560663 0.104249 0.063253
0.588148 0.106448 0.065452
0.615481 0.108635 0.067638
0.642670 0.110810 0.069814
0.669724 0.112974 0.071978
0.696649 0.115128 0.074132
0.723452 0.117273 0.076276
0.750138 0.119407 0.078411
0.776714 0.121534 0.080537
0.803183 0.123651 0.082655
0.829551 0.125761 0.084764
0.855821 0.127862 0.086866
0.881998 0.129956 0.088960
0.908084 0.132043 0.091047
0.934084 0.134123 0.093127
0.960000 0.136196 0.095200
0.044541 0.096768 0.026141
0.081947 0.096768 0.026141
0.115872 0.098296 0.027670
0.149285 0.100969 0.030343
0.181582 0.103553 0.032927
0.213072 0.106072 0.035446
0.243934 0.108541 0.037915
0.274283 0.110969 0.040343
0.304201 0.113363 0.042736
0.333745 0.115726 0.045100
0.362963 0.118064 0.047437
0.391889 0.120378 0.049751
0.420554 0.122671 0.052044
0.448980 0.124945 0.054318
0.477188 0.127202 0.056575
0.505195 0.129442 0.058816
0.533016 0.131668 0.061041
0.560663 0.133880 0.063253
0.588148 0.136079 0.065452
0.615481 0.138265 0.067638
0.642670 0.140440 0.069814
0.669724 0.142605 0.071978
0.696649 0.144759 0.074132
0.723452 0.146903 0.076276
0.750138 0.149038 0.078411
0.776714 0.151164 0.080537
0.803183 0.153281 0.082655
0.829551 0.155391 0.084764
0.855821 0.157492 0.086866
0.881998 0.159586 0.088960
0.908084 0.161673 0.091047
0.934084 0.163753 0.093127
0.960000 0.165827 0.095200
0.047051 0.128142 0.028651
0.084457 0.128142 0.028651
0.116853 0.128142 0.028651
0.149285 0.129834 0.030343
0.181582 0.132417 0.032927
0.213072 0.134937 0.035446
0.243934 0.137405 0.037915
0.274283 0.139833 0.040343
0.304201 0.142227 0.042736
0.333745 0.144590 0.045100
0.362963 0.146928 0.047437
0.391889 0.149242 0.049751
0.420554 0.151535 0.052044
0.448980 0.153809 0.054318
0.477188 0.156066 0.056575
0.505195 0.158306 0.058816
0.533016 0.160532 0.061041
0.560663 0.162744 0.063253
0.588148 0.164943 0.065452
0.615481 0.167129 0.067638
0.642670 0.169304 0.069814
0.669724 0.171469 0.071978
0.696649 0.173623 0.074132
0.723452 0.175767 0.076276
0.750138 0.177902 0.078411
0.776714 0.180028 0.080537
0.803183 0.182145 0.082655
0.829551 0.184255 0.084764
0.855821 0.186357 0.086866
0.881998 0.188451 0.088960
0.908084 0.190538 0.091047
0.934084 0.192618 0.093127
0.960000 0.194691 0.095200
0.049519 0.158987 0.031119
0.086925 0.158987 0.031119
0.119321 0.158987 0.031119
0.150062 0.158987 0.031119
0.181582 0.160795 0.032927
0.213072 0.163314 0.035446
0.243934 0.165783 0.037915
0.274283 0.168211 0.040343
0.304201 0.170605 0.042736
0.333745 0.172968 0.045100
0.362963 0.175305 0.047437
0.391889 0.177620 0.049751
0.420554 0.179913 0.052044
0.448980 0.182187 0.054318
0.477188 0.184443 0.056575
0.505195 0.186684 0.058816
0.533016 0.188910 0.061041
0.560663 0.191122 0.063253
0.588148 0.193320 0.065452
0.615481 0.195507 0.067638
0.642670 0.197682 0.069814
0.669724 0.199846 0.071978
0.696649 0.202000 0.074132
0.723452 0.204145 0.076276
0.750138 0.206280 0.078411
0.776714 0.208406 0.080537
0.803183 0.210523 0.082655
0.829551 0.212633 0.084764
0.855821 0.214734 0.086866
0.881998 0.216828 0.088960
0.908084 0.218915 0.091047
0.934084 0.220995 0.093127
0.960000 0.223068 0.095200
0.051956 0.189445 0.033556
0.089362 0.189445 0.033556
0.121758 0.189445 0.033556
0.152498 0.189445 0.033556
0.182211 0.189445 0.033556
0.213072 0.191335 0.035446
0.243934 0.193804 0.037915
0.274283 0.196232 0.040343
0.304201 0.198626 0.042736
0.333745 0.200989 0.045100
0.362963 0.203327 0.047437
0.391889 0.205641 0.049751
0.420554 0.207934 0.052044
0.448980 0.210208 0.054318
0.477188 0.212465 0.056575
0.505195 0.214705 0.058816
0.533016 0.216931 0.061041
0.560663 0.219143 0.063253
0.588148 0.221342 0.065452
0.615481 0.223528 0.067638
0.642670 0.225703 0.069814
0.669724 0.227868 0.071978
0.696649 0.230022 0.074132
0.723452 0.232166 0.076276
0.750138 0.234301 0.078411
0.776714 0.236427 0.080537
0.803183 0.238544 0.082655
0.829551 0.240654 0.084764
0.855821 0.242755 0.086866
0.881998 0.244850 0.088960
0.908084 0.246937 0.091047
0.934084 0.249016 0.093127
0.960000 0.251090 0.095200
0.054368 0.219598 0.035968
0.091774 0.219598 0.035968
0.124170 0.219598 0.035968
0.154910 0.219598 0.035968
0.184623 0.219598 0.035968
0.213594 0.219598 0.035968
0.243934 0.221545 0.037915
0.274283 0.223973 0.040343
0.304201 0.226366 0.042736
0.333745 0.228730 0.045100
0.362963 0.231067 0.047437
0.391889 0.233381 0.049751
0.420554 0.235675 0.052044
0.448980 0.237949 0.054318
0.477188 0.240205 0.056575
0.505195 0.242446 0.058816
0.533016 0.244672 0.061041
0.560663 0.246883 0.063253
0.588148 0.249082 0.065452
0.615481 0.251269 0.067638
0.642670 0.253444 0.069814
0.669724 0.255608 0.071978
0.696649 0.257762 0.074132
0.723452 0.259906 0.076276
0.750138 0.262041 0.078411
0.776714 0.264167 0.080537
0.803183 0.266285 0.082655
0.829551 0.268394 0.084764
0.855821 0.270496 0.086866
0.881998 0.272590 0.088960
0.908084 0.274677 0.091047
0.934084 0.276757 0.093127
0.960000 0.278830 0.095200
0.056760 0.249500 0.038360
0.094166 0.249500 0.038360
0.126562 0.249500 0.038360
0.157302 0.249500 0.038360
0.187015 0.249500 0.038360
0.215986 0.249500 0.038360
0.244379 0.249500 0.038360
0.274283 0.251482 0.040343
0.304201 0.253876 0.042736
0.333745 0.256239 0.045100
0.362963 0.258577 0.047437
0.391889 0.260891 0.049751
0.420554 0.263184 0.052044
0.448980 0.265458 0.054318
0.477188 0.267715 0.056575
0.505195 0.269955 0.058816
0.533016 0.272181 0.061041
0.560663 0.274393 0.063253
0.588148 0.276591 0.065452
0.615481 0.278778 0.067638
0.642670 0.280953 0.069814
0.669724 0.283117 0.071978
0.696649 0.285271 0.074132
0.723452 0.287416 0.076276
0.750138 0.289551 0.078411
0.776714 0.291677 0.080537
0.803183 0.293794 0.082655
0.829551 0.295904 0.084764
0.855821 0.298005 0.086866
0.881998 0.300099 0.088960
0.908084 0.302186 0.091047
0.934084 0.304266 0.093127
0.960000 0.306340 0.095200
0.059135 0.279187 0.040735
0.096541 0.279187 0.040735
0.128937 0.279187 0.040735
0.159678 0.279187 0.040735
0.189390 0.279187 0.040735
0.218361 0.279187 0.040735
0.246754 0.279187 0.040735
0.274675 0.279187 0.040735
0.304201 0.281188 0.042736
0.333745 0.283552 0.045100
0.362963 0.285889 0.047437
0.391889 0.288204 0.049751
0.420554 0.290497 0.052044
0.448980 0.292771 0.054318
0.477188 0.295027 0.056575
0.505195 0.297268 0.058816
0.533016 0.299494 0.061041
0.560663 0.301705 0.063253
0.588148 0.303904 0.065452
0.615481 0.306091 0.067638
0.642670 0.308266 0.069814
0.669724 0.310430 0.071978
0.696649 0.312584 0.074132
0.723452 0.314728 0.076276
0.750138 0.316863 0.078411
0.776714 0.318989 0.080537
0.803183 0.321107 0.082655
0.829551 0.323216 0.084764
0.855821 0.325318 0.086866
0.881998 0.327412 0.088960
0.908084 0.329499 0.091047
0.934084 0.331579 0.093127
0.960000 0.333652 0.095200
0.061495 0.308690 0.043095
0.098901 0.308690 0.043095
0.131297 0.308690 0.043095
0.162038 0.308690 0.043095
0.191750 0.308690 0.043095
0.220721 0.308690 0.043095
0.249114 0.308690 0.043095
0.277036 0.308690 0.043095
0.304560 0.308690 0.043095
0.333745 0.310694 0.045100
0.362963 0.313032 0.047437
0.391889 0.315346 0.049751
0.420554 0.317639 0.052044
0.448980 0.319913 0.054318
0.477188 0.322170 0.056575
0.505195 0.324410 0.058816
0.533016 0.326636 0.061041
0.560663 0.328848 0.063253
0.588148 0.331046 0.065452
0.615481 0.333233 0.067638
0.642670 0.335408 0.069814
0.669724 0.337572 0.071978
0.696649 0.339726 0.074132
0.723452 0.341871 0.076276
0.750138 0.344006 0.078411
0.776714 0.346132 0.080537
0.803183 0.348249 0.082655
0.829551 0.350359 0.084764
0.855821 0.352460 0.086866
0.881998 0.354554 0.088960
0.908084 0.356641 0.091047
0.934084 0.358721 0.093127
0.960000 0.360794 0.095200
0.063842 0.338028 0.045442
0.101248 0.338028 0.045442
0.133644 0.338028 0.045442
0.164385 0.338028 0.045442
0.194097 0.338028 0.045442
0.223068 0.338028 0.045442
0.251461 0.338028 0.045442
0.279383 0.338028 0.045442
0.306907 0.338028 0.045442
0.334088 0.338028 0.045442
0.362963 0.340023 0.047437
0.391889 0.342337 0.049751
0.420554 0.344630 0.052044
0.448980 0.346904 0.054318
0.477188 0.349161 0.056575
0.505195 0.351402 0.058816
0.533016 0.353627 0.061041
0.560663 0.355839 0.063253
0.588148 0.358038 0.065452
0.615481 0.360224 0.067638
0.642670 0.362400 0.069814
0.669724 0.364564 0.071978
0.696649 0.366718 0.074132
0.723452 0.368862 0.076276
0.750138 0.370997 0.078411
0.776714 0.373123 0.080537
0.803183 0.375241 0.082655
0.829551 0.377350 0.084764
0.855821 0.379452 0.086866
0.881998 0.381546 0.088960
0.908084 0.383633 0.091047
0.934084 0.385713 0.093127
0.960000 0.387786 0.095200
0.066178 0.367220 0.047778
0.103584 0.367220 0.047778
0.135980 0.367220 0.047778
0.166720 0.367220 0.047778
0.196433 0.367220 0.047778
0.225403 0.367220 0.047778
0.253797 0.367220 0.047778
0.281718 0.367220 0.047778
0.309242 0.367220 0.047778
0.336423 0.367220 0.047778
0.363304 0.367220 0.047778
0.391889 0.369194 0.049751
0.420554 0.371487 0.052044
0.448980 0.373761 0.054318
0.477188 0.376018 0.056575
0.505195 0.378258 0.058816
0.533016 0.380484 0.061041
0.560663 0.382696 0.063253
0.588148 0.384894 0.065452
0.615481 0.387081 0.067638
0.642670 0.389256 0.069814
0.669724 0.391420 0.071978
0.696649 0.393574 0.074132
0.723452 0.395719 0.076276
0.750138 0.397854 0.078411
0.776714 0.399980 0.080537
0.803183 0.402097 0.082655
0.829551 0.404207 0.084764
0.855821 0.406308 0.086866
0.881998 0.408402 0.088960
0.908084 0.410489 0.091047
0.934084 0.412569 0.093127
0.960000 0.414643 0.095200
0.068502 0.396280 0.050102
0.105908 0.396280 0.050102
0.138304 0.396280 0.050102
0.169045 0.396280 0.050102
0.198757 0.396280 0.050102
0.227728 0.396280 0.050102
0.256121 0.396280 0.050102
0.284043 0.396280 0.050102
0.311567 0.396280 0.050102
0.338748 0.396280 0.050102
0.365628 0.396280 0.050102
0.392241 0.396280 0.050102
0.420554 0.398221 0.052044
0.448980 0.400496 0.054318
0.477188 0.402752 0.056575
0.505195 0.404993 0.058816
0.533016 0.407218 0.061041
0.560663 0.409430 0.063253
0.588148 0.411629 0.065452
0.615481 0.413816 0.067638
0.642670 0.415991 0.069814
0.669724 0.418155 0.071978
0.696649 0.420309 0.074132
0.723452 0.422453 0.076276
0.750138 0.424588 0.078411
0.776714 0.426714 0.080537
0.803183 0.428832 0.082655
0.829551 0.430941 0.084764
0.855821 0.433043 0.086866
0.881998 0.435137 0.088960
0.908084 0.437224 0.091047
0.934084 0.439304 0.093127
0.960000 0.441377 0.095200
0.070817 0.425218 0.052417
0.108223 0.425218 0.052417
0.140619 0.425218 0.052417
0.171360 0.425218 0.052417
0.201073 0.425218 0.052417
0.230043 0.425218 0.052417
0.258436 0.425218 0.052417
0.286358 0.425218 0.052417
0.313882 0.425218 0.052417
0.341063 0.425218 0.052417
0.367943 0.425218 0.052417
0.394556 0.425218 0.052417
0.420927 0.425218 0.052417
0.448980 0.427119 0.054318
0.477188 0.429376 0.056575
0.505195 0.431616 0.058816
0.533016 0.433842 0.061041
0.560663 0.436054 0.063253
0.588148 0.438252 0.065452
0.615481 0.440439 0.067638
0.642670 0.442614 0.069814
0.669724 0.444778 0.071978
0.696649 0.446932 0.074132
0.723452 0.449077 0.076276
0.750138 0.451212 0.078411
0.776714 0.453338 0.080537
0.803183 0.455455 0.082655
0.829551 0.457565 0.084764
0.855821 0.459666 0.086866
0.881998 0.461760 0.088960
0.908084 0.463847 0.091047
0.934084 0.465927 0.093127
0.960000 0.468001 0.095200
0.073124 0.454045 0.054724
0.110530 0.454045 0.054724
0.142926 0.454045 0.054724
0.173666 0.454045 0.054724
0.203379 0.454045 0.054724
0.232349 0.454045 0.054724
0.260743 0.454045 0.054724
0.288664 0.454045 0.054724
0.316188 0.454045 0.054724
0.343369 0.454045 0.054724
0.370250 0.454045 0.054724
0.396862 0.454045 0.054724
0.423233 0.454045 0.054724
0.449385 0.454045 0.054724
0.477188 0.455897 0.056575
0.505195 0.458137 0.058816
0.533016 0.460363 0.061041
0.560663 0.462575 0.063253
0.588148 0.464773 0.065452
0.615481 0.466960 0.067638
0.642670 0.469135 0.069814
0.669724 0.471299 0.071978
0.696649 0.473453 0.074132
0.723452 0.475598 0.076276
0.750138 0.477733 0.078411
0.776714 0.479859 0.080537
0.803183 0.481976 0.082655
0.829551 0.484086 0.084764
0.855821 0.486187 0.086866
0.881998 0.488281 0.088960
0.908084 0.490368 0.091047
0.934084 0.492448 0.093127
0.960000 0.494522 0.095200
0.075422 0.482770 0.057022
0.112828 0.482770 0.057022
0.145224 0.482770 0.057022
0.175964 0.482770 0.057022
0.205677 0.482770 0.057022
0.234647 0.482770 0.057022
0.263041 0.482770 0.057022
0.290962 0.482770 0.057022
0.318486 0.482770 0.057022
0.345667 0.482770 0.057022
0.372548 0.482770 0.057022
0.399160 0.482770 0.057022
0.425531 0.482770 0.057022
0.451683 0.482770 0.057022
0.477634 0.482770 0.057022
0.505195 0.484564 0.058816
0.533016 0.486789 0.061041
0.560663 0.489001 0.063253
0.588148 0.491200 0.065452
0.615481 0.493386 0.067638
0.642670 0.495562 0.069814
0.669724 0.497726 0.071978
0.696649 0.499880 0.074132
0.723452 0.502024 0.076276
0.750138 0.504159 0.078411
0.776714 0.506285 0.080537
0.803183 0.508403 0.082655
0.829551 0.510512 0.084764
0.855821 0.512614 0.086866
0.881998 0.514708 0.088960
0.908084 0.516795 0.091047
0.934084 0.518875 0.093127
0.960000 0.520948 0.095200
0.077712 0.511398 0.059312
0.115118 0.511398 0.059312
0.147514 0.511398 0.059312
0.178254 0.511398 0.059312
0.207967 0.511398 0.059312
0.236938 0.511398 0.059312
0.265331 0.511398 0.059312
0.293252 0.511398 0.059312
0.320776 0.511398 0.059312
0.347958 0.511398 0.059312
0.374838 0.511398 0.059312
0.401450 0.511398 0.059312
0.427821 0.511398 0.059312
0.453973 0.511398 0.059312
0.479925 0.511398 0.059312
0.505691 0.511398 0.059312
0.533016 0.513128 0.061041
0.560663 0.515339 0.063253
0.588148 0.517538 0.065452
0.615481 0.519725 0.067638
0.642670 0.521900 0.069814
0.669724 0.524064 0.071978
0.696649 0.526218 0.074132
0.723452 0.528362 0.076276
0.750138 0.530497 0.078411
0.776714 0.532623 0.080537
0.803183 0.534741 0.082655
0.829551 0.536850 0.084764
0.855821 0.538952 0.086866
0.881998 0.541046 0.088960
0.908084 0.543133 0.091047
0.934084 0.545213 0.093127
0.960000 0.547286 0.095200
0.079995 0.539937 0.061595
0.117401 0.539937 0.061595
0.149797 0.539937 0.061595
0.180538 0.539937 0.061595
0.210250 0.539937 0.061595
0.239221 0.539937 0.061595
0.267614 0.539937 0.061595
0.295536 0.539937 0.061595
0.323060 0.539937 0.061595
0.350241 0.539937 0.061595
0.377121 0.539937 0.061595
0.403733 0.539937 0.061595
0.430104 0.539937 0.061595
0.456256 0.539937 0.061595
0.482208 0.539937 0.061595
0.507974 0.539937 0.061595
0.533570 0.539937 0.061595
0.560663 0.541596 0.063253
0.588148 0.543794 0.065452
0.615481 0.545981 0.067638
0.642670 0.548156 0.069814
0.669724 0.550320 0.071978
0.696649 0.552474 0.074132
0.723452 0.554619 0.076276
0.750138 0.556754 0.078411
0.776714 0.558880 0.080537
0.803183 0.560997 0.082655
0.829551 0.563107 0.084764
0.855821 0.565208 0.086866
0.881998 0.567302 0.088960
0.908084 0.569389 0.091047
0.934084 0.571469 0.093127
0.960000 0.573542 0.095200
0.082271 0.568393 0.063871
0.119677 0.568393 0.063871
0.152073 0.568393 0.063871
0.182814 0.568393 0.063871
0.212527 0.568393 0.063871
0.241497 0.568393 0.063871
0.269890 0.568393 0.063871
0.297812 0.568393 0.063871
0.325336 0.568393 0.063871
0.352517 0.568393 0.063871
0.379397 0.568393 0.063871
0.406010 0.568393 0.063871
0.432381 0.568393 0.063871
0.458533 0.568393 0.063871
0.484484 0.568393 0.063871
0.510251 0.568393 0.063871
0.535846 0.568393 0.063871
0.561282 0.568393 0.063871
0.588148 0.569973 0.065452
0.615481 0.572160 0.067638
0.642670 0.574335 0.069814
0.669724 0.576499 0.071978
0.696649 0.578653 0.074132
0.723452 0.580798 0.076276
0.750138 0.582933 0.078411
0.776714 0.585059 0.080537
0.803183 0.587176 0.082655
0.829551 0.589286 0.084764
0.855821 0.591387 0.086866
0.881998 0.593481 0.088960
0.908084 0.595568 0.091047
0.934084 0.597648 0.093127
0.960000 0.599721 0.095200
0.084542 0.596769 0.066142
0.121948 0.596769 0.066142
0.154344 0.596769 0.066142
0.185084 0.596769 0.066142
0.214797 0.596769 0.066142
0.243767 0.596769 0.066142
0.272161 0.596769 0.066142
0.300082 0.596769 0.066142
0.327606 0.596769 0.066142
0.354787 0.596769 0.066142
0.381668 0.596769 0.066142
0.408280 0.596769 0.066142
0.434651 0.596769 0.066142
0.460803 0.596769 0.066142
0.486754 0.596769 0.066142
0.512521 0.596769 0.066142
0.538116 0.596769 0.066142
0.563552 0.596769 0.066142
0.588838 0.596769 0.066142
0.615481 0.598266 0.067638
0.642670 0.600441 0.069814
0.669724 0.602606 0.071978
0.696649 0.604760 0.074132
0.723452 0.606904 0.076276
0.750138 0.609039 0.078411
0.776714 0.611165 0.080537
0.803183 0.613283 0.082655
0.829551 0.615392 0.084764
0.855821 0.617494 0.086866
0.881998 0.619588 0.088960
0.908084 0.621675 0.091047
0.934084 0.623755 0.093127
0.960000 0.625828 0.095200
0.086806 0.625071 0.068406
0.124212 0.625071 0.068406
0.156608 0.625071 0.068406
0.187348 0.625071 0.068406
0.217061 0.625071 0.068406
0.246032 0.625071 0.068406
0.274425 0.625071 0.068406
0.302346 0.625071 0.068406
0.329870 0.625071 0.068406
0.357051 0.625071 0.068406
0.383932 0.625071 0.068406
0.410544 0.625071 0.068406
0.436915 0.625071 0.068406
0.463067 0.625071 0.068406
0.489019 0.625071 0.068406
0.514785 0.625071 0.068406
0.540380 0.625071 0.068406
0.565816 0.625071 0.068406
0.591102 0.625071 0.068406
0.616248 0.625071 0.068406
0.642670 0.626479 0.069814
0.669724 0.628643 0.071978
0.696649 0.630797 0.074132
0.723452 0.632942 0.076276
0.750138 0.635077 0.078411
0.776714 0.637203 0.080537
0.803183 0.639320 0.082655
0.829551 0.641430 0.084764
0.855821 0.643531 0.086866
0.881998 0.645625 0.088960
0.908084 0.647712 0.091047
0.934084 0.649792 0.093127
0.960000 0.651866 0.095200
0.089064 0.653302 0.070664
0.126470 0.653302 0.070664
0.158866 0.653302 0.070664
0.189607 0.653302 0.070664
0.219319 0.653302 0.070664
0.248290 0.653302 0.070664
0.276683 0.653302 0.070664
0.304605 0.653302 0.070664
0.332129 0.653302 0.070664
0.359310 0.653302 0.070664
0.386190 0.653302 0.070664
0.412802 0.653302 0.070664
0.439174 0.653302 0.070664
0.465326 0.653302 0.070664
0.491277 0.653302 0.070664
0.517044 0.653302 0.070664
0.542639 0.653302 0.070664
0.568074 0.653302 0.070664
0.593361 0.653302 0.070664
0.618507 0.653302 0.070664
0.643521 0.653302 0.070664
0.669724 0.654616 0.071978
0.696649 0.656770 0.074132
0.723452 0.658914 0.076276
0.750138 0.661049 0.078411
0.776714 0.663175 0.080537
0.803183 0.665293 0.082655
0.829551 0.667402 0.084764
0.855821 0.669504 0.086866
0.881998 0.671598 0.088960
0.908084 0.673685 0.091047
0.934084 0.675765 0.093127
0.960000 0.677838 0.095200
0.091317 0.681466 0.072917
0.128723 0.681466 0.072917
0.161119 0.681466 0.072917
0.191860 0.681466 0.072917
0.221572 0.681466 0.072917
0.250543 0.681466 0.072917
0.278936 0.681466 0.072917
0.306858 0.681466 0.072917
0.334382 0.681466 0.072917
0.361563 0.681466 0.072917
0.388443 0.681466 0.072917
0.415056 0.681466 0.072917
0.441427 0.681466 0.072917
0.467579 0.681466 0.072917
0.493530 0.681466 0.072917
0.519297 0.681466 0.072917
0.544892 0.681466 0.072917
0.570327 0.681466 0.072917
0.595614 0.681466 0.072917
0.620760 0.681466 0.072917
0.645774 0.681466 0.072917
0.670663 0.681466 0.072917
0.696649 0.682681 0.074132
0.723452 0.684825 0.076276
0.750138 0.686960 0.078411
0.776714 0.689086 0.080537
0.803183 0.691204 0.082655
0.829551 0.693313 0.084764
0.855821 0.695415 0.086866
0.881998 0.697509 0.088960
0.908084 0.699596 0.091047
0.934084 0.701676 0.093127
0.960000 0.703749 0.095200
0.093565 0.709566 0.075165
0.130971 0.709566 0.075165
0.163367 0.709566 0.075165
0.194108 0.709566 0.075165
0.223820 0.709566 0.075165
0.252791 0.709566 0.075165
0.281184 0.709566 0.075165
0.309106 0.709566 0.075165
0.336630 0.709566 0.075165
0.363811 0.709566 0.075165
0.390691 0.709566 0.075165
0.417304 0.709566 0.075165
0.443675 0.709566 0.075165
0.469827 0.709566 0.075165
0.495778 0.709566 0.075165
0.521545 0.709566 0.075165
0.547140 0.709566 0.075165
0.572575 0.709566 0.075165
0.597862 0.709566 0.075165
0.623008 0.709566 0.075165
0.648022 0.709566 0.075165
0.672911 0.709566 0.075165
0.697682 0.709566 0.075165
0.723452 0.710677 0.076276
0.750138 0.712812 0.078411
0.776714 0.714938 0.080537
0.803183 0.717056 0.082655
0.829551 0.719165 0.084764
0.855821 0.721267 0.086866
0.881998 0.723361 0.088960
0.908084 0.725448 0.091047
0.934084 0.727528 0.093127
0.960000 0.729601 0.095200
0.095808 0.737605 0.077408
0.133214 0.737605 0.077408
0.165610 0.737605 0.077408
0.196351 0.737605 0.077408
0.226064 0.737605 0.077408
0.255034 0.737605 0.077408
0.283427 0.737605 0.077408
0.311349 0.737605 0.077408
0.338873 0.737605 0.077408
0.366054 0.737605 0.077408
0.392934 0.737605 0.077408
0.419547 0.737605 0.077408
0.445918 0.737605 0.077408
0.472070 0.737605 0.077408
0.498021 0.737605 0.077408
0.523788 0.737605 0.077408
0.549383 0.737605 0.077408
0.574819 0.737605 0.077408
0.600105 0.737605 0.077408
0.625251 0.737605 0.077408
0.650265 0.737605 0.077408
0.675154 0.737605 0.077408
0.699925 0.737605 0.077408
0.724584 0.737605 0.077408
0.750138 0.738608 0.078411
0.776714 0.740734 0.080537
0.803183 0.742852 0.082655
0.829551 0.744961 0.084764
0.855821 0.747063 0.086866
0.881998 0.749157 0.088960
0.908084 0.751244 0.091047
0.934084 0.753324 0.093127
0.960000 0.755397 0.095200
0.098047 0.765586 0.079647
0.135453 0.765586 0.079647
0.167849 0.765586 0.079647
0.198589 0.765586 0.079647
0.228302 0.765586 0.079647
0.257273 0.765586 0.079647
0.285666 0.765586 0.079647
0.313587 0.765586 0.079647
0.341111 0.765586 0.079647
0.368293 0.765586 0.079647
0.395173 0.765586 0.079647
0.421785 0.765586 0.079647
0.448156 0.765586 0.079647
0.474308 0.765586 0.079647
0.500260 0.765586 0.079647
0.526026 0.765586 0.079647
0.551621 0.765586 0.079647
0.577057 0.765586 0.079647
0.602343 0.765586 0.079647
0.627490 0.765586 0.079647
0.652504 0.765586 0.079647
0.677393 0.765586 0.079647
0.702164 0.765586 0.079647
0.726823 0.765586 0.079647
0.751374 0.765586 0.079647
0.776714 0.766476 0.080537
0.803183 0.768594 0.082655
0.829551 0.770703 0.084764
0.855821 0.772805 0.086866
0.881998 0.774899 0.088960
0.908084 0.776986 0.091047
0.934084 0.779066 0.093127
0.960000 0.781139 0.095200
0.100281 0.793511 0.081881
0.137687 0.793511 0.081881
0.170083 0.793511 0.081881
0.200823 0.793511 0.081881
0.230536 0.793511 0.081881
0.259507 0.793511 0.081881
0.287900 0.793511 0.081881
0.315821 0.793511 0.081881
0.343345 0.793511 0.081881
0.370527 0.793511 0.081881
0.397407 0.793511 0.081881
0.424019 0.793511 0.081881
0.450390 0.793511 0.081881
0.476542 0.793511 0.081881
0.502494 0.793511 0.081881
0.528260 0.793511 0.081881
0.553855 0.793511 0.081881
0.579291 0.793511 0.081881
0.604577 0.793511 0.081881
0.629723 0.793511 0.081881
0.654738 0.793511 0.081881
0.679627 0.793511 0.081881
0.704398 0.793511 0.081881
0.729057 0.793511 0.081881
0.753608 0.793511 0.081881
0.778058 0.793511 0.081881
0.803183 0.794285 0.082655
