app/src/main/assets/luts/retro_70s.cube
TITLE "Retro 70s"
LUT_3D_SIZE 9
DOMAIN_MIN 0.0 0.0 0.0
DOMAIN_MAX 1.0 1.0 1.0
0.050000 0.041000 0.014000
0.182862 0.054286 0.027286
0.301390 0.066139 0.039139
0.415049 0.077505 0.050505
0.525658 0.088566 0.061566
0.634053 0.099405 0.072405
0.740715 0.110071 0.083071
0.845958 0.120596 0.093596
0.950000 0.131000 0.104000
0.061760 0.167600 0.025760
0.182862 0.169127 0.027286
0.301390 0.180979 0.039139
0.415049 0.192345 0.050505
0.525658 0.203406 0.061566
0.634053 0.214246 0.072405
0.740715 0.224912 0.083071
0.845958 0.235436 0.093596
0.950000 0.245840 0.104000
0.073651 0.286508 0.037651
0.193226 0.286508 0.037651
0.301390 0.287996 0.039139
0.415049 0.299362 0.050505
0.525658 0.310423 0.061566
0.634053 0.321262 0.072405
0.740715 0.331929 0.083071
0.845958 0.342453 0.093596
0.950000 0.352857 0.104000
0.085234 0.402341 0.049234
0.204810 0.402341 0.049234
0.311485 0.402341 0.049234
0.415049 0.403612 0.050505
0.525658 0.414673 0.061566
0.634053 0.425512 0.072405
0.740715 0.436178 0.083071
0.845958 0.446703 0.093596
0.950000 0.457107 0.104000
0.096622 0.516222 0.060622
0.216198 0.516222 0.060622
0.322873 0.516222 0.060622
0.425166 0.516222 0.060622
0.525658 0.517165 0.061566
0.634053 0.528005 0.072405
0.740715 0.538671 0.083071
0.845958 0.549195 0.093596
0.950000 0.559600 0.104000
0.107867 0.628673 0.071867
0.227443 0.628673 0.071867
0.334118 0.628673 0.071867
0.436411 0.628673 0.071867
0.535960 0.628673 0.071867
0.634053 0.629211 0.072405
0.740715 0.639877 0.083071
0.845958 0.650401 0.093596
0.950000 0.660805 0.104000
0.119000 0.739997 0.083000
0.238575 0.739997 0.083000
0.345250 0.739997 0.083000
0.447544 0.739997 0.083000
0.547092 0.739997 0.083000
0.644647 0.739997 0.083000
0.740715 0.740069 0.083071
0.845958 0.750593 0.093596
0.950000 0.760997 0.104000
0.130039 0.850393 0.094039
0.249615 0.850393 0.094039
0.356290 0.850393 0.094039
0.458583 0.850393 0.094039
0.558132 0.850393 0.094039
0.655687 0.850393 0.094039
0.751683 0.850393 0.094039
0.846401 0.850393 0.094039
0.950000 0.860353 0.104000
0.141000 0.960000 0.105000
0.260576 0.960000 0.105000
0.367251 0.960000 0.105000
0.469544 0.960000 0.105000
0.569092 0.960000 0.105000
0.666648 0.960000 0.105000
0.762643 0.960000 0.105000
0.857362 0.960000 0.105000
0.951000 0.960000 0.105000
0.053778 0.044778 0.087780
0.182862 0.054286 0.097288
0.301390 0.066139 0.109141
0.415049 0.077505 0.120507
0.525658 0.088566 0.131567
0.634053 0.099405 0.142407
0.740715 0.110071 0.153073
0.845958 0.120596 0.163597
0.950000 0.131000 0.174002
0.061760 0.167600 0.095762
0.182862 0.169127 0.097288
0.301390 0.180979 0.109141
0.415049 0.192345 0.120507
0.525658 0.203406 0.131567
0.634053 0.214246 0.142407
0.740715 0.224912 0.153073
0.845958 0.235436 0.163597
0.950000 0.245840 0.174002
0.073651 0.286508 0.107652
0.193226 0.286508 0.107652
0.301390 0.287996 0.109141
0.415049 0.299362 0.120507
0.525658 0.310423 0.131567
0.634053 0.321262 0.142407
0.740715 0.331929 0.153073
0.845958 0.342453 0.163597
0.950000 0.352857 0.174002
0.085234 0.402341 0.119236
0.204810 0.402341 0.119236
0.311485 0.402341 0.119236
0.415049 0.403612 0.120507
0.525658 0.414673 0.131567
0.634053 0.425512 0.142407
0.740715 0.436178 0.153073
0.845958 0.446703 0.163597
0.950000 0.457107 0.174002
0.096622 0.516222 0.130624
0.216198 0.516222 0.130624
0.322873 0.516222 0.130624
0.425166 0.516222 0.130624
0.525658 0.517165 0.131567
0.634053 0.528005 0.142407
0.740715 0.538671 0.153073
0.845958 0.549195 0.163597
0.950000 0.559600 0.174002
0.107867 0.628673 0.141869
0.227443 0.628673 0.141869
0.334118 0.628673 0.141869
0.436411 0.628673 0.141869
0.535960 0.628673 0.141869
0.634053 0.629211 0.142407
0.740715 0.639877 0.153073
0.845958 0.650401 0.163597
0.950000 0.660805 0.174002
0.119000 0.739997 0.153001
0.238575 0.739997 0.153001
0.345250 0.739997 0.153001
0.447544 0.739997 0.153001
0.547092 0.739997 0.153001
0.644647 0.739997 0.153001
0.740715 0.740069 0.153073
0.845958 0.750593 0.163597
0.950000 0.760997 0.174002
0.130039 0.850393 0.164041
0.249615 0.850393 0.164041
0.356290 0.850393 0.164041
0.458583 0.850393 0.164041
0.558132 0.850393 0.164041
0.655687 0.850393 0.164041
0.751683 0.850393 0.164041
0.846401 0.850393 0.164041
0.950000 0.860353 0.174002
0.141000 0.960000 0.175002
0.260576 0.960000 0.175002
0.367251 0.960000 0.175002
0.469544 0.960000 0.175002
0.569092 0.960000 0.175002
0.666648 0.960000 0.175002
0.762643 0.960000 0.175002
0.857362 0.960000 0.175002
0.951000 0.960000 0.175002
0.063260 0.054260 0.182604
0.182862 0.054286 0.182629
0.301390 0.066139 0.194482
0.415049 0.077505 0.205848
0.525658 0.088566 0.216909
0.634053 0.099405 0.227749
0.740715 0.110071 0.238415
0.845958 0.120596 0.248939
0.950000 0.131000 0.259343
0.063260 0.169101 0.182604
0.182862 0.169127 0.182629
0.301390 0.180979 0.194482
0.415049 0.192345 0.205848
0.525658 0.203406 0.216909
0.634053 0.214246 0.227749
0.740715 0.224912 0.238415
0.845958 0.235436 0.248939
0.950000 0.245840 0.259343
0.073651 0.286508 0.192994
0.193226 0.286508 0.192994
0.301390 0.287996 0.194482
0.415049 0.299362 0.205848
0.525658 0.310423 0.216909
0.634053 0.321262 0.227749
0.740715 0.331929 0.238415
0.845958 0.342453 0.248939
0.950000 0.352857 0.259343
0.085234 0.402341 0.204577
0.204810 0.402341 0.204577
0.311485 0.402341 0.204577
0.415049 0.403612 0.205848
0.525658 0.414673 0.216909
0.634053 0.425512 0.227749
0.740715 0.436178 0.238415
0.845958 0.446703 0.248939
0.950000 0.457107 0.259343
0.096622 0.516222 0.215965
0.216198 0.516222 0.215965
0.322873 0.516222 0.215965
0.425166 0.516222 0.215965
0.525658 0.517165 0.216909
0.634053 0.528005 0.227749
0.740715 0.538671 0.238415
0.845958 0.549195 0.248939
0.950000 0.559600 0.259343
0.107867 0.628673 0.227211
0.227443 0.628673 0.227211
0.334118 0.628673 0.227211
0.436411 0.628673 0.227211
0.535960 0.628673 0.227211
0.634053 0.629211 0.227749
0.740715 0.639877 0.238415
0.845958 0.650401 0.248939
0.950000 0.660805 0.259343
0.119000 0.739997 0.238343
0.238575 0.739997 0.238343
0.345250 0.739997 0.238343
0.447544 0.739997 0.238343
0.547092 0.739997 0.238343
0.644647 0.739997 0.238343
0.740715 0.740069 0.238415
0.845958 0.750593 0.248939
0.950000 0.760997 0.259343
0.130039 0.850393 0.249383
0.249615 0.850393 0.249383
0.356290 0.850393 0.249383
0.458583 0.850393 0.249383
0.558132 0.850393 0.249383
0.655687 0.850393 0.249383
0.751683 0.850393 0.249383
0.846401 0.850393 0.249383
0.950000 0.860353 0.259343
0.141000 0.960000 0.260343
0.260576 0.960000 0.260343
0.367251 0.960000 0.260343
0.469544 0.960000 0.260343
0.569092 0.960000 0.260343
0.666648 0.960000 0.260343
0.762643 0.960000 0.260343
0.857362 0.960000 0.260343
0.951000 0.960000 0.260343
0.073514 0.064514 0.285141
0.193090 0.064514 0.285141
0.301390 0.066139 0.286766
0.415049 0.077505 0.298132
0.525658 0.088566 0.309192
0.634053 0.099405 0.320032
0.740715 0.110071 0.330698
0.845958 0.120596 0.341222
0.950000 0.131000 0.351627
0.073514 0.179355 0.285141
0.193090 0.179355 0.285141
0.301390 0.180979 0.286766
0.415049 0.192345 0.298132
0.525658 0.203406 0.309192
0.634053 0.214246 0.320032
0.740715 0.224912 0.330698
0.845958 0.235436 0.341222
0.950000 0.245840 0.351627
0.073651 0.286508 0.285277
0.193226 0.286508 0.285277
0.301390 0.287996 0.286766
0.415049 0.299362 0.298132
0.525658 0.310423 0.309192
0.634053 0.321262 0.320032
0.740715 0.331929 0.330698
0.845958 0.342453 0.341222
0.950000 0.352857 0.351627
0.085234 0.402341 0.296861
0.204810 0.402341 0.296861
0.311485 0.402341 0.296861
0.415049 0.403612 0.298132
0.525658 0.414673 0.309192
0.634053 0.425512 0.320032
0.740715 0.436178 0.330698
0.845958 0.446703 0.341222
0.950000 0.457107 0.351627
0.096622 0.516222 0.308249
0.216198 0.516222 0.308249
0.322873 0.516222 0.308249
0.425166 0.516222 0.308249
0.525658 0.517165 0.309192
0.634053 0.528005 0.320032
0.740715 0.538671 0.330698
0.845958 0.549195 0.341222
0.950000 0.559600 0.351627
0.107867 0.628673 0.319494
0.227443 0.628673 0.319494
0.334118 0.628673 0.319494
0.436411 0.628673 0.319494
0.535960 0.628673 0.319494
0.634053 0.629211 0.320032
0.740715 0.639877 0.330698
0.845958 0.650401 0.341222
0.950000 0.660805 0.351627
0.119000 0.739997 0.330626
0.238575 0.739997 0.330626
0.345250 0.739997 0.330626
0.447544 0.739997 0.330626
0.547092 0.739997 0.330626
0.644647 0.739997 0.330626
0.740715 0.740069 0.330698
0.845958 0.750593 0.341222
0.950000 0.760997 0.351627
0.130039 0.850393 0.341666
0.249615 0.850393 0.341666
0.356290 0.850393 0.341666
0.458583 0.850393 0.341666
0.558132 0.850393 0.341666
0.655687 0.850393 0.341666
0.751683 0.850393 0.341666
0.846401 0.850393 0.341666
0.950000 0.860353 0.351627
0.141000 0.960000 0.352627
0.260576 0.960000 0.352627
0.367251 0.960000 0.352627
0.469544 0.960000 0.352627
0.569092 0.960000 0.352627
0.666648 0.960000 0.352627
0.762643 0.960000 0.352627
0.857362 0.960000 0.352627
0.951000 0.960000 0.352627
0.084303 0.075303 0.393031
0.203879 0.075303 0.393031
0.310554 0.075303 0.393031
0.415049 0.077505 0.395233
0.525658 0.088566 0.406294
0.634053 0.099405 0.417134
0.740715 0.110071 0.427800
0.845958 0.120596 0.438324
0.950000 0.131000 0.448728
0.084303 0.190144 0.393031
0.203879 0.190144 0.393031
0.310554 0.190144 0.393031
0.415049 0.192345 0.395233
0.525658 0.203406 0.406294
0.634053 0.214246 0.417134
0.740715 0.224912 0.427800
0.845958 0.235436 0.438324
0.950000 0.245840 0.448728
0.084303 0.297160 0.393031
0.203879 0.297160 0.393031
0.310554 0.297160 0.393031
0.415049 0.299362 0.395233
0.525658 0.310423 0.406294
0.634053 0.321262 0.417134
0.740715 0.331929 0.427800
0.845958 0.342453 0.438324
0.950000 0.352857 0.448728
0.085234 0.402341 0.393962
0.204810 0.402341 0.393962
0.311485 0.402341 0.393962
0.415049 0.403612 0.395233
0.525658 0.414673 0.406294
0.634053 0.425512 0.417134
0.740715 0.436178 0.427800
0.845958 0.446703 0.438324
0.950000 0.457107 0.448728
0.096622 0.516222 0.405350
0.216198 0.516222 0.405350
0.322873 0.516222 0.405350
0.425166 0.516222 0.405350
0.525658 0.517165 0.406294
0.634053 0.528005 0.417134
0.740715 0.538671 0.427800
0.845958 0.549195 0.438324
0.950000 0.559600 0.448728
0.107867 0.628673 0.416596
0.227443 0.628673 0.416596
0.334118 0.628673 0.416596
0.436411 0.628673 0.416596
0.535960 0.628673 0.416596
0.634053 0.629211 0.417134
0.740715 0.639877 0.427800
0.845958 0.650401 0.438324
0.950000 0.660805 0.448728
0.119000 0.739997 0.427728
0.238575 0.739997 0.427728
0.345250 0.739997 0.427728
0.447544 0.739997 0.427728
0.547092 0.739997 0.427728
0.644647 0.739997 0.427728
0.740715 0.740069 0.427800
0.845958 0.750593 0.438324
0.950000 0.760997 0.448728
0.130039 0.850393 0.438768
0.249615 0.850393 0.438768
0.356290 0.850393 0.438768
0.458583 0.850393 0.438768
0.558132 0.850393 0.438768
0.655687 0.850393 0.438768
0.751683 0.850393 0.438768
0.846401 0.850393 0.438768
0.950000 0.860353 0.448728
0.141000 0.960000 0.449728
0.260576 0.960000 0.449728
0.367251 0.960000 0.449728
0.469544 0.960000 0.449728
0.569092 0.960000 0.449728
0.666648 0.960000 0.449728
0.762643 0.960000 0.449728
0.857362 0.960000 0.449728
0.951000 0.960000 0.449728
0.095509 0.086509 0.505086
0.215084 0.086509 0.505086
0.321759 0.086509 0.505086
0.424053 0.086509 0.505086
0.525658 0.088566 0.507144
0.634053 0.099405 0.517983
0.740715 0.110071 0.528649
0.845958 0.120596 0.539173
0.950000 0.131000 0.549578
0.095509 0.201349 0.505086
0.215084 0.201349 0.505086
0.321759 0.201349 0.505086
0.424053 0.201349 0.505086
0.525658 0.203406 0.507144
0.634053 0.214246 0.517983
0.740715 0.224912 0.528649
0.845958 0.235436 0.539173
0.950000 0.245840 0.549578
0.095509 0.308366 0.505086
0.215084 0.308366 0.505086
0.321759 0.308366 0.505086
0.424053 0.308366 0.505086
0.525658 0.310423 0.507144
0.634053 0.321262 0.517983
0.740715 0.331929 0.528649
0.845958 0.342453 0.539173
0.950000 0.352857 0.549578
0.095509 0.412616 0.505086
0.215084 0.412616 0.505086
0.321759 0.412616 0.505086
0.424053 0.412616 0.505086
0.525658 0.414673 0.507144
0.634053 0.425512 0.517983
0.740715 0.436178 0.528649
0.845958 0.446703 0.539173
0.950000 0.457107 0.549578
0.096622 0.516222 0.506200
0.216198 0.516222 0.506200
0.322873 0.516222 0.506200
0.425166 0.516222 0.506200
0.525658 0.517165 0.507144
0.634053 0.528005 0.517983
0.740715 0.538671 0.528649
0.845958 0.549195 0.539173
0.950000 0.559600 0.549578
0.107867 0.628673 0.517445
0.227443 0.628673 0.517445
0.334118 0.628673 0.517445
0.436411 0.628673 0.517445
0.535960 0.628673 0.517445
0.634053 0.629211 0.517983
0.740715 0.639877 0.528649
0.845958 0.650401 0.539173
0.950000 0.660805 0.549578
0.119000 0.739997 0.528577
0.238575 0.739997 0.528577
0.345250 0.739997 0.528577
0.447544 0.739997 0.528577
0.547092 0.739997 0.528577
0.644647 0.739997 0.528577
0.740715 0.740069 0.528649
0.845958 0.750593 0.539173
0.950000 0.760997 0.549578
0.130039 0.850393 0.539617
0.249615 0.850393 0.539617
0.356290 0.850393 0.539617
0.458583 0.850393 0.539617
0.558132 0.850393 0.539617
0.655687 0.850393 0.539617
0.751683 0.850393 0.539617
0.846401 0.850393 0.539617
0.950000 0.860353 0.549578
0.141000 0.960000 0.550578
0.260576 0.960000 0.550578
0.367251 0.960000 0.550578
0.469544 0.960000 0.550578
0.569092 0.960000 0.550578
0.666648 0.960000 0.550578
0.762643 0.960000 0.550578
0.857362 0.960000 0.550578
0.951000 0.960000 0.550578
0.107058 0.098058 0.620576
0.226633 0.098058 0.620576
0.333308 0.098058 0.620576
0.435602 0.098058 0.620576
0.535150 0.098058 0.620576
0.634053 0.099405 0.621923
0.740715 0.110071 0.632589
0.845958 0.120596 0.643114
0.950000 0.131000 0.653518
0.107058 0.212898 0.620576
0.226633 0.212898 0.620576
0.333308 0.212898 0.620576
0.435602 0.212898 0.620576
0.535150 0.212898 0.620576
0.634053 0.214246 0.621923
0.740715 0.224912 0.632589
0.845958 0.235436 0.643114
0.950000 0.245840 0.653518
0.107058 0.319915 0.620576
0.226633 0.319915 0.620576
0.333308 0.319915 0.620576
0.435602 0.319915 0.620576
0.535150 0.319915 0.620576
0.634053 0.321262 0.621923
0.740715 0.331929 0.632589
0.845958 0.342453 0.643114
0.950000 0.352857 0.653518
0.107058 0.424164 0.620576
0.226633 0.424164 0.620576
0.333308 0.424164 0.620576
0.435602 0.424164 0.620576
0.535150 0.424164 0.620576
0.634053 0.425512 0.621923
0.740715 0.436178 0.632589
0.845958 0.446703 0.643114
0.950000 0.457107 0.653518
0.107058 0.526657 0.620576
0.226633 0.526657 0.620576
0.333308 0.526657 0.620576
0.435602 0.526657 0.620576
0.535150 0.526657 0.620576
0.634053 0.528005 0.621923
0.740715 0.538671 0.632589
0.845958 0.549195 0.643114
0.950000 0.559600 0.653518
0.107867 0.628673 0.621385
0.227443 0.628673 0.621385
0.334118 0.628673 0.621385
0.436411 0.628673 0.621385
0.535960 0.628673 0.621385
0.634053 0.629211 0.621923
0.740715 0.639877 0.632589
0.845958 0.650401 0.643114
0.950000 0.660805 0.653518
0.119000 0.739997 0.632518
0.238575 0.739997 0.632518
0.345250 0.739997 0.632518
0.447544 0.739997 0.632518
0.547092 0.739997 0.632518
0.644647 0.739997 0.632518
0.740715 0.740069 0.632589
0.845958 0.750593 0.643114
0.950000 0.760997 0.653518
0.130039 0.850393 0.643557
0.249615 0.850393 0.643557
0.356290 0.850393 0.643557
0.458583 0.850393 0.643557
0.558132 0.850393 0.643557
0.655687 0.850393 0.643557
0.751683 0.850393 0.643557
0.846401 0.850393 0.643557
0.950000 0.860353 0.653518
0.141000 0.960000 0.654518
0.260576 0.960000 0.654518
0.367251 0.960000 0.654518
0.469544 0.960000 0.654518
0.569092 0.960000 0.654518
0.666648 0.960000 0.654518
0.762643 0.960000 0.654518
0.857362 0.960000 0.654518
0.951000 0.960000 0.654518
0.118900 0.109900 0.739001
0.238476 0.109900 0.739001
0.345151 0.109900 0.739001
0.447444 0.109900 0.739001
0.546992 0.109900 0.739001
0.644548 0.109900 0.739001
0.740715 0.110071 0.739172
0.845958 0.120596 0.749697
0.950000 0.131000 0.760101
0.118900 0.224741 0.739001
0.238476 0.224741 0.739001
0.345151 0.224741 0.739001
0.447444 0.224741 0.739001
0.546992 0.224741 0.739001
0.644548 0.224741 0.739001
0.740715 0.224912 0.739172
0.845958 0.235436 0.749697
0.950000 0.245840 0.760101
0.118900 0.331757 0.739001
0.238476 0.331757 0.739001
0.345151 0.331757 0.739001
0.447444 0.331757 0.739001
0.546992 0.331757 0.739001
0.644548 0.331757 0.739001
0.740715 0.331929 0.739172
0.845958 0.342453 0.749697
0.950000 0.352857 0.760101
0.118900 0.436007 0.739001
0.238476 0.436007 0.739001
0.345151 0.436007 0.739001
0.447444 0.436007 0.739001
0.546992 0.436007 0.739001
0.644548 0.436007 0.739001
0.740715 0.436178 0.739172
0.845958 0.446703 0.749697
0.950000 0.457107 0.760101
0.118900 0.538500 0.739001
0.238476 0.538500 0.739001
0.345151 0.538500 0.739001
0.447444 0.538500 0.739001
0.546992 0.538500 0.739001
0.644548 0.538500 0.739001
0.740715 0.538671 0.739172
0.845958 0.549195 0.749697
0.950000 0.559600 0.760101
0.118900 0.639705 0.739001
0.238476 0.639705 0.739001
0.345151 0.639705 0.739001
0.447444 0.639705 0.739001
0.546992 0.639705 0.739001
0.644548 0.639705 0.739001
0.740715 0.639877 0.739172
0.845958 0.650401 0.749697
0.950000 0.660805 0.760101
0.119000 0.739997 0.739101
0.238575 0.739997 0.739101
0.345250 0.739997 0.739101
0.447544 0.739997 0.739101
0.547092 0.739997 0.739101
0.644647 0.739997 0.739101
0.740715 0.740069 0.739172
0.845958 0.750593 0.749697
0.950000 0.760997 0.760101
0.130039 0.850393 0.750140
0.249615 0.850393 0.750140
0.356290 0.850393 0.750140
0.458583 0.850393 0.750140
0.558132 0.850393 0.750140
0.655687 0.850393 0.750140
0.751683 0.850393 0.750140
0.846401 0.850393 0.750140
0.950000 0.860353 0.760101
0.141000 0.960000 0.761101
0.260576 0.960000 0.761101
0.367251 0.960000 0.761101
0.469544 0.960000 0.761101
0.569092 0.960000 0.761101
0.666648 0.960000 0.761101
0.762643 0.960000 0.761101
0.857362 0.960000 0.761101
0.951000 0.960000 0.761101
0.131000 0.122000 0.860000
0.250576 0.122000 0.860000
0.357251 0.122000 0.860000
0.459544 0.122000 0.860000
0.559092 0.122000 0.860000
0.656648 0.122000 0.860000
0.752643 0.122000 0.860000
0.847362 0.122000 0.860000
0.950000 0.131000 0.869000
0.131000 0.236840 0.860000
0.250576 0.236840 0.860000
0.357251 0.236840 0.860000
0.459544 0.236840 0.860000
0.559092 0.236840 0.860000
0.656648 0.236840 0.860000
0.752643 0.236840 0.860000
0.847362 0.236840 0.860000
0.950000 0.245840 0.869000
0.131000 0.343857 0.860000
0.250576 0.343857 0.860000
0.357251 0.343857 0.860000
0.459544 0.343857 0.860000
0.559092 0.343857 0.860000
0.656648 0.343857 0.860000
0.752643 0.343857 0.860000
0.847362 0.343857 0.860000
0.950000 0.352857 0.869000
0.131000 0.448107 0.860000
0.250576 0.448107 0.860000
0.357251 0.448107 0.860000
0.459544 0.448107 0.860000
0.559092 0.448107 0.860000
0.656648 0.448107 0.860000
0.752643 0.448107 0.860000
0.847362 0.448107 0.860000
0.950000 0.457107 0.869000
0.131000 0.550600 0.860000
0.250576 0.550600 0.860000
0.357251 0.550600 0.860000
0.459544 0.550600 0.860000
0.559092 0.550600 0.860000
0.656648 0.550600 0.860000
0.752643 0.550600 0.860000
0.847362 0.550600 0.860000
0.950000 0.559600 0.869000
0.131000 0.651805 0.860000
0.250576 0.651805 0.860000
0.357251 0.651805 0.860000
0.459544 0.651805 0.860000
0.559092 0.651805 0.860000
0.656648 0.651805 0.860000
0.752643 0.651805 0.860000
0.847362 0.651805 0.860000
0.950000 0.660805 0.869000
0.131000 0.751997 0.860000
0.250576 0.751997 0.860000
0.357251 0.751997 0.860000
0.459544 0.751997 0.860000
0.559092 0.751997 0.860000
0.656648 0.751997 0.860000
0.752643 0.751997 0.860000
0.847362 0.751997 0.860000
0.950000 0.760997 0.869000
0.131000 0.851353 0.860000
0.250576 0.851353 0.860000
0.357251 0.851353 0.860000
0.459544 0.851353 0.860000
0.559092 0.851353 0.860000
0.656648 0.851353 0.860000
0.752643 0.851353 0.860000
0.847362 0.851353 0.860000
0.950000 0.860353 0.869000
0.141000 0.960000 0.870000
0.260576 0.960000 0.870000
0.367251 0.960000 0.870000
0.469544 0.960000 0.870000
0.569092 0.960000 0.870000
0.666648 0.960000 0.870000
0.762643 0.960000 0.870000
0.857362 0.960000 0.870000
0.951000 0.960000 0.870000
