app/src/main/assets/luts/retro_70s.cube
TITLE "Retro 70s"
LUT_3D_SIZE 5
DOMAIN_MIN 0.0 0.0 0.0
DOMAIN_MAX 1.0 1.0 1.0
0.050000 0.041000 0.014000
0.301390 0.066139 0.039139
0.525658 0.088566 0.061566
0.740715 0.110071 0.083071
0.950000 0.131000 0.104000
0.073651 0.286508 0.037651
0.301390 0.287996 0.039139
0.525658 0.310423 0.061566
0.740715 0.331929 0.083071
0.950000 0.352857 0.104000
0.096622 0.516222 0.060622
0.322873 0.516222 0.060622
0.525658 0.517165 0.061566
0.740715 0.538671 0.083071
0.950000 0.559600 0.104000
0.119000 0.739997 0.083000
0.345250 0.739997 0.083000
0.547092 0.739997 0.083000
0.740715 0.740069 0.083071
0.950000 0.760997 0.104000
0.141000 0.960000 0.105000
0.367251 0.960000 0.105000
0.569092 0.960000 0.105000
0.762643 0.960000 0.105000
0.951000 0.960000 0.105000
0.063260 0.054260 0.182604
0.301390 0.066139 0.194482
0.525658 0.088566 0.216909
0.740715 0.110071 0.238415
0.950000 0.131000 0.259343
0.073651 0.286508 0.192994
0.301390 0.287996 0.194482
0.525658 0.310423 0.216909
0.740715 0.331929 0.238415
0.950000 0.352857 0.259343
0.096622 0.516222 0.215965
0.322873 0.516222 0.215965
0.525658 0.517165 0.216909
0.740715 0.538671 0.238415
0.950000 0.559600 0.259343
0.119000 0.739997 0.238343
0.345250 0.739997 0.238343
0.547092 0.739997 0.238343
0.740715 0.740069 0.238415
0.950000 0.760997 0.259343
0.141000 0.960000 0.260343
0.367251 0.960000 0.260343
0.569092 0.960000 0.260343
0.762643 0.960000 0.260343
0.951000 0.960000 0.260343
0.084303 0.075303 0.393031
0.310554 0.075303 0.393031
0.525658 0.088566 0.406294
0.740715 0.110071 0.427800
0.950000 0.131000 0.448728
0.084303 0.297160 0.393031
0.310554 0.297160 0.393031
0.525658 0.310423 0.406294
0.740715 0.331929 0.427800
0.950000 0.352857 0.448728
0.096622 0.516222 0.405350
0.322873 0.516222 0.405350
0.525658 0.517165 0.406294
0.740715 0.538671 0.427800
0.950000 0.559600 0.448728
0.119000 0.739997 0.427728
0.345250 0.739997 0.427728
0.547092 0.739997 0.427728
0.740715 0.740069 0.427800
0.950000 0.760997 0.448728
0.141000 0.960000 0.449728
0.367251 0.960000 0.449728
0.569092 0.960000 0.449728
0.762643 0.960000 0.449728
0.951000 0.960000 0.449728
0.107058 0.098058 0.620576
0.333308 0.098058 0.620576
0.535150 0.098058 0.620576
0.740715 0.110071 0.632589
0.950000 0.131000 0.653518
0.107058 0.319915 0.620576
0.333308 0.319915 0.620576
0.535150 0.319915 0.620576
0.740715 0.331929 0.632589
0.950000 0.352857 0.653518
0.107058 0.526657 0.620576
0.333308 0.526657 0.620576
0.535150 0.526657 0.620576
0.740715 0.538671 0.632589
0.950000 0.559600 0.653518
0.119000 0.739997 0.632518
0.345250 0.739997 0.632518
0.547092 0.739997 0.632518
0.740715 0.740069 0.632589
0.950000 0.760997 0.653518
0.141000 0.960000 0.654518
0.367251 0.960000 0.654518
0.569092 0.960000 0.654518
0.762643 0.960000 0.654518
0.951000 0.960000 0.654518
0.131000 0.122000 0.860000
0.357251 0.122000 0.860000
0.559092 0.122000 0.860000
0.752643 0.122000 0.860000
0.950000 0.131000 0.869000
0.131000 0.343857 0.860000
0.357251 0.343857 0.860000
0.559092 0.343857 0.860000
0.752643 0.343857 0.860000
0.950000 0.352857 0.869000
0.131000 0.550600 0.860000
0.357251 0.550600 0.860000
0.559092 0.550600 0.860000
0.752643 0.550600 0.860000
0.950000 0.559600 0.869000
0.131000 0.751997 0.860000
0.357251 0.751997 0.860000
0.559092 0.751997 0.860000
0.752643 0.751997 0.860000
0.950000 0.760997 0.869000
0.141000 0.960000 0.870000
0.367251 0.960000 0.870000
0.569092 0.960000 0.870000
0.762643 0.960000 0.870000
0.951000 0.960000 0.870000
