app/src/main/assets/luts/retro_70s.cube
TITLE "Retro 70s"
LUT_3D_SIZE 33
DOMAIN_MIN 0.0 0.0 0.0
DOMAIN_MAX 1.0 1.0 1.0
0.050000 0.041000 0.014000
0.087111 0.044711 0.017711
0.120219 0.048022 0.021022
0.151966 0.051197 0.024197
0.182862 0.054286 0.027286
0.213139 0.057314 0.030314
0.242932 0.060293 0.033293
0.272328 0.063233 0.036233
0.301390 0.066139 0.039139
0.330161 0.069016 0.042016
0.358677 0.071868 0.044868
0.386966 0.074697 0.047697
0.415049 0.077505 0.050505
0.442946 0.080295 0.053295
0.470671 0.083067 0.056067
0.498238 0.085824 0.058824
0.525658 0.088566 0.061566
0.552942 0.091294 0.064294
0.580097 0.094010 0.067010
0.607132 0.096713 0.069713
0.634053 0.099405 0.072405
0.660866 0.102087 0.075087
0.687578 0.104758 0.077758
0.714193 0.107419 0.080419
0.740715 0.110071 0.083071
0.767149 0.112715 0.085715
0.793498 0.115350 0.088350
0.819767 0.117977 0.090977
0.845958 0.120596 0.093596
0.872074 0.123207 0.096207
0.898118 0.125812 0.098812
0.924092 0.128409 0.101409
0.950000 0.131000 0.104000
0.052419 0.074190 0.016419
0.087111 0.075482 0.017711
0.120219 0.078793 0.021022
0.151966 0.081967 0.024197
0.182862 0.085057 0.027286
0.213139 0.088085 0.030314
0.242932 0.091064 0.033293
0.272328 0.094004 0.036233
0.301390 0.096910 0.039139
0.330161 0.099787 0.042016
0.358677 0.102638 0.044868
0.386966 0.105467 0.047697
0.415049 0.108276 0.050505
0.442946 0.111065 0.053295
0.470671 0.113838 0.056067
0.498238 0.116595 0.058824
0.525658 0.119337 0.061566
0.552942 0.122065 0.064294
0.580097 0.124780 0.067010
0.607132 0.127484 0.069713
0.634053 0.130176 0.072405
0.660866 0.132857 0.075087
0.687578 0.135529 0.077758
0.714193 0.138190 0.080419
0.740715 0.140842 0.083071
0.767149 0.143486 0.085715
0.793498 0.146121 0.088350
0.819767 0.148747 0.090977
0.845958 0.151366 0.093596
0.872074 0.153978 0.096207
0.898118 0.156582 0.098812
0.924092 0.159180 0.101409
0.950000 0.161771 0.104000
0.055605 0.106050 0.019605
0.089005 0.106050 0.019605
0.120219 0.107467 0.021022
0.151966 0.110642 0.024197
0.182862 0.113731 0.027286
0.213139 0.116759 0.030314
0.242932 0.119738 0.033293
0.272328 0.122678 0.036233
0.301390 0.125584 0.039139
0.330161 0.128461 0.042016
0.358677 0.131313 0.044868
0.386966 0.134142 0.047697
0.415049 0.136950 0.050505
0.442946 0.139740 0.053295
0.470671 0.142512 0.056067
0.498238 0.145269 0.058824
0.525658 0.148011 0.061566
0.552942 0.150739 0.064294
0.580097 0.153455 0.067010
0.607132 0.156158 0.069713
0.634053 0.158850 0.072405
0.660866 0.161532 0.075087
0.687578 0.164203 0.077758
0.714193 0.166864 0.080419
0.740715 0.169517 0.083071
0.767149 0.172160 0.085715
0.793498 0.174795 0.088350
0.819767 0.177422 0.090977
0.845958 0.180041 0.093596
0.872074 0.182652 0.096207
0.898118 0.185257 0.098812
0.924092 0.187854 0.101409
0.950000 0.190445 0.104000
0.058709 0.137087 0.022709
0.092109 0.137087 0.022709
0.121905 0.137087 0.022709
0.151966 0.138575 0.024197
0.182862 0.141664 0.027286
0.213139 0.144692 0.030314
0.242932 0.147671 0.033293
0.272328 0.150611 0.036233
0.301390 0.153517 0.039139
0.330161 0.156394 0.042016
0.358677 0.159246 0.044868
0.386966 0.162075 0.047697
0.415049 0.164883 0.050505
0.442946 0.167673 0.053295
0.470671 0.170445 0.056067
0.498238 0.173202 0.058824
0.525658 0.175944 0.061566
0.552942 0.178672 0.064294
0.580097 0.181388 0.067010
0.607132 0.184091 0.069713
0.634053 0.186783 0.072405
0.660866 0.189465 0.075087
0.687578 0.192136 0.077758
0.714193 0.194797 0.080419
0.740715 0.197450 0.083071
0.767149 0.200093 0.085715
0.793498 0.202728 0.088350
0.819767 0.205355 0.090977
0.845958 0.207974 0.093596
0.872074 0.210586 0.096207
0.898118 0.213190 0.098812
0.924092 0.215787 0.101409
0.950000 0.218378 0.104000
0.061760 0.167600 0.025760
0.095160 0.167600 0.025760
0.124957 0.167600 0.025760
0.153530 0.167600 0.025760
0.182862 0.169127 0.027286
0.213139 0.172154 0.030314
0.242932 0.175134 0.033293
0.272328 0.178073 0.036233
0.301390 0.180979 0.039139
0.330161 0.183857 0.042016
0.358677 0.186708 0.044868
0.386966 0.189537 0.047697
0.415049 0.192345 0.050505
0.442946 0.195135 0.053295
0.470671 0.197908 0.056067
0.498238 0.200664 0.058824
0.525658 0.203406 0.061566
0.552942 0.206135 0.064294
0.580097 0.208850 0.067010
0.607132 0.211554 0.069713
0.634053 0.214246 0.072405
0.660866 0.216927 0.075087
0.687578 0.219598 0.077758
0.714193 0.222260 0.080419
0.740715 0.224912 0.083071
0.767149 0.227555 0.085715
0.793498 0.230190 0.088350
0.819767 0.232817 0.090977
0.845958 0.235436 0.093596
0.872074 0.238048 0.096207
0.898118 0.240652 0.098812
0.924092 0.243250 0.101409
0.950000 0.245840 0.104000
0.064773 0.197731 0.028773
0.098173 0.197731 0.028773
0.127970 0.197731 0.028773
0.156543 0.197731 0.028773
0.184349 0.197731 0.028773
0.213139 0.199272 0.030314
0.242932 0.202251 0.033293
0.272328 0.205191 0.036233
0.301390 0.208097 0.039139
0.330161 0.210974 0.042016
0.358677 0.213826 0.044868
0.386966 0.216654 0.047697
0.415049 0.219463 0.050505
0.442946 0.222252 0.053295
0.470671 0.225025 0.056067
0.498238 0.227782 0.058824
0.525658 0.230524 0.061566
0.552942 0.233252 0.064294
0.580097 0.235968 0.067010
0.607132 0.238671 0.069713
0.634053 0.241363 0.072405
0.660866 0.244044 0.075087
0.687578 0.246716 0.077758
0.714193 0.249377 0.080419
0.740715 0.252029 0.083071
0.767149 0.254673 0.085715
0.793498 0.257308 0.088350
0.819767 0.259935 0.090977
0.845958 0.262554 0.093596
0.872074 0.265165 0.096207
0.898118 0.267770 0.098812
0.924092 0.270367 0.101409
0.950000 0.272958 0.104000
0.067756 0.227559 0.031756
0.101156 0.227559 0.031756
0.130953 0.227559 0.031756
0.159525 0.227559 0.031756
0.187331 0.227559 0.031756
0.214581 0.227559 0.031756
0.242932 0.229097 0.033293
0.272328 0.232036 0.036233
0.301390 0.234942 0.039139
0.330161 0.237820 0.042016
0.358677 0.240671 0.044868
0.386966 0.243500 0.047697
0.415049 0.246308 0.050505
0.442946 0.249098 0.053295
0.470671 0.251871 0.056067
0.498238 0.254627 0.058824
0.525658 0.257369 0.061566
0.552942 0.260098 0.064294
0.580097 0.262813 0.067010
0.607132 0.265517 0.069713
0.634053 0.268209 0.072405
0.660866 0.270890 0.075087
0.687578 0.273561 0.077758
0.714193 0.276223 0.080419
0.740715 0.278875 0.083071
0.767149 0.281518 0.085715
0.793498 0.284153 0.088350
0.819767 0.286780 0.090977
0.845958 0.289399 0.093596
0.872074 0.292011 0.096207
0.898118 0.294615 0.098812
0.924092 0.297213 0.101409
0.950000 0.299804 0.104000
0.070714 0.257139 0.034714
0.104114 0.257139 0.034714
0.133911 0.257139 0.034714
0.162483 0.257139 0.034714
0.190289 0.257139 0.034714
0.217539 0.257139 0.034714
0.244352 0.257139 0.034714
0.272328 0.258658 0.036233
0.301390 0.261564 0.039139
0.330161 0.264441 0.042016
0.358677 0.267293 0.044868
0.386966 0.270122 0.047697
0.415049 0.272930 0.050505
0.442946 0.275720 0.053295
0.470671 0.278492 0.056067
0.498238 0.281249 0.058824
0.525658 0.283991 0.061566
0.552942 0.286720 0.064294
0.580097 0.289435 0.067010
0.607132 0.292139 0.069713
0.634053 0.294831 0.072405
0.660866 0.297512 0.075087
0.687578 0.300183 0.077758
0.714193 0.302845 0.080419
0.740715 0.305497 0.083071
0.767149 0.308140 0.085715
0.793498 0.310775 0.088350
0.819767 0.313402 0.090977
0.845958 0.316021 0.093596
0.872074 0.318633 0.096207
0.898118 0.321237 0.098812
0.924092 0.323835 0.101409
0.950000 0.326425 0.104000
0.073651 0.286508 0.037651
0.107051 0.286508 0.037651
0.136848 0.286508 0.037651
0.165420 0.286508 0.037651
0.193226 0.286508 0.037651
0.220476 0.286508 0.037651
0.247289 0.286508 0.037651
0.273746 0.286508 0.037651
0.301390 0.287996 0.039139
0.330161 0.290873 0.042016
0.358677 0.293725 0.044868
0.386966 0.296554 0.047697
0.415049 0.299362 0.050505
0.442946 0.302152 0.053295
0.470671 0.304924 0.056067
0.498238 0.307681 0.058824
0.525658 0.310423 0.061566
0.552942 0.313151 0.064294
0.580097 0.315867 0.067010
0.607132 0.318570 0.069713
0.634053 0.321262 0.072405
0.660866 0.323944 0.075087
0.687578 0.326615 0.077758
0.714193 0.329276 0.080419
0.740715 0.331929 0.083071
0.767149 0.334572 0.085715
0.793498 0.337207 0.088350
0.819767 0.339834 0.090977
0.845958 0.342453 0.093596
0.872074 0.345064 0.096207
0.898118 0.347669 0.098812
0.924092 0.350266 0.101409
0.950000 0.352857 0.104000
0.076569 0.315693 0.040569
0.109969 0.315693 0.040569
0.139766 0.315693 0.040569
0.168339 0.315693 0.040569
0.196145 0.315693 0.040569
0.223394 0.315693 0.040569
0.250208 0.315693 0.040569
0.276665 0.315693 0.040569
0.302820 0.315693 0.040569
0.330161 0.317140 0.042016
0.358677 0.319991 0.044868
0.386966 0.322820 0.047697
0.415049 0.325629 0.050505
0.442946 0.328418 0.053295
0.470671 0.331191 0.056067
0.498238 0.333947 0.058824
0.525658 0.336690 0.061566
0.552942 0.339418 0.064294
0.580097 0.342133 0.067010
0.607132 0.344837 0.069713
0.634053 0.347529 0.072405
0.660866 0.350210 0.075087
0.687578 0.352882 0.077758
0.714193 0.355543 0.080419
0.740715 0.358195 0.083071
0.767149 0.360839 0.085715
0.793498 0.363474 0.088350
0.819767 0.366100 0.090977
0.845958 0.368719 0.093596
0.872074 0.371331 0.096207
0.898118 0.373935 0.098812
0.924092 0.376533 0.101409
0.950000 0.379124 0.104000
0.079472 0.344716 0.043472
0.112872 0.344716 0.043472
0.142668 0.344716 0.043472
0.171241 0.344716 0.043472
0.199047 0.344716 0.043472
0.226296 0.344716 0.043472
0.253110 0.344716 0.043472
0.279567 0.344716 0.043472
0.305722 0.344716 0.043472
0.331616 0.344716 0.043472
0.358677 0.346112 0.044868
0.386966 0.348941 0.047697
0.415049 0.351749 0.050505
0.442946 0.354539 0.053295
0.470671 0.357312 0.056067
0.498238 0.360068 0.058824
0.525658 0.362810 0.061566
0.552942 0.365539 0.064294
0.580097 0.368254 0.067010
0.607132 0.370958 0.069713
0.634053 0.373650 0.072405
0.660866 0.376331 0.075087
0.687578 0.379002 0.077758
0.714193 0.381664 0.080419
0.740715 0.384316 0.083071
0.767149 0.386959 0.085715
0.793498 0.389594 0.088350
0.819767 0.392221 0.090977
0.845958 0.394840 0.093596
0.872074 0.397452 0.096207
0.898118 0.400056 0.098812
0.924092 0.402654 0.101409
0.950000 0.405244 0.104000
0.082359 0.373594 0.046359
0.115759 0.373594 0.046359
0.145556 0.373594 0.046359
0.174129 0.373594 0.046359
0.201935 0.373594 0.046359
0.229184 0.373594 0.046359
0.255998 0.373594 0.046359
0.282455 0.373594 0.046359
0.308610 0.373594 0.046359
0.334504 0.373594 0.046359
0.360169 0.373594 0.046359
0.386966 0.374931 0.047697
0.415049 0.377740 0.050505
0.442946 0.380529 0.053295
0.470671 0.383302 0.056067
0.498238 0.386058 0.058824
0.525658 0.388801 0.061566
0.552942 0.391529 0.064294
0.580097 0.394244 0.067010
0.607132 0.396948 0.069713
0.634053 0.399640 0.072405
0.660866 0.402321 0.075087
0.687578 0.404993 0.077758
0.714193 0.407654 0.080419
0.740715 0.410306 0.083071
0.767149 0.412950 0.085715
0.793498 0.415585 0.088350
0.819767 0.418211 0.090977
0.845958 0.420830 0.093596
0.872074 0.423442 0.096207
0.898118 0.426046 0.098812
0.924092 0.428644 0.101409
0.950000 0.431235 0.104000
0.085234 0.402341 0.049234
0.118634 0.402341 0.049234
0.148431 0.402341 0.049234
0.177004 0.402341 0.049234
0.204810 0.402341 0.049234
0.232059 0.402341 0.049234
0.258873 0.402341 0.049234
0.285330 0.402341 0.049234
0.311485 0.402341 0.049234
0.337379 0.402341 0.049234
0.363044 0.402341 0.049234
0.388503 0.402341 0.049234
0.415049 0.403612 0.050505
0.442946 0.406401 0.053295
0.470671 0.409174 0.056067
0.498238 0.411931 0.058824
0.525658 0.414673 0.061566
0.552942 0.417401 0.064294
0.580097 0.420117 0.067010
0.607132 0.422820 0.069713
0.634053 0.425512 0.072405
0.660866 0.428194 0.075087
0.687578 0.430865 0.077758
0.714193 0.433526 0.080419
0.740715 0.436178 0.083071
0.767149 0.438822 0.085715
0.793498 0.441457 0.088350
0.819767 0.444084 0.090977
0.845958 0.446703 0.093596
0.872074 0.449314 0.096207
0.898118 0.451919 0.098812
0.924092 0.454516 0.101409
0.950000 0.457107 0.104000
0.088097 0.430968 0.052097
0.121497 0.430968 0.052097
0.151294 0.430968 0.052097
0.179866 0.430968 0.052097
0.207672 0.430968 0.052097
0.234922 0.430968 0.052097
0.261735 0.430968 0.052097
0.288192 0.430968 0.052097
0.314347 0.430968 0.052097
0.340242 0.430968 0.052097
0.365906 0.430968 0.052097
0.391366 0.430968 0.052097
0.416641 0.430968 0.052097
0.442946 0.432166 0.053295
0.470671 0.434939 0.056067
0.498238 0.437695 0.058824
0.525658 0.440437 0.061566
0.552942 0.443166 0.064294
0.580097 0.445881 0.067010
0.607132 0.448585 0.069713
0.634053 0.451277 0.072405
0.660866 0.453958 0.075087
0.687578 0.456629 0.077758
0.714193 0.459291 0.080419
0.740715 0.461943 0.083071
0.767149 0.464586 0.085715
0.793498 0.467221 0.088350
0.819767 0.469848 0.090977
0.845958 0.472467 0.093596
0.872074 0.475079 0.096207
0.898118 0.477683 0.098812
0.924092 0.480281 0.101409
0.950000 0.482871 0.104000
0.090949 0.459486 0.054949
0.124349 0.459486 0.054949
0.154145 0.459486 0.054949
0.182718 0.459486 0.054949
0.210524 0.459486 0.054949
0.237773 0.459486 0.054949
0.264587 0.459486 0.054949
0.291044 0.459486 0.054949
0.317199 0.459486 0.054949
0.343093 0.459486 0.054949
0.368758 0.459486 0.054949
0.394218 0.459486 0.054949
0.419493 0.459486 0.054949
0.444600 0.459486 0.054949
0.470671 0.460604 0.056067
0.498238 0.463361 0.058824
0.525658 0.466103 0.061566
0.552942 0.468831 0.064294
0.580097 0.471547 0.067010
0.607132 0.474250 0.069713
0.634053 0.476942 0.072405
0.660866 0.479624 0.075087
0.687578 0.482295 0.077758
0.714193 0.484956 0.080419
0.740715 0.487608 0.083071
0.767149 0.490252 0.085715
0.793498 0.492887 0.088350
0.819767 0.495514 0.090977
0.845958 0.498133 0.093596
0.872074 0.500744 0.096207
0.898118 0.503349 0.098812
0.924092 0.505946 0.101409
0.950000 0.508537 0.104000
0.093790 0.487901 0.057790
0.127190 0.487901 0.057790
0.156987 0.487901 0.057790
0.185560 0.487901 0.057790
0.213366 0.487901 0.057790
0.240615 0.487901 0.057790
0.267429 0.487901 0.057790
0.293886 0.487901 0.057790
0.320041 0.487901 0.057790
0.345935 0.487901 0.057790
0.371600 0.487901 0.057790
0.397059 0.487901 0.057790
0.422334 0.487901 0.057790
0.447441 0.487901 0.057790
0.472394 0.487901 0.057790
0.498238 0.488935 0.058824
0.525658 0.491677 0.061566
0.552942 0.494405 0.064294
0.580097 0.497121 0.067010
0.607132 0.499824 0.069713
0.634053 0.502516 0.072405
0.660866 0.505198 0.075087
0.687578 0.507869 0.077758
0.714193 0.510530 0.080419
0.740715 0.513182 0.083071
0.767149 0.515826 0.085715
0.793498 0.518461 0.088350
0.819767 0.521088 0.090977
0.845958 0.523707 0.093596
0.872074 0.526318 0.096207
0.898118 0.528923 0.098812
0.924092 0.531520 0.101409
0.950000 0.534111 0.104000
0.096622 0.516222 0.060622
0.130022 0.516222 0.060622
0.159819 0.516222 0.060622
0.188392 0.516222 0.060622
0.216198 0.516222 0.060622
0.243447 0.516222 0.060622
0.270261 0.516222 0.060622
0.296718 0.516222 0.060622
0.322873 0.516222 0.060622
0.348767 0.516222 0.060622
0.374432 0.516222 0.060622
0.399891 0.516222 0.060622
0.425166 0.516222 0.060622
0.450273 0.516222 0.060622
0.475226 0.516222 0.060622
0.500036 0.516222 0.060622
0.525658 0.517165 0.061566
0.552942 0.519894 0.064294
0.580097 0.522609 0.067010
0.607132 0.525313 0.069713
0.634053 0.528005 0.072405
0.660866 0.530686 0.075087
0.687578 0.533357 0.077758
0.714193 0.536019 0.080419
0.740715 0.538671 0.083071
0.767149 0.541315 0.085715
0.793498 0.543950 0.088350
0.819767 0.546576 0.090977
0.845958 0.549195 0.093596
0.872074 0.551807 0.096207
0.898118 0.554411 0.098812
0.924092 0.557009 0.101409
0.950000 0.559600 0.104000
0.099445 0.544454 0.063445
0.132845 0.544454 0.063445
0.162642 0.544454 0.063445
0.191215 0.544454 0.063445
0.219021 0.544454 0.063445
0.246270 0.544454 0.063445
0.273084 0.544454 0.063445
0.299541 0.544454 0.063445
0.325696 0.544454 0.063445
0.351590 0.544454 0.063445
0.377255 0.544454 0.063445
0.402715 0.544454 0.063445
0.427990 0.544454 0.063445
0.453096 0.544454 0.063445
0.478049 0.544454 0.063445
0.502859 0.544454 0.063445
0.527538 0.544454 0.063445
0.552942 0.545303 0.064294
0.580097 0.548019 0.067010
0.607132 0.550722 0.069713
0.634053 0.553414 0.072405
0.660866 0.556096 0.075087
0.687578 0.558767 0.077758
0.714193 0.561428 0.080419
0.740715 0.564080 0.083071
0.767149 0.566724 0.085715
0.793498 0.569359 0.088350
0.819767 0.571986 0.090977
0.845958 0.574605 0.093596
0.872074 0.577216 0.096207
0.898118 0.579821 0.098812
0.924092 0.582418 0.101409
0.950000 0.585009 0.104000
0.102260 0.572604 0.066260
0.135660 0.572604 0.066260
0.165457 0.572604 0.066260
0.194030 0.572604 0.066260
0.221836 0.572604 0.066260
0.249085 0.572604 0.066260
0.275899 0.572604 0.066260
0.302356 0.572604 0.066260
0.328511 0.572604 0.066260
0.354405 0.572604 0.066260
0.380070 0.572604 0.066260
0.405530 0.572604 0.066260
0.430805 0.572604 0.066260
0.455911 0.572604 0.066260
0.480864 0.572604 0.066260
0.505674 0.572604 0.066260
0.530353 0.572604 0.066260
0.554908 0.572604 0.066260
0.580097 0.573353 0.067010
0.607132 0.576057 0.069713
0.634053 0.578749 0.072405
0.660866 0.581430 0.075087
0.687578 0.584101 0.077758
0.714193 0.586763 0.080419
0.740715 0.589415 0.083071
0.767149 0.592058 0.085715
0.793498 0.594693 0.088350
0.819767 0.597320 0.090977
0.845958 0.599939 0.093596
0.872074 0.602551 0.096207
0.898118 0.605155 0.098812
0.924092 0.607753 0.101409
0.950000 0.610343 0.104000
0.105068 0.600675 0.069068
0.138468 0.600675 0.069068
0.168264 0.600675 0.069068
0.196837 0.600675 0.069068
0.224643 0.600675 0.069068
0.251892 0.600675 0.069068
0.278706 0.600675 0.069068
0.305163 0.600675 0.069068
0.331318 0.600675 0.069068
0.357212 0.600675 0.069068
0.382877 0.600675 0.069068
0.408337 0.600675 0.069068
0.433612 0.600675 0.069068
0.458719 0.600675 0.069068
0.483671 0.600675 0.069068
0.508482 0.600675 0.069068
0.533160 0.600675 0.069068
0.557715 0.600675 0.069068
0.582155 0.600675 0.069068
0.607132 0.601321 0.069713
0.634053 0.604013 0.072405
0.660866 0.606694 0.075087
0.687578 0.609365 0.077758
0.714193 0.612027 0.080419
0.740715 0.614679 0.083071
0.767149 0.617322 0.085715
0.793498 0.619957 0.088350
0.819767 0.622584 0.090977
0.845958 0.625203 0.093596
0.872074 0.627815 0.096207
0.898118 0.630419 0.098812
0.924092 0.633017 0.101409
0.950000 0.635608 0.104000
0.107867 0.628673 0.071867
0.141267 0.628673 0.071867
0.171064 0.628673 0.071867
0.199637 0.628673 0.071867
0.227443 0.628673 0.071867
0.254692 0.628673 0.071867
0.281506 0.628673 0.071867
0.307963 0.628673 0.071867
0.334118 0.628673 0.071867
0.360012 0.628673 0.071867
0.385677 0.628673 0.071867
0.411136 0.628673 0.071867
0.436411 0.628673 0.071867
0.461518 0.628673 0.071867
0.486471 0.628673 0.071867
0.511281 0.628673 0.071867
0.535960 0.628673 0.071867
0.560515 0.628673 0.071867
0.584954 0.628673 0.071867
0.609286 0.628673 0.071867
0.634053 0.629211 0.072405
0.660866 0.631892 0.075087
0.687578 0.634563 0.077758
0.714193 0.637225 0.080419
0.740715 0.639877 0.083071
0.767149 0.642520 0.085715
0.793498 0.645155 0.088350
0.819767 0.647782 0.090977
0.845958 0.650401 0.093596
0.872074 0.653013 0.096207
0.898118 0.655617 0.098812
0.924092 0.658215 0.101409
0.950000 0.660805 0.104000
0.110660 0.656600 0.074660
0.144060 0.656600 0.074660
0.173857 0.656600 0.074660
0.202430 0.656600 0.074660
0.230236 0.656600 0.074660
0.257485 0.656600 0.074660
0.284299 0.656600 0.074660
0.310755 0.656600 0.074660
0.336911 0.656600 0.074660
0.362805 0.656600 0.074660
0.388469 0.656600 0.074660
0.413929 0.656600 0.074660
0.439204 0.656600 0.074660
0.464311 0.656600 0.074660
0.489264 0.656600 0.074660
0.514074 0.656600 0.074660
0.538752 0.656600 0.074660
0.563307 0.656600 0.074660
0.587747 0.656600 0.074660
0.612079 0.656600 0.074660
0.636308 0.656600 0.074660
0.660866 0.657027 0.075087
0.687578 0.659698 0.077758
0.714193 0.662359 0.080419
0.740715 0.665012 0.083071
0.767149 0.667655 0.085715
0.793498 0.670290 0.088350
0.819767 0.672917 0.090977
0.845958 0.675536 0.093596
0.872074 0.678148 0.096207
0.898118 0.680752 0.098812
0.924092 0.683349 0.101409
0.950000 0.685940 0.104000
0.113446 0.684461 0.077446
0.146846 0.684461 0.077446
0.176643 0.684461 0.077446
0.205216 0.684461 0.077446
0.233022 0.684461 0.077446
0.260271 0.684461 0.077446
0.287085 0.684461 0.077446
0.313542 0.684461 0.077446
0.339697 0.684461 0.077446
0.365591 0.684461 0.077446
0.391256 0.684461 0.077446
0.416715 0.684461 0.077446
0.441990 0.684461 0.077446
0.467097 0.684461 0.077446
0.492050 0.684461 0.077446
0.516860 0.684461 0.077446
0.541538 0.684461 0.077446
0.566094 0.684461 0.077446
0.590533 0.684461 0.077446
0.614865 0.684461 0.077446
0.639094 0.684461 0.077446
0.663226 0.684461 0.077446
0.687578 0.684773 0.077758
0.714193 0.687435 0.080419
0.740715 0.690087 0.083071
0.767149 0.692730 0.085715
0.793498 0.695365 0.088350
0.819767 0.697992 0.090977
0.845958 0.700611 0.093596
0.872074 0.703223 0.096207
0.898118 0.705827 0.098812
0.924092 0.708424 0.101409
0.950000 0.711015 0.104000
0.116226 0.712259 0.080226
0.149626 0.712259 0.080226
0.179423 0.712259 0.080226
0.207995 0.712259 0.080226
0.235801 0.712259 0.080226
0.263051 0.712259 0.080226
0.289864 0.712259 0.080226
0.316321 0.712259 0.080226
0.342477 0.712259 0.080226
0.368371 0.712259 0.080226
0.394035 0.712259 0.080226
0.419495 0.712259 0.080226
0.444770 0.712259 0.080226
0.469877 0.712259 0.080226
0.494830 0.712259 0.080226
0.519640 0.712259 0.080226
0.544318 0.712259 0.080226
0.568873 0.712259 0.080226
0.593313 0.712259 0.080226
0.617644 0.712259 0.080226
0.641873 0.712259 0.080226
0.666006 0.712259 0.080226
0.690046 0.712259 0.080226
0.714193 0.712453 0.080419
0.740715 0.715105 0.083071
0.767149 0.717748 0.085715
0.793498 0.720383 0.088350
0.819767 0.723010 0.090977
0.845958 0.725629 0.093596
0.872074 0.728241 0.096207
0.898118 0.730845 0.098812
0.924092 0.733443 0.101409
0.950000 0.736033 0.104000
0.119000 0.739997 0.083000
0.152400 0.739997 0.083000
0.182196 0.739997 0.083000
0.210769 0.739997 0.083000
0.238575 0.739997 0.083000
0.265824 0.739997 0.083000
0.292638 0.739997 0.083000
0.319095 0.739997 0.083000
0.345250 0.739997 0.083000
0.371145 0.739997 0.083000
0.396809 0.739997 0.083000
0.422269 0.739997 0.083000
0.447544 0.739997 0.083000
0.472651 0.739997 0.083000
0.497603 0.739997 0.083000
0.522414 0.739997 0.083000
0.547092 0.739997 0.083000
0.571647 0.739997 0.083000
0.596087 0.739997 0.083000
0.620418 0.739997 0.083000
0.644647 0.739997 0.083000
0.668779 0.739997 0.083000
0.692820 0.739997 0.083000
0.716773 0.739997 0.083000
0.740715 0.740069 0.083071
0.767149 0.742712 0.085715
0.793498 0.745347 0.088350
0.819767 0.747974 0.090977
0.845958 0.750593 0.093596
0.872074 0.753204 0.096207
0.898118 0.755809 0.098812
0.924092 0.758406 0.101409
0.950000 0.760997 0.104000
0.121768 0.767677 0.085768
0.155168 0.767677 0.085768
0.184964 0.767677 0.085768
0.213537 0.767677 0.085768
0.241343 0.767677 0.085768
0.268592 0.767677 0.085768
0.295406 0.767677 0.085768
0.321863 0.767677 0.085768
0.348018 0.767677 0.085768
0.373913 0.767677 0.085768
0.399577 0.767677 0.085768
0.425037 0.767677 0.085768
0.450312 0.767677 0.085768
0.475419 0.767677 0.085768
0.500371 0.767677 0.085768
0.525182 0.767677 0.085768
0.549860 0.767677 0.085768
0.574415 0.767677 0.085768
0.598855 0.767677 0.085768
0.623186 0.767677 0.085768
0.647415 0.767677 0.085768
0.671547 0.767677 0.085768
0.695588 0.767677 0.085768
0.719541 0.767677 0.085768
0.743411 0.767677 0.085768
0.767202 0.767677 0.085768
0.793498 0.770259 0.088350
0.819767 0.772886 0.090977
0.845958 0.775505 0.093596
0.872074 0.778116 0.096207
0.898118 0.780721 0.098812
0.924092 0.783318 0.101409
0.950000 0.785909 0.104000
0.124530 0.795301 0.088530
0.157930 0.795301 0.088530
0.187727 0.795301 0.088530
0.216300 0.795301 0.088530
0.244106 0.795301 0.088530
0.271355 0.795301 0.088530
0.298169 0.795301 0.088530
0.324626 0.795301 0.088530
0.350781 0.795301 0.088530
0.376675 0.795301 0.088530
0.402340 0.795301 0.088530
0.427799 0.795301 0.088530
0.453074 0.795301 0.088530
0.478181 0.795301 0.088530
0.503134 0.795301 0.088530
0.527944 0.795301 0.088530
0.552622 0.795301 0.088530
0.577178 0.795301 0.088530
0.601617 0.795301 0.088530
0.625949 0.795301 0.088530
0.650178 0.795301 0.088530
0.674310 0.795301 0.088530
0.698350 0.795301 0.088530
0.722304 0.795301 0.088530
0.746174 0.795301 0.088530
0.769964 0.795301 0.088530
0.793679 0.795301 0.088530
