app/src/main/assets/luts/shadow.cube
TITLE "Shadow"
LUT_3D_SIZE 33
DOMAIN_MIN 0.0 0.0 0.0
DOMAIN_MAX 1.0 1.0 1.0
0.000000 0.000000 0.000000
0.011601 0.001740 0.001740
0.028565 0.004285 0.004285
0.048390 0.007258 0.007258
0.070335 0.010550 0.010550
0.094006 0.014101 0.014101
0.119149 0.017872 0.017872
0.145587 0.021838 0.021838
0.173185 0.025978 0.025978
0.201841 0.030276 0.030276
0.231470 0.034720 0.034720
0.262002 0.039300 0.039300
0.293380 0.044007 0.044007
0.325552 0.048833 0.048833
0.358477 0.053771 0.053771
0.392115 0.058817 0.058817
0.426433 0.063965 0.063965
0.461400 0.069210 0.069210
0.496991 0.074549 0.074549
0.533180 0.079977 0.079977
0.569945 0.085492 0.085492
0.607267 0.091090 0.091090
0.645125 0.096769 0.096769
0.683503 0.102525 0.102525
0.722385 0.108358 0.108358
0.761757 0.114264 0.114264
0.801604 0.120241 0.120241
0.841913 0.126287 0.126287
0.882673 0.132401 0.132401
0.923872 0.138581 0.138581
0.965499 0.144825 0.144825
1.000000 0.150000 0.150000
1.000000 0.150000 0.150000
0.001740 0.011601 0.001740
0.011601 0.011601 0.001740
0.028565 0.014146 0.004285
0.048390 0.017119 0.007258
0.070335 0.020411 0.010550
0.094006 0.023962 0.014101
0.119149 0.027733 0.017872
0.145587 0.031699 0.021838
0.173185 0.035839 0.025978
0.201841 0.040137 0.030276
0.231470 0.044581 0.034720
0.262002 0.049161 0.039300
0.293380 0.053868 0.044007
0.325552 0.058694 0.048833
0.358477 0.063632 0.053771
0.392115 0.068678 0.058817
0.426433 0.073826 0.063965
0.461400 0.079071 0.069210
0.496991 0.084409 0.074549
0.533180 0.089838 0.079977
0.569945 0.095353 0.085492
0.607267 0.100951 0.091090
0.645125 0.106630 0.096769
0.683503 0.112386 0.102525
0.722385 0.118219 0.108358
0.761757 0.124124 0.114264
0.801604 0.130101 0.120241
0.841913 0.136148 0.126287
0.882673 0.142262 0.132401
0.923872 0.148442 0.138581
0.965499 0.154686 0.144825
1.000000 0.159861 0.150000
1.000000 0.159861 0.150000
0.004285 0.028565 0.004285
0.014146 0.028565 0.004285
0.028565 0.028565 0.004285
0.048390 0.031539 0.007258
0.070335 0.034830 0.010550
0.094006 0.038381 0.014101
0.119149 0.042153 0.017872
0.145587 0.046118 0.021838
0.173185 0.050258 0.025978
0.201841 0.054556 0.030276
0.231470 0.059001 0.034720
0.262002 0.063581 0.039300
0.293380 0.068287 0.044007
0.325552 0.073113 0.048833
0.358477 0.078052 0.053771
0.392115 0.083097 0.058817
0.426433 0.088245 0.063965
0.461400 0.093490 0.069210
0.496991 0.098829 0.074549
0.533180 0.104257 0.079977
0.569945 0.109772 0.085492
0.607267 0.115370 0.091090
0.645125 0.121049 0.096769
0.683503 0.126806 0.102525
0.722385 0.132638 0.108358
0.761757 0.138544 0.114264
0.801604 0.144521 0.120241
0.841913 0.150567 0.126287
0.882673 0.156681 0.132401
0.923872 0.162861 0.138581
0.965499 0.169105 0.144825
1.000000 0.174280 0.150000
1.000000 0.174280 0.150000
0.007258 0.048390 0.007258
0.017119 0.048390 0.007258
0.031539 0.048390 0.007258
0.048390 0.048390 0.007258
0.070335 0.051681 0.010550
0.094006 0.055232 0.014101
0.119149 0.059004 0.017872
0.145587 0.062969 0.021838
0.173185 0.067109 0.025978
0.201841 0.071407 0.030276
0.231470 0.075852 0.034720
0.262002 0.080431 0.039300
0.293380 0.085138 0.044007
0.325552 0.089964 0.048833
0.358477 0.094903 0.053771
0.392115 0.099948 0.058817
0.426433 0.105096 0.063965
0.461400 0.110341 0.069210
0.496991 0.115680 0.074549
0.533180 0.121108 0.079977
0.569945 0.126623 0.085492
0.607267 0.132221 0.091090
0.645125 0.137900 0.096769
0.683503 0.143657 0.102525
0.722385 0.149489 0.108358
0.761757 0.155395 0.114264
0.801604 0.161372 0.120241
0.841913 0.167418 0.126287
0.882673 0.173532 0.132401
0.923872 0.179712 0.138581
0.965499 0.185956 0.144825
1.000000 0.191131 0.150000
1.000000 0.191131 0.150000
0.010550 0.070335 0.010550
0.020411 0.070335 0.010550
0.034830 0.070335 0.010550
0.051681 0.070335 0.010550
0.070335 0.070335 0.010550
0.094006 0.073886 0.014101
0.119149 0.077657 0.017872
0.145587 0.081623 0.021838
0.173185 0.085763 0.025978
0.201841 0.090061 0.030276
0.231470 0.094505 0.034720
0.262002 0.099085 0.039300
0.293380 0.103792 0.044007
0.325552 0.108618 0.048833
0.358477 0.113556 0.053771
0.392115 0.118602 0.058817
0.426433 0.123750 0.063965
0.461400 0.128995 0.069210
0.496991 0.134334 0.074549
0.533180 0.139762 0.079977
0.569945 0.145277 0.085492
0.607267 0.150875 0.091090
0.645125 0.156554 0.096769
0.683503 0.162310 0.102525
0.722385 0.168143 0.108358
0.761757 0.174048 0.114264
0.801604 0.180025 0.120241
0.841913 0.186072 0.126287
0.882673 0.192186 0.132401
0.923872 0.198366 0.138581
0.965499 0.204610 0.144825
1.000000 0.209785 0.150000
1.000000 0.209785 0.150000
0.014101 0.094006 0.014101
0.023962 0.094006 0.014101
0.038381 0.094006 0.014101
0.055232 0.094006 0.014101
0.073886 0.094006 0.014101
0.094006 0.094006 0.014101
0.119149 0.097777 0.017872
0.145587 0.101743 0.021838
0.173185 0.105883 0.025978
0.201841 0.110181 0.030276
0.231470 0.114626 0.034720
0.262002 0.119205 0.039300
0.293380 0.123912 0.044007
0.325552 0.128738 0.048833
0.358477 0.133677 0.053771
0.392115 0.138722 0.058817
0.426433 0.143870 0.063965
0.461400 0.149115 0.069210
0.496991 0.154454 0.074549
0.533180 0.159882 0.079977
0.569945 0.165397 0.085492
0.607267 0.170995 0.091090
0.645125 0.176674 0.096769
0.683503 0.182431 0.102525
0.722385 0.188263 0.108358
0.761757 0.194169 0.114264
0.801604 0.200146 0.120241
0.841913 0.206192 0.126287
0.882673 0.212306 0.132401
0.923872 0.218486 0.138581
0.965499 0.224730 0.144825
1.000000 0.229905 0.150000
1.000000 0.229905 0.150000
0.017872 0.119149 0.017872
0.027733 0.119149 0.017872
0.042153 0.119149 0.017872
0.059004 0.119149 0.017872
0.077657 0.119149 0.017872
0.097777 0.119149 0.017872
0.119149 0.119149 0.017872
0.145587 0.123115 0.021838
0.173185 0.127255 0.025978
0.201841 0.131553 0.030276
0.231470 0.135997 0.034720
0.262002 0.140577 0.039300
0.293380 0.145284 0.044007
0.325552 0.150110 0.048833
0.358477 0.155048 0.053771
0.392115 0.160094 0.058817
0.426433 0.165242 0.063965
0.461400 0.170487 0.069210
0.496991 0.175825 0.074549
0.533180 0.181254 0.079977
0.569945 0.186769 0.085492
0.607267 0.192367 0.091090
0.645125 0.198046 0.096769
0.683503 0.203802 0.102525
0.722385 0.209635 0.108358
0.761757 0.215540 0.114264
0.801604 0.221517 0.120241
0.841913 0.227564 0.126287
0.882673 0.233678 0.132401
0.923872 0.239858 0.138581
0.965499 0.246102 0.144825
1.000000 0.251277 0.150000
1.000000 0.251277 0.150000
0.021838 0.145587 0.021838
0.031699 0.145587 0.021838
0.046118 0.145587 0.021838
0.062969 0.145587 0.021838
0.081623 0.145587 0.021838
0.101743 0.145587 0.021838
0.123115 0.145587 0.021838
0.145587 0.145587 0.021838
0.173185 0.149727 0.025978
0.201841 0.154025 0.030276
0.231470 0.158469 0.034720
0.262002 0.163049 0.039300
0.293380 0.167756 0.044007
0.325552 0.172582 0.048833
0.358477 0.177520 0.053771
0.392115 0.182566 0.058817
0.426433 0.187714 0.063965
0.461400 0.192959 0.069210
0.496991 0.198297 0.074549
0.533180 0.203726 0.079977
0.569945 0.209241 0.085492
0.607267 0.214839 0.091090
0.645125 0.220517 0.096769
0.683503 0.226274 0.102525
0.722385 0.232107 0.108358
0.761757 0.238012 0.114264
0.801604 0.243989 0.120241
0.841913 0.250036 0.126287
0.882673 0.256150 0.132401
0.923872 0.262329 0.138581
0.965499 0.268574 0.144825
1.000000 0.273749 0.150000
1.000000 0.273749 0.150000
0.025978 0.173185 0.025978
0.035839 0.173185 0.025978
0.050258 0.173185 0.025978
0.067109 0.173185 0.025978
0.085763 0.173185 0.025978
0.105883 0.173185 0.025978
0.127255 0.173185 0.025978
0.149727 0.173185 0.025978
0.173185 0.173185 0.025978
0.201841 0.177484 0.030276
0.231470 0.181928 0.034720
0.262002 0.186508 0.039300
0.293380 0.191215 0.044007
0.325552 0.196040 0.048833
0.358477 0.200979 0.053771
0.392115 0.206025 0.058817
0.426433 0.211172 0.063965
0.461400 0.216418 0.069210
0.496991 0.221756 0.074549
0.533180 0.227185 0.079977
0.569945 0.232699 0.085492
0.607267 0.238298 0.091090
0.645125 0.243976 0.096769
0.683503 0.249733 0.102525
0.722385 0.255565 0.108358
0.761757 0.261471 0.114264
0.801604 0.267448 0.120241
0.841913 0.273495 0.126287
0.882673 0.279609 0.132401
0.923872 0.285788 0.138581
0.965499 0.292032 0.144825
1.000000 0.297208 0.150000
1.000000 0.297208 0.150000
0.030276 0.201841 0.030276
0.040137 0.201841 0.030276
0.054556 0.201841 0.030276
0.071407 0.201841 0.030276
0.090061 0.201841 0.030276
0.110181 0.201841 0.030276
0.131553 0.201841 0.030276
0.154025 0.201841 0.030276
0.177484 0.201841 0.030276
0.201841 0.201841 0.030276
0.231470 0.206285 0.034720
0.262002 0.210865 0.039300
0.293380 0.215572 0.044007
0.325552 0.220398 0.048833
0.358477 0.225336 0.053771
0.392115 0.230382 0.058817
0.426433 0.235530 0.063965
0.461400 0.240775 0.069210
0.496991 0.246114 0.074549
0.533180 0.251542 0.079977
0.569945 0.257057 0.085492
0.607267 0.262655 0.091090
0.645125 0.268334 0.096769
0.683503 0.274090 0.102525
0.722385 0.279923 0.108358
0.761757 0.285828 0.114264
0.801604 0.291805 0.120241
0.841913 0.297852 0.126287
0.882673 0.303966 0.132401
0.923872 0.310146 0.138581
0.965499 0.316390 0.144825
1.000000 0.321565 0.150000
1.000000 0.321565 0.150000
0.034720 0.231470 0.034720
0.044581 0.231470 0.034720
0.059001 0.231470 0.034720
0.075852 0.231470 0.034720
0.094505 0.231470 0.034720
0.114626 0.231470 0.034720
0.135997 0.231470 0.034720
0.158469 0.231470 0.034720
0.181928 0.231470 0.034720
0.206285 0.231470 0.034720
0.231470 0.231470 0.034720
0.262002 0.236050 0.039300
0.293380 0.240756 0.044007
0.325552 0.245582 0.048833
0.358477 0.250521 0.053771
0.392115 0.255567 0.058817
0.426433 0.260714 0.063965
0.461400 0.265959 0.069210
0.496991 0.271298 0.074549
0.533180 0.276726 0.079977
0.569945 0.282241 0.085492
0.607267 0.287839 0.091090
0.645125 0.293518 0.096769
0.683503 0.299275 0.102525
0.722385 0.305107 0.108358
0.761757 0.311013 0.114264
0.801604 0.316990 0.120241
0.841913 0.323036 0.126287
0.882673 0.329150 0.132401
0.923872 0.335330 0.138581
0.965499 0.341574 0.144825
1.000000 0.346749 0.150000
1.000000 0.346749 0.150000
0.039300 0.262002 0.039300
0.049161 0.262002 0.039300
0.063581 0.262002 0.039300
0.080431 0.262002 0.039300
0.099085 0.262002 0.039300
0.119205 0.262002 0.039300
0.140577 0.262002 0.039300
0.163049 0.262002 0.039300
0.186508 0.262002 0.039300
0.210865 0.262002 0.039300
0.236050 0.262002 0.039300
0.262002 0.262002 0.039300
0.293380 0.266709 0.044007
0.325552 0.271535 0.048833
0.358477 0.276473 0.053771
0.392115 0.281519 0.058817
0.426433 0.286667 0.063965
0.461400 0.291912 0.069210
0.496991 0.297250 0.074549
0.533180 0.302679 0.079977
0.569945 0.308194 0.085492
0.607267 0.313792 0.091090
0.645125 0.319471 0.096769
0.683503 0.325227 0.102525
0.722385 0.331060 0.108358
0.761757 0.336965 0.114264
0.801604 0.342942 0.120241
0.841913 0.348989 0.126287
0.882673 0.355103 0.132401
0.923872 0.361283 0.138581
0.965499 0.367527 0.144825
1.000000 0.372702 0.150000
1.000000 0.372702 0.150000
0.044007 0.293380 0.044007
0.053868 0.293380 0.044007
0.068287 0.293380 0.044007
0.085138 0.293380 0.044007
0.103792 0.293380 0.044007
0.123912 0.293380 0.044007
0.145284 0.293380 0.044007
0.167756 0.293380 0.044007
0.191215 0.293380 0.044007
0.215572 0.293380 0.044007
0.240756 0.293380 0.044007
0.266709 0.293380 0.044007
0.293380 0.293380 0.044007
0.325552 0.298206 0.048833
0.358477 0.303144 0.053771
0.392115 0.308190 0.058817
0.426433 0.313338 0.063965
0.461400 0.318583 0.069210
0.496991 0.323921 0.074549
0.533180 0.329350 0.079977
0.569945 0.334865 0.085492
0.607267 0.340463 0.091090
0.645125 0.346141 0.096769
0.683503 0.351898 0.102525
0.722385 0.357730 0.108358
0.761757 0.363636 0.114264
0.801604 0.369613 0.120241
0.841913 0.375660 0.126287
0.882673 0.381774 0.132401
0.923872 0.387953 0.138581
0.965499 0.394198 0.144825
1.000000 0.399373 0.150000
1.000000 0.399373 0.150000
0.048833 0.325552 0.048833
0.058694 0.325552 0.048833
0.073113 0.325552 0.048833
0.089964 0.325552 0.048833
0.108618 0.325552 0.048833
0.128738 0.325552 0.048833
0.150110 0.325552 0.048833
0.172582 0.325552 0.048833
0.196040 0.325552 0.048833
0.220398 0.325552 0.048833
0.245582 0.325552 0.048833
0.271535 0.325552 0.048833
0.298206 0.325552 0.048833
0.325552 0.325552 0.048833
0.358477 0.330491 0.053771
0.392115 0.335537 0.058817
0.426433 0.340684 0.063965
0.461400 0.345929 0.069210
0.496991 0.351268 0.074549
0.533180 0.356696 0.079977
0.569945 0.362211 0.085492
0.607267 0.367809 0.091090
0.645125 0.373488 0.096769
0.683503 0.379245 0.102525
0.722385 0.385077 0.108358
0.761757 0.390983 0.114264
0.801604 0.396960 0.120241
0.841913 0.403006 0.126287
0.882673 0.409120 0.132401
0.923872 0.415300 0.138581
0.965499 0.421544 0.144825
1.000000 0.426719 0.150000
1.000000 0.426719 0.150000
0.053771 0.358477 0.053771
0.063632 0.358477 0.053771
0.078052 0.358477 0.053771
0.094903 0.358477 0.053771
0.113556 0.358477 0.053771
0.133677 0.358477 0.053771
0.155048 0.358477 0.053771
0.177520 0.358477 0.053771
0.200979 0.358477 0.053771
0.225336 0.358477 0.053771
0.250521 0.358477 0.053771
0.276473 0.358477 0.053771
0.303144 0.358477 0.053771
0.330491 0.358477 0.053771
0.358477 0.358477 0.053771
0.392115 0.363522 0.058817
0.426433 0.368670 0.063965
0.461400 0.373915 0.069210
0.496991 0.379254 0.074549
0.533180 0.384682 0.079977
0.569945 0.390197 0.085492
0.607267 0.395795 0.091090
0.645125 0.401474 0.096769
0.683503 0.407231 0.102525
0.722385 0.413063 0.108358
0.761757 0.418969 0.114264
0.801604 0.424946 0.120241
0.841913 0.430992 0.126287
0.882673 0.437106 0.132401
0.923872 0.443286 0.138581
0.965499 0.449530 0.144825
1.000000 0.454705 0.150000
1.000000 0.454705 0.150000
0.058817 0.392115 0.058817
0.068678 0.392115 0.058817
0.083097 0.392115 0.058817
0.099948 0.392115 0.058817
0.118602 0.392115 0.058817
0.138722 0.392115 0.058817
0.160094 0.392115 0.058817
0.182566 0.392115 0.058817
0.206025 0.392115 0.058817
0.230382 0.392115 0.058817
0.255567 0.392115 0.058817
0.281519 0.392115 0.058817
0.308190 0.392115 0.058817
0.335537 0.392115 0.058817
0.363522 0.392115 0.058817
0.392115 0.392115 0.058817
0.426433 0.397262 0.063965
0.461400 0.402507 0.069210
0.496991 0.407846 0.074549
0.533180 0.413274 0.079977
0.569945 0.418789 0.085492
0.607267 0.424387 0.091090
0.645125 0.430066 0.096769
0.683503 0.435823 0.102525
0.722385 0.441655 0.108358
0.761757 0.447561 0.114264
0.801604 0.453538 0.120241
0.841913 0.459584 0.126287
0.882673 0.465698 0.132401
0.923872 0.471878 0.138581
0.965499 0.478122 0.144825
1.000000 0.483297 0.150000
1.000000 0.483297 0.150000
0.063965 0.426433 0.063965
0.073826 0.426433 0.063965
0.088245 0.426433 0.063965
0.105096 0.426433 0.063965
0.123750 0.426433 0.063965
0.143870 0.426433 0.063965
0.165242 0.426433 0.063965
0.187714 0.426433 0.063965
0.211172 0.426433 0.063965
0.235530 0.426433 0.063965
0.260714 0.426433 0.063965
0.286667 0.426433 0.063965
0.313338 0.426433 0.063965
0.340684 0.426433 0.063965
0.368670 0.426433 0.063965
0.397262 0.426433 0.063965
0.426433 0.426433 0.063965
0.461400 0.431678 0.069210
0.496991 0.437016 0.074549
0.533180 0.442445 0.079977
0.569945 0.447959 0.085492
0.607267 0.453558 0.091090
0.645125 0.459236 0.096769
0.683503 0.464993 0.102525
0.722385 0.470825 0.108358
0.761757 0.476731 0.114264
0.801604 0.482708 0.120241
0.841913 0.488755 0.126287
0.882673 0.494869 0.132401
0.923872 0.501048 0.138581
0.965499 0.507293 0.144825
1.000000 0.512468 0.150000
1.000000 0.512468 0.150000
0.069210 0.461400 0.069210
0.079071 0.461400 0.069210
0.093490 0.461400 0.069210
0.110341 0.461400 0.069210
0.128995 0.461400 0.069210
0.149115 0.461400 0.069210
0.170487 0.461400 0.069210
0.192959 0.461400 0.069210
0.216418 0.461400 0.069210
0.240775 0.461400 0.069210
0.265959 0.461400 0.069210
0.291912 0.461400 0.069210
0.318583 0.461400 0.069210
0.345929 0.461400 0.069210
0.373915 0.461400 0.069210
0.402507 0.461400 0.069210
0.431678 0.461400 0.069210
0.461400 0.461400 0.069210
0.496991 0.466739 0.074549
0.533180 0.472167 0.079977
0.569945 0.477682 0.085492
0.607267 0.483280 0.091090
0.645125 0.488959 0.096769
0.683503 0.494716 0.102525
0.722385 0.500548 0.108358
0.761757 0.506454 0.114264
0.801604 0.512431 0.120241
0.841913 0.518477 0.126287
0.882673 0.524591 0.132401
0.923872 0.530771 0.138581
0.965499 0.537015 0.144825
1.000000 0.542190 0.150000
1.000000 0.542190 0.150000
0.074549 0.496991 0.074549
0.084409 0.496991 0.074549
0.098829 0.496991 0.074549
0.115680 0.496991 0.074549
0.134334 0.496991 0.074549
0.154454 0.496991 0.074549
0.175825 0.496991 0.074549
0.198297 0.496991 0.074549
0.221756 0.496991 0.074549
0.246114 0.496991 0.074549
0.271298 0.496991 0.074549
0.297250 0.496991 0.074549
0.323921 0.496991 0.074549
0.351268 0.496991 0.074549
0.379254 0.496991 0.074549
0.407846 0.496991 0.074549
0.437016 0.496991 0.074549
0.466739 0.496991 0.074549
0.496991 0.496991 0.074549
0.533180 0.502419 0.079977
0.569945 0.507934 0.085492
0.607267 0.513532 0.091090
0.645125 0.519211 0.096769
0.683503 0.524968 0.102525
0.722385 0.530800 0.108358
0.761757 0.536706 0.114264
0.801604 0.542683 0.120241
0.841913 0.548729 0.126287
0.882673 0.554843 0.132401
0.923872 0.561023 0.138581
0.965499 0.567267 0.144825
1.000000 0.572442 0.150000
1.000000 0.572442 0.150000
0.079977 0.533180 0.079977
0.089838 0.533180 0.079977
0.104257 0.533180 0.079977
0.121108 0.533180 0.079977
0.139762 0.533180 0.079977
0.159882 0.533180 0.079977
0.181254 0.533180 0.079977
0.203726 0.533180 0.079977
0.227185 0.533180 0.079977
0.251542 0.533180 0.079977
0.276726 0.533180 0.079977
0.302679 0.533180 0.079977
0.329350 0.533180 0.079977
0.356696 0.533180 0.079977
0.384682 0.533180 0.079977
0.413274 0.533180 0.079977
0.442445 0.533180 0.079977
0.472167 0.533180 0.079977
0.502419 0.533180 0.079977
0.533180 0.533180 0.079977
0.569945 0.538695 0.085492
0.607267 0.544293 0.091090
0.645125 0.549972 0.096769
0.683503 0.555729 0.102525
0.722385 0.561561 0.108358
0.761757 0.567467 0.114264
0.801604 0.573444 0.120241
0.841913 0.579490 0.126287
0.882673 0.585604 0.132401
0.923872 0.591784 0.138581
0.965499 0.598028 0.144825
1.000000 0.603203 0.150000
1.000000 0.603203 0.150000
0.085492 0.569945 0.085492
0.095353 0.569945 0.085492
0.109772 0.569945 0.085492
0.126623 0.569945 0.085492
0.145277 0.569945 0.085492
0.165397 0.569945 0.085492
0.186769 0.569945 0.085492
0.209241 0.569945 0.085492
0.232699 0.569945 0.085492
0.257057 0.569945 0.085492
0.282241 0.569945 0.085492
0.308194 0.569945 0.085492
0.334865 0.569945 0.085492
0.362211 0.569945 0.085492
0.390197 0.569945 0.085492
0.418789 0.569945 0.085492
0.447959 0.569945 0.085492
0.477682 0.569945 0.085492
0.507934 0.569945 0.085492
0.538695 0.569945 0.085492
0.569945 0.569945 0.085492
0.607267 0.575544 0.091090
0.645125 0.581222 0.096769
0.683503 0.586979 0.102525
0.722385 0.592811 0.108358
0.761757 0.598717 0.114264
0.801604 0.604694 0.120241
0.841913 0.610741 0.126287
0.882673 0.616855 0.132401
0.923872 0.623034 0.138581
0.965499 0.629279 0.144825
1.000000 0.634454 0.150000
1.000000 0.634454 0.150000
0.091090 0.607267 0.091090
0.100951 0.607267 0.091090
0.115370 0.607267 0.091090
0.132221 0.607267 0.091090
0.150875 0.607267 0.091090
0.170995 0.607267 0.091090
0.192367 0.607267 0.091090
0.214839 0.607267 0.091090
0.238298 0.607267 0.091090
0.262655 0.607267 0.091090
0.287839 0.607267 0.091090
0.313792 0.607267 0.091090
0.340463 0.607267 0.091090
0.367809 0.607267 0.091090
0.395795 0.607267 0.091090
0.424387 0.607267 0.091090
0.453558 0.607267 0.091090
0.483280 0.607267 0.091090
0.513532 0.607267 0.091090
0.544293 0.607267 0.091090
0.575544 0.607267 0.091090
0.607267 0.607267 0.091090
0.645125 0.612945 0.096769
0.683503 0.618702 0.102525
0.722385 0.624534 0.108358
0.761757 0.630440 0.114264
0.801604 0.636417 0.120241
0.841913 0.642464 0.126287
0.882673 0.648578 0.132401
0.923872 0.654757 0.138581
0.965499 0.661002 0.144825
1.000000 0.666177 0.150000
1.000000 0.666177 0.150000
0.096769 0.645125 0.096769
0.106630 0.645125 0.096769
0.121049 0.645125 0.096769
0.137900 0.645125 0.096769
0.156554 0.645125 0.096769
0.176674 0.645125 0.096769
0.198046 0.645125 0.096769
0.220517 0.645125 0.096769
0.243976 0.645125 0.096769
0.268334 0.645125 0.096769
0.293518 0.645125 0.096769
0.319471 0.645125 0.096769
0.346141 0.645125 0.096769
0.373488 0.645125 0.096769
0.401474 0.645125 0.096769
0.430066 0.645125 0.096769
0.459236 0.645125 0.096769
0.488959 0.645125 0.096769
0.519211 0.645125 0.096769
0.549972 0.645125 0.096769
0.581222 0.645125 0.096769
0.612945 0.645125 0.096769
0.645125 0.645125 0.096769
0.683503 0.650882 0.102525
0.722385 0.656714 0.108358
0.761757 0.662620 0.114264
0.801604 0.668597 0.120241
0.841913 0.674643 0.126287
0.882673 0.680757 0.132401
0.923872 0.686937 0.138581
0.965499 0.693181 0.144825
1.000000 0.698356 0.150000
1.000000 0.698356 0.150000
0.102525 0.683503 0.102525
0.112386 0.683503 0.102525
0.126806 0.683503 0.102525
0.143657 0.683503 0.102525
0.162310 0.683503 0.102525
0.182431 0.683503 0.102525
0.203802 0.683503 0.102525
0.226274 0.683503 0.102525
0.249733 0.683503 0.102525
0.274090 0.683503 0.102525
0.299275 0.683503 0.102525
0.325227 0.683503 0.102525
0.351898 0.683503 0.102525
0.379245 0.683503 0.102525
0.407231 0.683503 0.102525
0.435823 0.683503 0.102525
0.464993 0.683503 0.102525
0.494716 0.683503 0.102525
0.524968 0.683503 0.102525
0.555729 0.683503 0.102525
0.586979 0.683503 0.102525
0.618702 0.683503 0.102525
0.650882 0.683503 0.102525
0.683503 0.683503 0.102525
0.722385 0.689335 0.108358
0.761757 0.695241 0.114264
0.801604 0.701218 0.120241
0.841913 0.707265 0.126287
0.882673 0.713379 0.132401
0.923872 0.719558 0.138581
0.965499 0.725803 0.144825
1.000000 0.730978 0.150000
1.000000 0.730978 0.150000
0.108358 0.722385 0.108358
0.118219 0.722385 0.108358
0.132638 0.722385 0.108358
0.149489 0.722385 0.108358
0.168143 0.722385 0.108358
0.188263 0.722385 0.108358
0.209635 0.722385 0.108358
0.232107 0.722385 0.108358
0.255565 0.722385 0.108358
0.279923 0.722385 0.108358
0.305107 0.722385 0.108358
0.331060 0.722385 0.108358
0.357730 0.722385 0.108358
0.385077 0.722385 0.108358
0.413063 0.722385 0.108358
0.441655 0.722385 0.108358
0.470825 0.722385 0.108358
0.500548 0.722385 0.108358
0.530800 0.722385 0.108358
0.561561 0.722385 0.108358
0.592811 0.722385 0.108358
0.624534 0.722385 0.108358
0.656714 0.722385 0.108358
0.689335 0.722385 0.108358
0.722385 0.722385 0.108358
0.761757 0.728291 0.114264
0.801604 0.734268 0.120241
0.841913 0.740315 0.126287
0.882673 0.746428 0.132401
0.923872 0.752608 0.138581
0.965499 0.758852 0.144825
1.000000 0.764028 0.150000
1.000000 0.764028 0.150000
0.114264 0.761757 0.114264
0.124124 0.761757 0.114264
0.138544 0.761757 0.114264
0.155395 0.761757 0.114264
0.174048 0.761757 0.114264
0.194169 0.761757 0.114264
0.215540 0.761757 0.114264
0.238012 0.761757 0.114264
0.261471 0.761757 0.114264
0.285828 0.761757 0.114264
0.311013 0.761757 0.114264
0.336965 0.761757 0.114264
0.363636 0.761757 0.114264
0.390983 0.761757 0.114264
0.418969 0.761757 0.114264
0.447561 0.761757 0.114264
0.476731 0.761757 0.114264
0.506454 0.761757 0.114264
0.536706 0.761757 0.114264
0.567467 0.761757 0.114264
0.598717 0.761757 0.114264
0.630440 0.761757 0.114264
0.662620 0.761757 0.114264
0.695241 0.761757 0.114264
0.728291 0.761757 0.114264
0.761757 0.761757 0.114264
0.801604 0.767734 0.120241
0.841913 0.773780 0.126287
0.882673 0.779894 0.132401
0.923872 0.786074 0.138581
0.965499 0.792318 0.144825
1.000000 0.797493 0.150000
1.000000 0.797493 0.150000
0.120241 0.801604 0.120241
0.130101 0.801604 0.120241
0.144521 0.801604 0.120241
0.161372 0.801604 0.120241
0.180025 0.801604 0.120241
0.200146 0.801604 0.120241
0.221517 0.801604 0.120241
0.243989 0.801604 0.120241
0.267448 0.801604 0.120241
0.291805 0.801604 0.120241
0.316990 0.801604 0.120241
0.342942 0.801604 0.120241
0.369613 0.801604 0.120241
0.396960 0.801604 0.120241
0.424946 0.801604 0.120241
0.453538 0.801604 0.120241
0.482708 0.801604 0.120241
0.512431 0.801604 0.120241
0.542683 0.801604 0.120241
0.573444 0.801604 0.120241
0.604694 0.801604 0.120241
0.636417 0.801604 0.120241
0.668597 0.801604 0.120241
0.701218 0.801604 0.120241
0.734268 0.801604 0.120241
0.767734 0.801604 0.120241
0.801604 0.801604 0.120241
0.841913 0.807650 0.126287
