app/src/main/assets/luts/shadow.cube
TITLE "Shadow"
LUT_3D_SIZE 5
DOMAIN_MIN 0.0 0.0 0.0
DOMAIN_MAX 1.0 1.0 1.0
0.000000 0.000000 0.000000
0.173185 0.025978 0.025978
0.426433 0.063965 0.063965
0.722385 0.108358 0.108358
1.000000 0.150000 0.150000
0.025978 0.173185 0.025978
0.173185 0.173185 0.025978
0.426433 0.211172 0.063965
0.722385 0.255565 0.108358
1.000000 0.297208 0.150000
0.063965 0.426433 0.063965
0.211172 0.426433 0.063965
0.426433 0.426433 0.063965
0.722385 0.470825 0.108358
1.000000 0.512468 0.150000
0.108358 0.722385 0.108358
0.255565 0.722385 0.108358
0.470825 0.722385 0.108358
0.722385 0.722385 0.108358
1.000000 0.764028 0.150000
0.150000 1.000000 0.150000
0.297208 1.000000 0.150000
0.512468 1.000000 0.150000
0.764028 1.000000 0.150000
1.000000 1.000000 0.150000
0.025978 0.025978 0.173185
0.173185 0.025978 0.173185
0.426433 0.063965 0.211172
0.722385 0.108358 0.255565
1.000000 0.150000 0.297208
0.025978 0.173185 0.173185
0.173185 0.173185 0.173185
0.426433 0.211172 0.211172
0.722385 0.255565 0.255565
1.000000 0.297208 0.297208
0.063965 0.426433 0.211172
0.211172 0.426433 0.211172
0.426433 0.426433 0.211172
0.722385 0.470825 0.255565
1.000000 0.512468 0.297208
0.108358 0.722385 0.255565
0.255565 0.722385 0.255565
0.470825 0.722385 0.255565
0.722385 0.722385 0.255565
1.000000 0.764028 0.297208
0.150000 1.000000 0.297208
0.297208 1.000000 0.297208
0.512468 1.000000 0.297208
0.764028 1.000000 0.297208
1.000000 1.000000 0.297208
0.063965 0.063965 0.426433
0.211172 0.063965 0.426433
0.426433 0.063965 0.426433
0.722385 0.108358 0.470825
1.000000 0.150000 0.512468
0.063965 0.211172 0.426433
0.211172 0.211172 0.426433
0.426433 0.211172 0.426433
0.722385 0.255565 0.470825
1.000000 0.297208 0.512468
0.063965 0.426433 0.426433
0.211172 0.426433 0.426433
0.426433 0.426433 0.426433
0.722385 0.470825 0.470825
1.000000 0.512468 0.512468
0.108358 0.722385 0.470825
0.255565 0.722385 0.470825
0.470825 0.722385 0.470825
0.722385 0.722385 0.470825
1.000000 0.764028 0.512468
0.150000 1.000000 0.512468
0.297208 1.000000 0.512468
0.512468 1.000000 0.512468
0.764028 1.000000 0.512468
1.000000 1.000000 0.512468
0.108358 0.108358 0.722385
0.255565 0.108358 0.722385
0.470825 0.108358 0.722385
0.722385 0.108358 0.722385
1.000000 0.150000 0.764028
0.108358 0.255565 0.722385
0.255565 0.255565 0.722385
0.470825 0.255565 0.722385
0.722385 0.255565 0.722385
1.000000 0.297208 0.764028
0.108358 0.470825 0.722385
0.255565 0.470825 0.722385
0.470825 0.470825 0.722385
0.722385 0.470825 0.722385
1.000000 0.512468 0.764028
0.108358 0.722385 0.722385
0.255565 0.722385 0.722385
0.470825 0.722385 0.722385
0.722385 0.722385 0.722385
1.000000 0.764028 0.764028
0.150000 1.000000 0.764028
0.297208 1.000000 0.764028
0.512468 1.000000 0.764028
0.764028 1.000000 0.764028
1.000000 1.000000 0.764028
0.150000 0.150000 1.000000
0.297208 0.150000 1.000000
0.512468 0.150000 1.000000
0.764028 0.150000 1.000000
1.000000 0.150000 1.000000
0.150000 0.297208 1.000000
0.297208 0.297208 1.000000
0.512468 0.297208 1.000000
0.764028 0.297208 1.000000
1.000000 0.297208 1.000000
0.150000 0.512468 1.000000
0.297208 0.512468 1.000000
0.512468 0.512468 1.000000
0.764028 0.512468 1.000000
1.000000 0.512468 1.000000
0.150000 0.764028 1.000000
0.297208 0.764028 1.000000
0.512468 0.764028 1.000000
0.764028 0.764028 1.000000
1.000000 0.764028 1.000000
0.150000 1.000000 1.000000
0.297208 1.000000 1.000000
0.512468 1.000000 1.000000
0.764028 1.000000 1.000000
1.000000 1.000000 1.000000
