app/src/main/assets/luts/shadow.cube
TITLE "Shadow"
LUT_3D_SIZE 9
DOMAIN_MIN 0.0 0.0 0.0
DOMAIN_MAX 1.0 1.0 1.0
0.000000 0.000000 0.000000
0.070335 0.010550 0.010550
0.173185 0.025978 0.025978
0.293380 0.044007 0.044007
0.426433 0.063965 0.063965
0.569945 0.085492 0.085492
0.722385 0.108358 0.108358
0.882673 0.132401 0.132401
1.000000 0.150000 0.150000
0.010550 0.070335 0.010550
0.070335 0.070335 0.010550
0.173185 0.085763 0.025978
0.293380 0.103792 0.044007
0.426433 0.123750 0.063965
0.569945 0.145277 0.085492
0.722385 0.168143 0.108358
0.882673 0.192186 0.132401
1.000000 0.209785 0.150000
0.025978 0.173185 0.025978
0.085763 0.173185 0.025978
0.173185 0.173185 0.025978
0.293380 0.191215 0.044007
0.426433 0.211172 0.063965
0.569945 0.232699 0.085492
0.722385 0.255565 0.108358
0.882673 0.279609 0.132401
1.000000 0.297208 0.150000
0.044007 0.293380 0.044007
0.103792 0.293380 0.044007
0.191215 0.293380 0.044007
0.293380 0.293380 0.044007
0.426433 0.313338 0.063965
0.569945 0.334865 0.085492
0.722385 0.357730 0.108358
0.882673 0.381774 0.132401
1.000000 0.399373 0.150000
0.063965 0.426433 0.063965
0.123750 0.426433 0.063965
0.211172 0.426433 0.063965
0.313338 0.426433 0.063965
0.426433 0.426433 0.063965
0.569945 0.447959 0.085492
0.722385 0.470825 0.108358
0.882673 0.494869 0.132401
1.000000 0.512468 0.150000
0.085492 0.569945 0.085492
0.145277 0.569945 0.085492
0.232699 0.569945 0.085492
0.334865 0.569945 0.085492
0.447959 0.569945 0.085492
0.569945 0.569945 0.085492
0.722385 0.592811 0.108358
0.882673 0.616855 0.132401
1.000000 0.634454 0.150000
0.108358 0.722385 0.108358
0.168143 0.722385 0.108358
0.255565 0.722385 0.108358
0.357730 0.722385 0.108358
0.470825 0.722385 0.108358
0.592811 0.722385 0.108358
0.722385 0.722385 0.108358
0.882673 0.746428 0.132401
1.000000 0.764028 0.150000
0.132401 0.882673 0.132401
0.192186 0.882673 0.132401
0.279609 0.882673 0.132401
0.381774 0.882673 0.132401
0.494869 0.882673 0.132401
0.616855 0.882673 0.132401
0.746428 0.882673 0.132401
0.882673 0.882673 0.132401
1.000000 0.900272 0.150000
0.150000 1.000000 0.150000
0.209785 1.000000 0.150000
0.297208 1.000000 0.150000
0.399373 1.000000 0.150000
0.512468 1.000000 0.150000
0.634454 1.000000 0.150000
0.764028 1.000000 0.150000
0.900272 1.000000 0.150000
1.000000 1.000000 0.150000
0.010550 0.010550 0.070335
0.070335 0.010550 0.070335
0.173185 0.025978 0.085763
0.293380 0.044007 0.103792
0.426433 0.063965 0.123750
0.569945 0.085492 0.145277
0.722385 0.108358 0.168143
0.882673 0.132401 0.192186
1.000000 0.150000 0.209785
0.010550 0.070335 0.070335
0.070335 0.070335 0.070335
0.173185 0.085763 0.085763
0.293380 0.103792 0.103792
0.426433 0.123750 0.123750
0.569945 0.145277 0.145277
0.722385 0.168143 0.168143
0.882673 0.192186 0.192186
1.000000 0.209785 0.209785
0.025978 0.173185 0.085763
0.085763 0.173185 0.085763
0.173185 0.173185 0.085763
0.293380 0.191215 0.103792
0.426433 0.211172 0.123750
0.569945 0.232699 0.145277
0.722385 0.255565 0.168143
0.882673 0.279609 0.192186
1.000000 0.297208 0.209785
0.044007 0.293380 0.103792
0.103792 0.293380 0.103792
0.191215 0.293380 0.103792
0.293380 0.293380 0.103792
0.426433 0.313338 0.123750
0.569945 0.334865 0.145277
0.722385 0.357730 0.168143
0.882673 0.381774 0.192186
1.000000 0.399373 0.209785
0.063965 0.426433 0.123750
0.123750 0.426433 0.123750
0.211172 0.426433 0.123750
0.313338 0.426433 0.123750
0.426433 0.426433 0.123750
0.569945 0.447959 0.145277
0.722385 0.470825 0.168143
0.882673 0.494869 0.192186
1.000000 0.512468 0.209785
0.085492 0.569945 0.145277
0.145277 0.569945 0.145277
0.232699 0.569945 0.145277
0.334865 0.569945 0.145277
0.447959 0.569945 0.145277
0.569945 0.569945 0.145277
0.722385 0.592811 0.168143
0.882673 0.616855 0.192186
1.000000 0.634454 0.209785
0.108358 0.722385 0.168143
0.168143 0.722385 0.168143
0.255565 0.722385 0.168143
0.357730 0.722385 0.168143
0.470825 0.722385 0.168143
0.592811 0.722385 0.168143
0.722385 0.722385 0.168143
0.882673 0.746428 0.192186
1.000000 0.764028 0.209785
0.132401 0.882673 0.192186
0.192186 0.882673 0.192186
0.279609 0.882673 0.192186
0.381774 0.882673 0.192186
0.494869 0.882673 0.192186
0.616855 0.882673 0.192186
0.746428 0.882673 0.192186
0.882673 0.882673 0.192186
1.000000 0.900272 0.209785
0.150000 1.000000 0.209785
0.209785 1.000000 0.209785
0.297208 1.000000 0.209785
0.399373 1.000000 0.209785
0.512468 1.000000 0.209785
0.634454 1.000000 0.209785
0.764028 1.000000 0.209785
0.900272 1.000000 0.209785
1.000000 1.000000 0.209785
0.025978 0.025978 0.173185
0.085763 0.025978 0.173185
0.173185 0.025978 0.173185
0.293380 0.044007 0.191215
0.426433 0.063965 0.211172
0.569945 0.085492 0.232699
0.722385 0.108358 0.255565
0.882673 0.132401 0.279609
1.000000 0.150000 0.297208
0.025978 0.085763 0.173185
0.085763 0.085763 0.173185
0.173185 0.085763 0.173185
0.293380 0.103792 0.191215
0.426433 0.123750 0.211172
0.569945 0.145277 0.232699
0.722385 0.168143 0.255565
0.882673 0.192186 0.279609
1.000000 0.209785 0.297208
0.025978 0.173185 0.173185
0.085763 0.173185 0.173185
0.173185 0.173185 0.173185
0.293380 0.191215 0.191215
0.426433 0.211172 0.211172
0.569945 0.232699 0.232699
0.722385 0.255565 0.255565
0.882673 0.279609 0.279609
1.000000 0.297208 0.297208
0.044007 0.293380 0.191215
0.103792 0.293380 0.191215
0.191215 0.293380 0.191215
0.293380 0.293380 0.191215
0.426433 0.313338 0.211172
0.569945 0.334865 0.232699
0.722385 0.357730 0.255565
0.882673 0.381774 0.279609
1.000000 0.399373 0.297208
0.063965 0.426433 0.211172
0.123750 0.426433 0.211172
0.211172 0.426433 0.211172
0.313338 0.426433 0.211172
0.426433 0.426433 0.211172
0.569945 0.447959 0.232699
0.722385 0.470825 0.255565
0.882673 0.494869 0.279609
1.000000 0.512468 0.297208
0.085492 0.569945 0.232699
0.145277 0.569945 0.232699
0.232699 0.569945 0.232699
0.334865 0.569945 0.232699
0.447959 0.569945 0.232699
0.569945 0.569945 0.232699
0.722385 0.592811 0.255565
0.882673 0.616855 0.279609
1.000000 0.634454 0.297208
0.108358 0.722385 0.255565
0.168143 0.722385 0.255565
0.255565 0.722385 0.255565
0.357730 0.722385 0.255565
0.470825 0.722385 0.255565
0.592811 0.722385 0.255565
0.722385 0.722385 0.255565
0.882673 0.746428 0.279609
1.000000 0.764028 0.297208
0.132401 0.882673 0.279609
0.192186 0.882673 0.279609
0.279609 0.882673 0.279609
0.381774 0.882673 0.279609
0.494869 0.882673 0.279609
0.616855 0.882673 0.279609
0.746428 0.882673 0.279609
0.882673 0.882673 0.279609
1.000000 0.900272 0.297208
0.150000 1.000000 0.297208
0.209785 1.000000 0.297208
0.297208 1.000000 0.297208
0.399373 1.000000 0.297208
0.512468 1.000000 0.297208
0.634454 1.000000 0.297208
0.764028 1.000000 0.297208
0.900272 1.000000 0.297208
1.000000 1.000000 0.297208
0.044007 0.044007 0.293380
0.103792 0.044007 0.293380
0.191215 0.044007 0.293380
0.293380 0.044007 0.293380
0.426433 0.063965 0.313338
0.569945 0.085492 0.334865
0.722385 0.108358 0.357730
0.882673 0.132401 0.381774
1.000000 0.150000 0.399373
0.044007 0.103792 0.293380
0.103792 0.103792 0.293380
0.191215 0.103792 0.293380
0.293380 0.103792 0.293380
0.426433 0.123750 0.313338
0.569945 0.145277 0.334865
0.722385 0.168143 0.357730
0.882673 0.192186 0.381774
1.000000 0.209785 0.399373
0.044007 0.191215 0.293380
0.103792 0.191215 0.293380
0.191215 0.191215 0.293380
0.293380 0.191215 0.293380
0.426433 0.211172 0.313338
0.569945 0.232699 0.334865
0.722385 0.255565 0.357730
0.882673 0.279609 0.381774
1.000000 0.297208 0.399373
0.044007 0.293380 0.293380
0.103792 0.293380 0.293380
0.191215 0.293380 0.293380
0.293380 0.293380 0.293380
0.426433 0.313338 0.313338
0.569945 0.334865 0.334865
0.722385 0.357730 0.357730
0.882673 0.381774 0.381774
1.000000 0.399373 0.399373
0.063965 0.426433 0.313338
0.123750 0.426433 0.313338
0.211172 0.426433 0.313338
0.313338 0.426433 0.313338
0.426433 0.426433 0.313338
0.569945 0.447959 0.334865
0.722385 0.470825 0.357730
0.882673 0.494869 0.381774
1.000000 0.512468 0.399373
0.085492 0.569945 0.334865
0.145277 0.569945 0.334865
0.232699 0.569945 0.334865
0.334865 0.569945 0.334865
0.447959 0.569945 0.334865
0.569945 0.569945 0.334865
0.722385 0.592811 0.357730
0.882673 0.616855 0.381774
1.000000 0.634454 0.399373
0.108358 0.722385 0.357730
0.168143 0.722385 0.357730
0.255565 0.722385 0.357730
0.357730 0.722385 0.357730
0.470825 0.722385 0.357730
0.592811 0.722385 0.357730
0.722385 0.722385 0.357730
0.882673 0.746428 0.381774
1.000000 0.764028 0.399373
0.132401 0.882673 0.381774
0.192186 0.882673 0.381774
0.279609 0.882673 0.381774
0.381774 0.882673 0.381774
0.494869 0.882673 0.381774
0.616855 0.882673 0.381774
0.746428 0.882673 0.381774
0.882673 0.882673 0.381774
1.000000 0.900272 0.399373
0.150000 1.000000 0.399373
0.209785 1.000000 0.399373
0.297208 1.000000 0.399373
0.399373 1.000000 0.399373
0.512468 1.000000 0.399373
0.634454 1.000000 0.399373
0.764028 1.000000 0.399373
0.900272 1.000000 0.399373
1.000000 1.000000 0.399373
0.063965 0.063965 0.426433
0.123750 0.063965 0.426433
0.211172 0.063965 0.426433
0.313338 0.063965 0.426433
0.426433 0.063965 0.426433
0.569945 0.085492 0.447959
0.722385 0.108358 0.470825
0.882673 0.132401 0.494869
1.000000 0.150000 0.512468
0.063965 0.123750 0.426433
0.123750 0.123750 0.426433
0.211172 0.123750 0.426433
0.313338 0.123750 0.426433
0.426433 0.123750 0.426433
0.569945 0.145277 0.447959
0.722385 0.168143 0.470825
0.882673 0.192186 0.494869
1.000000 0.209785 0.512468
0.063965 0.211172 0.426433
0.123750 0.211172 0.426433
0.211172 0.211172 0.426433
0.313338 0.211172 0.426433
0.426433 0.211172 0.426433
0.569945 0.232699 0.447959
0.722385 0.255565 0.470825
0.882673 0.279609 0.494869
1.000000 0.297208 0.512468
0.063965 0.313338 0.426433
0.123750 0.313338 0.426433
0.211172 0.313338 0.426433
0.313338 0.313338 0.426433
0.426433 0.313338 0.426433
0.569945 0.334865 0.447959
0.722385 0.357730 0.470825
0.882673 0.381774 0.494869
1.000000 0.399373 0.512468
0.063965 0.426433 0.426433
0.123750 0.426433 0.426433
0.211172 0.426433 0.426433
0.313338 0.426433 0.426433
0.426433 0.426433 0.426433
0.569945 0.447959 0.447959
0.722385 0.470825 0.470825
0.882673 0.494869 0.494869
1.000000 0.512468 0.512468
0.085492 0.569945 0.447959
0.145277 0.569945 0.447959
0.232699 0.569945 0.447959
0.334865 0.569945 0.447959
0.447959 0.569945 0.447959
0.569945 0.569945 0.447959
0.722385 0.592811 0.470825
0.882673 0.616855 0.494869
1.000000 0.634454 0.512468
0.108358 0.722385 0.470825
0.168143 0.722385 0.470825
0.255565 0.722385 0.470825
0.357730 0.722385 0.470825
0.470825 0.722385 0.470825
0.592811 0.722385 0.470825
0.722385 0.722385 0.470825
0.882673 0.746428 0.494869
1.000000 0.764028 0.512468
0.132401 0.882673 0.494869
0.192186 0.882673 0.494869
0.279609 0.882673 0.494869
0.381774 0.882673 0.494869
0.494869 0.882673 0.494869
0.616855 0.882673 0.494869
0.746428 0.882673 0.494869
0.882673 0.882673 0.494869
1.000000 0.900272 0.512468
0.150000 1.000000 0.512468
0.209785 1.000000 0.512468
0.297208 1.000000 0.512468
0.399373 1.000000 0.512468
0.512468 1.000000 0.512468
0.634454 1.000000 0.512468
0.764028 1.000000 0.512468
0.900272 1.000000 0.512468
1.000000 1.000000 0.512468
0.085492 0.085492 0.569945
0.145277 0.085492 0.569945
0.232699 0.085492 0.569945
0.334865 0.085492 0.569945
0.447959 0.085492 0.569945
0.569945 0.085492 0.569945
0.722385 0.108358 0.592811
0.882673 0.132401 0.616855
1.000000 0.150000 0.634454
0.085492 0.145277 0.569945
0.145277 0.145277 0.569945
0.232699 0.145277 0.569945
0.334865 0.145277 0.569945
0.447959 0.145277 0.569945
0.569945 0.145277 0.569945
0.722385 0.168143 0.592811
0.882673 0.192186 0.616855
1.000000 0.209785 0.634454
0.085492 0.232699 0.569945
0.145277 0.232699 0.569945
0.232699 0.232699 0.569945
0.334865 0.232699 0.569945
0.447959 0.232699 0.569945
0.569945 0.232699 0.569945
0.722385 0.255565 0.592811
0.882673 0.279609 0.616855
1.000000 0.297208 0.634454
0.085492 0.334865 0.569945
0.145277 0.334865 0.569945
0.232699 0.334865 0.569945
0.334865 0.334865 0.569945
0.447959 0.334865 0.569945
0.569945 0.334865 0.569945
0.722385 0.357730 0.592811
0.882673 0.381774 0.616855
1.000000 0.399373 0.634454
0.085492 0.447959 0.569945
0.145277 0.447959 0.569945
0.232699 0.447959 0.569945
0.334865 0.447959 0.569945
0.447959 0.447959 0.569945
0.569945 0.447959 0.569945
0.722385 0.470825 0.592811
0.882673 0.494869 0.616855
1.000000 0.512468 0.634454
0.085492 0.569945 0.569945
0.145277 0.569945 0.569945
0.232699 0.569945 0.569945
0.334865 0.569945 0.569945
0.447959 0.569945 0.569945
0.569945 0.569945 0.569945
0.722385 0.592811 0.592811
0.882673 0.616855 0.616855
1.000000 0.634454 0.634454
0.108358 0.722385 0.592811
0.168143 0.722385 0.592811
0.255565 0.722385 0.592811
0.357730 0.722385 0.592811
0.470825 0.722385 0.592811
0.592811 0.722385 0.592811
0.722385 0.722385 0.592811
0.882673 0.746428 0.616855
1.000000 0.764028 0.634454
0.132401 0.882673 0.616855
0.192186 0.882673 0.616855
0.279609 0.882673 0.616855
0.381774 0.882673 0.616855
0.494869 0.882673 0.616855
0.616855 0.882673 0.616855
0.746428 0.882673 0.616855
0.882673 0.882673 0.616855
1.000000 0.900272 0.634454
0.150000 1.000000 0.634454
0.209785 1.000000 0.634454
0.297208 1.000000 0.634454
0.399373 1.000000 0.634454
0.512468 1.000000 0.634454
0.634454 1.000000 0.634454
0.764028 1.000000 0.634454
0.900272 1.000000 0.634454
1.000000 1.000000 0.634454
0.108358 0.108358 0.722385
0.168143 0.108358 0.722385
0.255565 0.108358 0.722385
0.357730 0.108358 0.722385
0.470825 0.108358 0.722385
0.592811 0.108358 0.722385
0.722385 0.108358 0.722385
0.882673 0.132401 0.746428
1.000000 0.150000 0.764028
0.108358 0.168143 0.722385
0.168143 0.168143 0.722385
0.255565 0.168143 0.722385
0.357730 0.168143 0.722385
0.470825 0.168143 0.722385
0.592811 0.168143 0.722385
0.722385 0.168143 0.722385
0.882673 0.192186 0.746428
1.000000 0.209785 0.764028
0.108358 0.255565 0.722385
0.168143 0.255565 0.722385
0.255565 0.255565 0.722385
0.357730 0.255565 0.722385
0.470825 0.255565 0.722385
0.592811 0.255565 0.722385
0.722385 0.255565 0.722385
0.882673 0.279609 0.746428
1.000000 0.297208 0.764028
0.108358 0.357730 0.722385
0.168143 0.357730 0.722385
0.255565 0.357730 0.722385
0.357730 0.357730 0.722385
0.470825 0.357730 0.722385
0.592811 0.357730 0.722385
0.722385 0.357730 0.722385
0.882673 0.381774 0.746428
1.000000 0.399373 0.764028
0.108358 0.470825 0.722385
0.168143 0.470825 0.722385
0.255565 0.470825 0.722385
0.357730 0.470825 0.722385
0.470825 0.470825 0.722385
0.592811 0.470825 0.722385
0.722385 0.470825 0.722385
0.882673 0.494869 0.746428
1.000000 0.512468 0.764028
0.108358 0.592811 0.722385
0.168143 0.592811 0.722385
0.255565 0.592811 0.722385
0.357730 0.592811 0.722385
0.470825 0.592811 0.722385
0.592811 0.592811 0.722385
0.722385 0.592811 0.722385
0.882673 0.616855 0.746428
1.000000 0.634454 0.764028
0.108358 0.722385 0.722385
0.168143 0.722385 0.722385
0.255565 0.722385 0.722385
0.357730 0.722385 0.722385
0.470825 0.722385 0.722385
0.592811 0.722385 0.722385
0.722385 0.722385 0.722385
0.882673 0.746428 0.746428
1.000000 0.764028 0.764028
0.132401 0.882673 0.746428
0.192186 0.882673 0.746428
0.279609 0.882673 0.746428
0.381774 0.882673 0.746428
0.494869 0.882673 0.746428
0.616855 0.882673 0.746428
0.746428 0.882673 0.746428
0.882673 0.882673 0.746428
1.000000 0.900272 0.764028
0.150000 1.000000 0.764028
0.209785 1.000000 0.764028
0.297208 1.000000 0.764028
0.399373 1.000000 0.764028
0.512468 1.000000 0.764028
0.634454 1.000000 0.764028
0.764028 1.000000 0.764028
0.900272 1.000000 0.764028
1.000000 1.000000 0.764028
0.132401 0.132401 0.882673
0.192186 0.132401 0.882673
0.279609 0.132401 0.882673
0.381774 0.132401 0.882673
0.494869 0.132401 0.882673
0.616855 0.132401 0.882673
0.746428 0.132401 0.882673
0.882673 0.132401 0.882673
1.000000 0.150000 0.900272
0.132401 0.192186 0.882673
0.192186 0.192186 0.882673
0.279609 0.192186 0.882673
0.381774 0.192186 0.882673
0.494869 0.192186 0.882673
0.616855 0.192186 0.882673
0.746428 0.192186 0.882673
0.882673 0.192186 0.882673
1.000000 0.209785 0.900272
0.132401 0.279609 0.882673
0.192186 0.279609 0.882673
0.279609 0.279609 0.882673
0.381774 0.279609 0.882673
0.494869 0.279609 0.882673
0.616855 0.279609 0.882673
0.746428 0.279609 0.882673
0.882673 0.279609 0.882673
1.000000 0.297208 0.900272
0.132401 0.381774 0.882673
0.192186 0.381774 0.882673
0.279609 0.381774 0.882673
0.381774 0.381774 0.882673
0.494869 0.381774 0.882673
0.616855 0.381774 0.882673
0.746428 0.381774 0.882673
0.882673 0.381774 0.882673
1.000000 0.399373 0.900272
0.132401 0.494869 0.882673
0.192186 0.494869 0.882673
0.279609 0.494869 0.882673
0.381774 0.494869 0.882673
0.494869 0.494869 0.882673
0.616855 0.494869 0.882673
0.746428 0.494869 0.882673
0.882673 0.494869 0.882673
1.000000 0.512468 0.900272
0.132401 0.616855 0.882673
0.192186 0.616855 0.882673
0.279609 0.616855 0.882673
0.381774 0.616855 0.882673
0.494869 0.616855 0.882673
0.616855 0.616855 0.882673
0.746428 0.616855 0.882673
0.882673 0.616855 0.882673
1.000000 0.634454 0.900272
0.132401 0.746428 0.882673
0.192186 0.746428 0.882673
0.279609 0.746428 0.882673
0.381774 0.746428 0.882673
0.494869 0.746428 0.882673
0.616855 0.746428 0.882673
0.746428 0.746428 0.882673
0.882673 0.746428 0.882673
1.000000 0.764028 0.900272
0.132401 0.882673 0.882673
0.192186 0.882673 0.882673
0.279609 0.882673 0.882673
0.381774 0.882673 0.882673
0.494869 0.882673 0.882673
0.616855 0.882673 0.882673
0.746428 0.882673 0.882673
0.882673 0.882673 0.882673
1.000000 0.900272 0.900272
0.150000 1.000000 0.900272
0.209785 1.000000 0.900272
0.297208 1.000000 0.900272
0.399373 1.000000 0.900272
0.512468 1.000000 0.900272
0.634454 1.000000 0.900272
0.764028 1.000000 0.900272
0.900272 1.000000 0.900272
1.000000 1.000000 0.900272
0.150000 0.150000 1.000000
0.209785 0.150000 1.000000
0.297208 0.150000 1.000000
0.399373 0.150000 1.000000
0.512468 0.150000 1.000000
0.634454 0.150000 1.000000
0.764028 0.150000 1.000000
0.900272 0.150000 1.000000
1.000000 0.150000 1.000000
0.150000 0.209785 1.000000
0.209785 0.209785 1.000000
0.297208 0.209785 1.000000
0.399373 0.209785 1.000000
0.512468 0.209785 1.000000
0.634454 0.209785 1.000000
0.764028 0.209785 1.000000
0.900272 0.209785 1.000000
1.000000 0.209785 1.000000
0.150000 0.297208 1.000000
0.209785 0.297208 1.000000
0.297208 0.297208 1.000000
0.399373 0.297208 1.000000
0.512468 0.297208 1.000000
0.634454 0.297208 1.000000
0.764028 0.297208 1.000000
0.900272 0.297208 1.000000
1.000000 0.297208 1.000000
0.150000 0.399373 1.000000
0.209785 0.399373 1.000000
0.297208 0.399373 1.000000
0.399373 0.399373 1.000000
0.512468 0.399373 1.000000
0.634454 0.399373 1.000000
0.764028 0.399373 1.000000
0.900272 0.399373 1.000000
1.000000 0.399373 1.000000
0.150000 0.512468 1.000000
0.209785 0.512468 1.000000
0.297208 0.512468 1.000000
0.399373 0.512468 1.000000
0.512468 0.512468 1.000000
0.634454 0.512468 1.000000
0.764028 0.512468 1.000000
0.900272 0.512468 1.000000
1.000000 0.512468 1.000000
0.150000 0.634454 1.000000
0.209785 0.634454 1.000000
0.297208 0.634454 1.000000
0.399373 0.634454 1.000000
0.512468 0.634454 1.000000
0.634454 0.634454 1.000000
0.764028 0.634454 1.000000
0.900272 0.634454 1.000000
1.000000 0.634454 1.000000
0.150000 0.764028 1.000000
0.209785 0.764028 1.000000
0.297208 0.764028 1.000000
0.399373 0.764028 1.000000
0.512468 0.764028 1.000000
0.634454 0.764028 1.000000
0.764028 0.764028 1.000000
0.900272 0.764028 1.000000
1.000000 0.764028 1.000000
0.150000 0.900272 1.000000
0.209785 0.900272 1.000000
0.297208 0.900272 1.000000
0.399373 0.900272 1.000000
0.512468 0.900272 1.000000
0.634454 0.900272 1.000000
0.764028 0.900272 1.000000
0.900272 0.900272 1.000000
1.000000 0.900272 1.000000
0.150000 1.000000 1.000000
0.209785 1.000000 1.000000
0.297208 1.000000 1.000000
0.399373 1.000000 1.000000
0.512468 1.000000 1.000000
0.634454 1.000000 1.000000
0.764028 1.000000 1.000000
0.900272 1.000000 1.000000
1.000000 1.000000 1.000000
