app/src/main/assets/luts/summer_pop.cube
TITLE "Summer Pop"
LUT_3D_SIZE 9
DOMAIN_MIN 0.0 0.0 0.0
DOMAIN_MAX 1.0 1.0 1.0
0.020000 0.000000 0.020000
0.179434 0.000000 0.020000
0.321668 0.000000 0.020000
0.458059 0.000000 0.020000
0.590790 0.000000 0.020000
0.720863 0.000000 0.020000
0.848858 0.000000 0.020000
0.975149 0.000000 0.020000
1.000000 0.000000 0.020000
0.001809 0.141276 0.001809
0.179434 0.136489 0.000000
0.321668 0.129316 0.000000
0.458059 0.126812 0.000000
0.590790 0.125525 0.000000
0.720863 0.124736 0.000000
0.848858 0.124202 0.000000
0.975149 0.123815 0.000000
1.000000 0.123751 0.000000
0.000000 0.274825 0.000000
0.171947 0.274825 0.000000
0.321668 0.271719 0.000000
0.458059 0.266459 0.000000
0.590790 0.263754 0.000000
0.720863 0.262096 0.000000
0.848858 0.260974 0.000000
0.975149 0.260161 0.000000
1.000000 0.260025 0.000000
0.000000 0.405605 0.000000
0.167703 0.405605 0.000000
0.317314 0.405605 0.000000
0.458059 0.403210 0.000000
0.590790 0.399116 0.000000
0.720863 0.396609 0.000000
0.848858 0.394910 0.000000
0.975149 0.393679 0.000000
1.000000 0.393475 0.000000
0.000000 0.534619 0.000000
0.165630 0.534619 0.000000
0.313391 0.534619 0.000000
0.455083 0.534619 0.000000
0.590790 0.532651 0.000000
0.720863 0.529304 0.000000
0.848858 0.527037 0.000000
0.975149 0.525395 0.000000
1.000000 0.525122 0.000000
0.000000 0.662336 0.000000
0.164398 0.662336 0.000000
0.311060 0.662336 0.000000
0.451698 0.662336 0.000000
0.588562 0.662336 0.000000
0.720863 0.660666 0.000000
0.848858 0.657835 0.000000
0.975149 0.655786 0.000000
1.000000 0.655445 0.000000
0.000000 0.789028 0.000000
0.163580 0.789028 0.000000
0.309513 0.789028 0.000000
0.449451 0.789028 0.000000
0.585634 0.789028 0.000000
0.719091 0.789028 0.000000
0.848858 0.787584 0.000000
0.975149 0.785130 0.000000
1.000000 0.784722 0.000000
0.000000 0.914874 0.000000
0.162997 0.914874 0.000000
0.308410 0.914874 0.000000
0.447849 0.914874 0.000000
0.583547 0.914874 0.000000
0.716527 0.914874 0.000000
0.847383 0.914874 0.000000
0.975149 0.913611 0.000000
1.000000 0.913136 0.000000
0.000000 1.000000 0.000000
0.162688 1.000000 0.000000
0.307824 1.000000 0.000000
0.446999 1.000000 0.000000
0.582439 1.000000 0.000000
0.715167 1.000000 0.000000
0.845773 1.000000 0.000000
0.974642 1.000000 0.000000
1.000000 1.000000 0.000000
0.020000 0.000000 0.166709
0.179434 0.000000 0.166709
0.321668 0.000000 0.166709
0.458059 0.000000 0.166709
0.590790 0.000000 0.166709
0.720863 0.000000 0.166709
0.848858 0.000000 0.166709
0.975149 0.000000 0.166709
1.000000 0.000000 0.166709
0.000000 0.137808 0.166709
0.179434 0.135552 0.164800
0.321668 0.114217 0.143465
0.458059 0.093758 0.123007
0.590790 0.073848 0.103097
0.720863 0.054337 0.083586
0.848858 0.035138 0.064387
0.975149 0.016194 0.045443
1.000000 0.012467 0.041716
0.000000 0.274825 0.158224
0.165125 0.274825 0.150492
0.321668 0.267798 0.143465
0.458059 0.247340 0.123007
0.590790 0.227430 0.103097
0.720863 0.207919 0.083586
0.848858 0.188720 0.064387
0.975149 0.169776 0.045443
1.000000 0.166048 0.041716
0.000000 0.405605 0.154319
0.145508 0.405605 0.130875
0.309077 0.405605 0.130875
0.458059 0.397737 0.123007
0.590790 0.377827 0.103097
0.720863 0.358316 0.083586
0.848858 0.339117 0.064387
0.975149 0.320173 0.045443
1.000000 0.316446 0.041716
0.000000 0.534619 0.152411
0.126156 0.534619 0.111523
0.289725 0.534619 0.111523
0.446575 0.534619 0.111523
0.590790 0.526194 0.103097
0.720863 0.506683 0.083586
0.848858 0.487483 0.064387
0.975149 0.468540 0.045443
1.000000 0.464812 0.041716
0.000000 0.662336 0.151277
0.106999 0.662336 0.092365
0.270567 0.662336 0.092365
0.427417 0.662336 0.092365
0.580058 0.662336 0.092365
0.720863 0.653557 0.083586
0.848858 0.634357 0.064387
0.975149 0.615414 0.045443
1.000000 0.611686 0.041716
0.000000 0.789028 0.150525
0.087995 0.789028 0.073361
0.251564 0.789028 0.073361
0.408414 0.789028 0.073361
0.561054 0.789028 0.073361
0.710639 0.789028 0.073361
0.848858 0.780053 0.064387
0.975149 0.761109 0.045443
1.000000 0.757382 0.041716
0.000000 0.914874 0.149988
0.069118 0.914874 0.054485
0.232687 0.914874 0.054485
0.389537 0.914874 0.054485
0.542177 0.914874 0.054485
0.691762 0.914874 0.054485
0.838956 0.914874 0.054485
0.975149 0.905832 0.045443
1.000000 0.902105 0.041716
0.000000 1.000000 0.149703
0.056349 1.000000 0.041716
0.219918 1.000000 0.041716
0.376768 1.000000 0.041716
0.529408 1.000000 0.041716
0.678993 1.000000 0.041716
0.826187 1.000000 0.041716
0.971421 1.000000 0.041716
1.000000 1.000000 0.041716
0.020000 0.000000 0.305395
0.179434 0.000000 0.305395
0.321668 0.000000 0.305395
0.458059 0.000000 0.305395
0.590790 0.000000 0.305395
0.720863 0.000000 0.305395
0.848858 0.000000 0.305395
0.975149 0.000000 0.305395
1.000000 0.000000 0.305395
0.000000 0.129774 0.305395
0.160540 0.116658 0.305395
0.321668 0.114217 0.302954
0.458059 0.093758 0.282495
0.590790 0.073848 0.262586
0.720863 0.054337 0.243075
0.848858 0.035138 0.223875
0.975149 0.016194 0.204932
1.000000 0.012467 0.201204
0.000000 0.272682 0.305395
0.135348 0.264125 0.305395
0.321668 0.267798 0.302954
0.458059 0.247340 0.282495
0.590790 0.227430 0.262586
0.720863 0.207919 0.243075
0.848858 0.188720 0.223875
0.975149 0.169776 0.204932
1.000000 0.166048 0.201204
0.000000 0.405605 0.300197
0.145508 0.405605 0.290363
0.309077 0.405605 0.290363
0.458059 0.397737 0.282495
0.590790 0.377827 0.262586
0.720863 0.358316 0.243075
0.848858 0.339117 0.223875
0.975149 0.320173 0.204932
1.000000 0.316446 0.201204
0.000000 0.534619 0.296486
0.126156 0.534619 0.271011
0.289725 0.534619 0.271011
0.446575 0.534619 0.271011
0.590790 0.526194 0.262586
0.720863 0.506683 0.243075
0.848858 0.487483 0.223875
0.975149 0.468540 0.204932
1.000000 0.464812 0.201204
0.000000 0.662336 0.294281
0.106999 0.662336 0.251854
0.270567 0.662336 0.251854
0.427417 0.662336 0.251854
0.580058 0.662336 0.251854
0.720863 0.653557 0.243075
0.848858 0.634357 0.223875
0.975149 0.615414 0.204932
1.000000 0.611686 0.201204
0.000000 0.789028 0.292817
0.087995 0.789028 0.232850
0.251564 0.789028 0.232850
0.408414 0.789028 0.232850
0.561054 0.789028 0.232850
0.710639 0.789028 0.232850
0.848858 0.780053 0.223875
0.975149 0.761109 0.204932
1.000000 0.757382 0.201204
0.000000 0.914874 0.291773
0.069118 0.914874 0.213973
0.232687 0.914874 0.213973
0.389537 0.914874 0.213973
0.542177 0.914874 0.213973
0.691762 0.914874 0.213973
0.838956 0.914874 0.213973
0.975149 0.905832 0.204932
1.000000 0.902105 0.201204
0.000000 1.000000 0.291219
0.056349 1.000000 0.201204
0.219918 1.000000 0.201204
0.376768 1.000000 0.201204
0.529408 1.000000 0.201204
0.678993 1.000000 0.201204
0.826187 1.000000 0.201204
0.971421 1.000000 0.201204
1.000000 1.000000 0.201204
0.020000 0.000000 0.441205
0.179434 0.000000 0.441205
0.321668 0.000000 0.441205
0.458059 0.000000 0.441205
0.590790 0.000000 0.441205
0.720863 0.000000 0.441205
0.848858 0.000000 0.441205
0.975149 0.000000 0.441205
1.000000 0.000000 0.441205
0.000000 0.127034 0.441205
0.140168 0.096286 0.441205
0.303737 0.096286 0.441205
0.458059 0.093758 0.438677
0.590790 0.073848 0.418768
0.720863 0.054337 0.399257
0.848858 0.035138 0.380057
0.975149 0.016194 0.361114
1.000000 0.012467 0.357386
0.000000 0.266924 0.441205
0.140168 0.249868 0.441205
0.303737 0.249868 0.441205
0.458059 0.247340 0.438677
0.590790 0.227430 0.418768
0.720863 0.207919 0.399257
0.848858 0.188720 0.380057
0.975149 0.169776 0.361114
1.000000 0.166048 0.357386
0.000000 0.403915 0.441205
0.087814 0.393145 0.441205
0.279829 0.393145 0.441205
0.458059 0.397737 0.438677
0.590790 0.377827 0.418768
0.720863 0.358316 0.399257
0.848858 0.339117 0.380057
0.975149 0.320173 0.361114
1.000000 0.316446 0.357386
0.000000 0.534619 0.437575
0.055119 0.534619 0.408510
0.289725 0.534619 0.427193
0.446575 0.534619 0.427193
0.590790 0.526194 0.418768
0.720863 0.506683 0.399257
0.848858 0.487483 0.380057
0.975149 0.468540 0.361114
1.000000 0.464812 0.357386
0.000000 0.662336 0.434320
0.106999 0.662336 0.408036
0.270567 0.662336 0.408036
0.427417 0.662336 0.408036
0.580058 0.662336 0.408036
0.720863 0.653557 0.399257
0.848858 0.634357 0.380057
0.975149 0.615414 0.361114
1.000000 0.611686 0.357386
0.000000 0.789028 0.432159
0.087995 0.789028 0.389032
0.251564 0.789028 0.389032
0.408414 0.789028 0.389032
0.561054 0.789028 0.389032
0.710639 0.789028 0.389032
0.848858 0.780053 0.380057
0.975149 0.761109 0.361114
1.000000 0.757382 0.357386
0.000000 0.914874 0.430619
0.069118 0.914874 0.370155
0.232687 0.914874 0.370155
0.389537 0.914874 0.370155
0.542177 0.914874 0.370155
0.691762 0.914874 0.370155
0.838956 0.914874 0.370155
0.975149 0.905832 0.361114
1.000000 0.902105 0.357386
0.000000 1.000000 0.429801
0.056349 1.000000 0.357386
0.219918 1.000000 0.357386
0.376768 1.000000 0.357386
0.529408 1.000000 0.357386
0.678993 1.000000 0.357386
0.826187 1.000000 0.357386
0.971421 1.000000 0.357386
1.000000 1.000000 0.357386
0.020000 0.000000 0.575181
0.179434 0.000000 0.575181
0.321668 0.000000 0.575181
0.458059 0.000000 0.575181
0.590790 0.000000 0.575181
0.720863 0.000000 0.575181
0.848858 0.000000 0.575181
0.975149 0.000000 0.575181
1.000000 0.000000 0.575181
0.000000 0.125644 0.575181
0.120072 0.076190 0.575181
0.283640 0.076190 0.575181
0.440491 0.076190 0.575181
0.590790 0.073848 0.572840
0.720863 0.054337 0.553329
0.848858 0.035138 0.534130
0.975149 0.016194 0.515186
1.000000 0.012467 0.511459
0.000000 0.264005 0.575181
0.120072 0.229771 0.575181
0.283640 0.229771 0.575181
0.440491 0.229771 0.575181
0.590790 0.227430 0.572840
0.720863 0.207919 0.553329
0.848858 0.188720 0.534130
0.975149 0.169776 0.515186
1.000000 0.166048 0.511459
0.000000 0.399496 0.575181
0.040922 0.346253 0.575181
0.283640 0.380169 0.575181
0.440491 0.380169 0.575181
0.590790 0.377827 0.572840
0.720863 0.358316 0.553329
0.848858 0.339117 0.534130
0.975149 0.320173 0.515186
1.000000 0.316446 0.511459
0.000000 0.533158 0.575181
0.040922 0.520422 0.575181
0.232938 0.520422 0.575181
0.417066 0.520422 0.575181
0.590790 0.526194 0.572840
0.720863 0.506683 0.553329
0.848858 0.487483 0.534130
0.975149 0.468540 0.515186
1.000000 0.464812 0.511459
0.000000 0.662336 0.572468
0.010418 0.662336 0.544677
0.202434 0.662336 0.544677
0.427417 0.662336 0.562108
0.580058 0.662336 0.562108
0.720863 0.653557 0.553329
0.848858 0.634357 0.534130
0.975149 0.615414 0.515186
1.000000 0.611686 0.511459
0.000000 0.789028 0.569620
0.087995 0.789028 0.543105
0.251564 0.789028 0.543105
0.408414 0.789028 0.543105
0.561054 0.789028 0.543105
0.710639 0.789028 0.543105
0.848858 0.780053 0.534130
0.975149 0.761109 0.515186
1.000000 0.757382 0.511459
0.000000 0.914874 0.567590
0.069118 0.914874 0.524228
0.232687 0.914874 0.524228
0.389537 0.914874 0.524228
0.542177 0.914874 0.524228
0.691762 0.914874 0.524228
0.838956 0.914874 0.524228
0.975149 0.905832 0.515186
1.000000 0.902105 0.511459
0.000000 1.000000 0.566512
0.056349 1.000000 0.511459
0.219918 1.000000 0.511459
0.376768 1.000000 0.511459
0.529408 1.000000 0.511459
0.678993 1.000000 0.511459
0.826187 1.000000 0.511459
0.971421 1.000000 0.511459
1.000000 1.000000 0.511459
0.020000 0.000000 0.707810
0.179434 0.000000 0.707810
0.321668 0.000000 0.707810
0.458059 0.000000 0.707810
0.590790 0.000000 0.707810
0.720863 0.000000 0.707810
0.848858 0.000000 0.707810
0.975149 0.000000 0.707810
1.000000 0.000000 0.707810
0.000000 0.124802 0.707810
0.100178 0.056295 0.707810
0.263746 0.056295 0.707810
0.420596 0.056295 0.707810
0.573237 0.056295 0.707810
0.720863 0.054337 0.705852
0.848858 0.035138 0.686653
0.975149 0.016194 0.667709
1.000000 0.012467 0.663982
0.000000 0.262234 0.707810
0.100178 0.209877 0.707810
0.263746 0.209877 0.707810
0.420596 0.209877 0.707810
0.573237 0.209877 0.707810
0.720863 0.207919 0.705852
0.848858 0.188720 0.686653
0.975149 0.169776 0.667709
1.000000 0.166048 0.663982
0.000000 0.396818 0.707810
0.100178 0.360274 0.707810
0.263746 0.360274 0.707810
0.420596 0.360274 0.707810
0.573237 0.360274 0.707810
0.720863 0.358316 0.705852
0.848858 0.339117 0.686653
0.975149 0.320173 0.667709
1.000000 0.316446 0.663982
0.000000 0.529583 0.707810
0.000000 0.475804 0.707810
0.186518 0.474002 0.707810
0.420596 0.508641 0.707810
0.573237 0.508641 0.707810
0.720863 0.506683 0.705852
0.848858 0.487483 0.686653
0.975149 0.468540 0.667709
1.000000 0.464812 0.663982
0.000000 0.661013 0.707810
0.000000 0.646893 0.707810
0.186518 0.646420 0.707810
0.370646 0.646420 0.707810
0.549833 0.646420 0.707810
0.720863 0.653557 0.705852
0.848858 0.634357 0.686653
0.975149 0.615414 0.667709
1.000000 0.611686 0.663982
0.000000 0.789028 0.705698
0.000000 0.789028 0.683904
0.158092 0.789028 0.679384
0.342220 0.789028 0.679384
0.561054 0.789028 0.695628
0.710639 0.789028 0.695628
0.848858 0.780053 0.686653
0.975149 0.761109 0.667709
1.000000 0.757382 0.663982
0.000000 0.914874 0.703182
0.000000 0.914874 0.657290
0.232687 0.914874 0.676751
0.389537 0.914874 0.676751
0.542177 0.914874 0.676751
0.691762 0.914874 0.676751
0.838956 0.914874 0.676751
0.975149 0.905832 0.667709
1.000000 0.902105 0.663982
0.000000 1.000000 0.701847
0.056349 1.000000 0.663982
0.219918 1.000000 0.663982
0.376768 1.000000 0.663982
0.529408 1.000000 0.663982
0.678993 1.000000 0.663982
0.826187 1.000000 0.663982
0.971421 1.000000 0.663982
1.000000 1.000000 0.663982
0.020000 0.000000 0.839375
0.179434 0.000000 0.839375
0.321668 0.000000 0.839375
0.458059 0.000000 0.839375
0.590790 0.000000 0.839375
0.720863 0.000000 0.839375
0.848858 0.000000 0.839375
0.975149 0.000000 0.839375
1.000000 0.000000 0.839375
0.000000 0.124236 0.839375
0.080443 0.036561 0.839375
0.244011 0.036561 0.839375
0.400862 0.036561 0.839375
0.553502 0.036561 0.839375
0.703087 0.036561 0.839375
0.848858 0.035138 0.837952
0.975149 0.016194 0.819009
1.000000 0.012467 0.815281
0.000000 0.261045 0.839375
0.080443 0.190142 0.839375
0.244011 0.190142 0.839375
0.400862 0.190142 0.839375
0.553502 0.190142 0.839375
0.703087 0.190142 0.839375
0.848858 0.188720 0.837952
0.975149 0.169776 0.819009
1.000000 0.166048 0.815281
0.000000 0.395017 0.839375
0.080443 0.340540 0.839375
0.244011 0.340540 0.839375
0.400862 0.340540 0.839375
0.553502 0.340540 0.839375
0.703087 0.340540 0.839375
0.848858 0.339117 0.837952
0.975149 0.320173 0.819009
1.000000 0.316446 0.815281
0.000000 0.527180 0.839375
0.000000 0.451758 0.839375
0.244011 0.488906 0.839375
0.400862 0.488906 0.839375
0.553502 0.488906 0.839375
0.703087 0.488906 0.839375
0.848858 0.487483 0.837952
0.975149 0.468540 0.819009
1.000000 0.464812 0.815281
0.000000 0.658014 0.839375
0.000000 0.614200 0.839375
0.140470 0.600372 0.839375
0.324598 0.600372 0.839375
0.553502 0.635780 0.839375
0.703087 0.635780 0.839375
0.848858 0.634357 0.837952
0.975149 0.615414 0.819009
1.000000 0.611686 0.815281
0.000000 0.787799 0.839375
0.000000 0.775338 0.839375
0.140470 0.771406 0.839375
0.324598 0.771406 0.839375
0.503785 0.771406 0.839375
0.679384 0.771406 0.839375
0.848858 0.780053 0.837952
0.975149 0.761109 0.819009
1.000000 0.757382 0.815281
0.000000 0.914874 0.837687
0.000000 0.914874 0.820954
0.114045 0.914874 0.812950
0.298174 0.914874 0.812950
0.477360 0.914874 0.812950
0.691762 0.914874 0.828050
0.838956 0.914874 0.828050
0.975149 0.905832 0.819009
1.000000 0.902105 0.815281
0.000000 1.000000 0.836097
0.000000 1.000000 0.804251
0.084251 1.000000 0.783156
0.268380 1.000000 0.783156
0.529408 1.000000 0.815281
0.678993 1.000000 0.815281
0.826187 1.000000 0.815281
0.971421 1.000000 0.815281
1.000000 1.000000 0.815281
0.020000 0.000000 0.970061
0.179434 0.000000 0.970061
0.321668 0.000000 0.970061
0.458059 0.000000 0.970061
0.590790 0.000000 0.970061
0.720863 0.000000 0.970061
0.848858 0.000000 0.970061
0.975149 0.000000 0.970061
1.000000 0.000000 0.970061
0.000000 0.123829 0.970061
0.060840 0.016958 0.970061
0.224409 0.016958 0.970061
0.381259 0.016958 0.970061
0.533899 0.016958 0.970061
0.683484 0.016958 0.970061
0.830678 0.016958 0.970061
0.975149 0.016194 0.969298
1.000000 0.012467 0.965570
0.000000 0.260189 0.970061
0.060840 0.170539 0.970061
0.224409 0.170539 0.970061
0.381259 0.170539 0.970061
0.533899 0.170539 0.970061
0.683484 0.170539 0.970061
0.830678 0.170539 0.970061
0.975149 0.169776 0.969298
1.000000 0.166048 0.965570
0.000000 0.393723 0.970061
0.060840 0.320937 0.970061
0.224409 0.320937 0.970061
0.381259 0.320937 0.970061
0.533899 0.320937 0.970061
0.683484 0.320937 0.970061
0.830678 0.320937 0.970061
0.975149 0.320173 0.969298
1.000000 0.316446 0.965570
0.000000 0.525453 0.970061
0.060840 0.469303 0.970061
0.224409 0.469303 0.970061
0.381259 0.469303 0.970061
0.533899 0.469303 0.970061
0.683484 0.469303 0.970061
0.830678 0.469303 0.970061
0.975149 0.468540 0.969298
1.000000 0.464812 0.965570
0.000000 0.655858 0.970061
0.000000 0.592497 0.970061
0.094730 0.554632 0.970061
0.381259 0.616177 0.970061
0.533899 0.616177 0.970061
0.683484 0.616177 0.970061
0.830678 0.616177 0.970061
0.975149 0.615414 0.969298
1.000000 0.611686 0.965570
0.000000 0.785217 0.970061
0.000000 0.747942 0.970061
0.094730 0.725666 0.970061
0.278858 0.725666 0.970061
0.458045 0.725666 0.970061
0.683484 0.761873 0.970061
0.830678 0.761873 0.970061
0.975149 0.761109 0.969298
1.000000 0.757382 0.965570
0.000000 0.913712 0.970061
0.000000 0.902349 0.970061
0.094730 0.895558 0.970061
0.278858 0.895558 0.970061
0.458045 0.895558 0.970061
0.633644 0.895558 0.970061
0.806437 0.895558 0.970061
0.975149 0.905832 0.969298
1.000000 0.902105 0.965570
0.000000 1.000000 0.969450
0.000000 1.000000 0.963514
0.084251 1.000000 0.959582
0.268380 1.000000 0.959582
0.447566 1.000000 0.959582
0.623166 1.000000 0.959582
0.795958 1.000000 0.959582
0.971421 1.000000 0.965570
1.000000 1.000000 0.965570
0.020000 0.000000 1.000000
0.179434 0.000000 1.000000
0.321668 0.000000 1.000000
0.458059 0.000000 1.000000
0.590790 0.000000 1.000000
0.720863 0.000000 1.000000
0.848858 0.000000 1.000000
0.975149 0.000000 1.000000
1.000000 0.000000 1.000000
0.000000 0.123751 1.000000
0.056349 0.012467 1.000000
0.219918 0.012467 1.000000
0.376768 0.012467 1.000000
0.529408 0.012467 1.000000
0.678993 0.012467 1.000000
0.826187 0.012467 1.000000
0.971421 0.012467 1.000000
1.000000 0.012467 1.000000
0.000000 0.260025 1.000000
0.056349 0.166048 1.000000
0.219918 0.166048 1.000000
0.376768 0.166048 1.000000
0.529408 0.166048 1.000000
0.678993 0.166048 1.000000
0.826187 0.166048 1.000000
0.971421 0.166048 1.000000
1.000000 0.166048 1.000000
0.000000 0.393475 1.000000
0.056349 0.316446 1.000000
0.219918 0.316446 1.000000
0.376768 0.316446 1.000000
0.529408 0.316446 1.000000
0.678993 0.316446 1.000000
0.826187 0.316446 1.000000
0.971421 0.316446 1.000000
1.000000 0.316446 1.000000
0.000000 0.525122 1.000000
0.056349 0.464812 1.000000
0.219918 0.464812 1.000000
0.376768 0.464812 1.000000
0.529408 0.464812 1.000000
0.678993 0.464812 1.000000
0.826187 0.464812 1.000000
0.971421 0.464812 1.000000
1.000000 0.464812 1.000000
0.000000 0.655445 1.000000
0.000000 0.588498 1.000000
0.084251 0.544153 1.000000
0.376768 0.611686 1.000000
0.529408 0.611686 1.000000
0.678993 0.611686 1.000000
0.826187 0.611686 1.000000
0.971421 0.611686 1.000000
1.000000 0.611686 1.000000
0.000000 0.784722 1.000000
0.000000 0.742894 1.000000
0.084251 0.715187 1.000000
0.268380 0.715187 1.000000
0.529408 0.757382 1.000000
0.678993 0.757382 1.000000
0.826187 0.757382 1.000000
0.971421 0.757382 1.000000
1.000000 0.757382 1.000000
0.000000 0.913136 1.000000
0.000000 0.896259 1.000000
0.084251 0.885079 1.000000
0.268380 0.885079 1.000000
0.447566 0.885079 1.000000
0.623166 0.885079 1.000000
0.826187 0.902105 1.000000
0.971421 0.902105 1.000000
1.000000 0.902105 1.000000
0.000000 1.000000 1.000000
0.000000 1.000000 1.000000
0.084251 1.000000 1.000000
0.268380 1.000000 1.000000
0.447566 1.000000 1.000000
0.623166 1.000000 1.000000
0.795958 1.000000 1.000000
0.966451 1.000000 1.000000
1.000000 1.000000 1.000000
