app/src/main/assets/luts/summer_pop.cube
TITLE "Summer Pop"
LUT_3D_SIZE 5
DOMAIN_MIN 0.0 0.0 0.0
DOMAIN_MAX 1.0 1.0 1.0
0.020000 0.000000 0.020000
0.321668 0.000000 0.020000
0.590790 0.000000 0.020000
0.848858 0.000000 0.020000
1.000000 0.000000 0.020000
0.000000 0.274825 0.000000
0.321668 0.271719 0.000000
0.590790 0.263754 0.000000
0.848858 0.260974 0.000000
1.000000 0.260025 0.000000
0.000000 0.534619 0.000000
0.313391 0.534619 0.000000
0.590790 0.532651 0.000000
0.848858 0.527037 0.000000
1.000000 0.525122 0.000000
0.000000 0.789028 0.000000
0.309513 0.789028 0.000000
0.585634 0.789028 0.000000
0.848858 0.787584 0.000000
1.000000 0.784722 0.000000
0.000000 1.000000 0.000000
0.307824 1.000000 0.000000
0.582439 1.000000 0.000000
0.845773 1.000000 0.000000
1.000000 1.000000 0.000000
0.020000 0.000000 0.305395
0.321668 0.000000 0.305395
0.590790 0.000000 0.305395
0.848858 0.000000 0.305395
1.000000 0.000000 0.305395
0.000000 0.272682 0.305395
0.321668 0.267798 0.302954
0.590790 0.227430 0.262586
0.848858 0.188720 0.223875
1.000000 0.166048 0.201204
0.000000 0.534619 0.296486
0.289725 0.534619 0.271011
0.590790 0.526194 0.262586
0.848858 0.487483 0.223875
1.000000 0.464812 0.201204
0.000000 0.789028 0.292817
0.251564 0.789028 0.232850
0.561054 0.789028 0.232850
0.848858 0.780053 0.223875
1.000000 0.757382 0.201204
0.000000 1.000000 0.291219
0.219918 1.000000 0.201204
0.529408 1.000000 0.201204
0.826187 1.000000 0.201204
1.000000 1.000000 0.201204
0.020000 0.000000 0.575181
0.321668 0.000000 0.575181
0.590790 0.000000 0.575181
0.848858 0.000000 0.575181
1.000000 0.000000 0.575181
0.000000 0.264005 0.575181
0.283640 0.229771 0.575181
0.590790 0.227430 0.572840
0.848858 0.188720 0.534130
1.000000 0.166048 0.511459
0.000000 0.533158 0.575181
0.232938 0.520422 0.575181
0.590790 0.526194 0.572840
0.848858 0.487483 0.534130
1.000000 0.464812 0.511459
0.000000 0.789028 0.569620
0.251564 0.789028 0.543105
0.561054 0.789028 0.543105
0.848858 0.780053 0.534130
1.000000 0.757382 0.511459
0.000000 1.000000 0.566512
0.219918 1.000000 0.511459
0.529408 1.000000 0.511459
0.826187 1.000000 0.511459
1.000000 1.000000 0.511459
0.020000 0.000000 0.839375
0.321668 0.000000 0.839375
0.590790 0.000000 0.839375
0.848858 0.000000 0.839375
1.000000 0.000000 0.839375
0.000000 0.261045 0.839375
0.244011 0.190142 0.839375
0.553502 0.190142 0.839375
0.848858 0.188720 0.837952
1.000000 0.166048 0.815281
0.000000 0.527180 0.839375
0.244011 0.488906 0.839375
0.553502 0.488906 0.839375
0.848858 0.487483 0.837952
1.000000 0.464812 0.815281
0.000000 0.787799 0.839375
0.140470 0.771406 0.839375
0.503785 0.771406 0.839375
0.848858 0.780053 0.837952
1.000000 0.757382 0.815281
0.000000 1.000000 0.836097
0.084251 1.000000 0.783156
0.529408 1.000000 0.815281
0.826187 1.000000 0.815281
1.000000 1.000000 0.815281
0.020000 0.000000 1.000000
0.321668 0.000000 1.000000
0.590790 0.000000 1.000000
0.848858 0.000000 1.000000
1.000000 0.000000 1.000000
0.000000 0.260025 1.000000
0.219918 0.166048 1.000000
0.529408 0.166048 1.000000
0.826187 0.166048 1.000000
1.000000 0.166048 1.000000
0.000000 0.525122 1.000000
0.219918 0.464812 1.000000
0.529408 0.464812 1.000000
0.826187 0.464812 1.000000
1.000000 0.464812 1.000000
0.000000 0.784722 1.000000
0.084251 0.715187 1.000000
0.529408 0.757382 1.000000
0.826187 0.757382 1.000000
1.000000 0.757382 1.000000
0.000000 1.000000 1.000000
0.084251 1.000000 1.000000
0.447566 1.000000 1.000000
0.795958 1.000000 1.000000
1.000000 1.000000 1.000000
