app/src/main/assets/luts/summer_pop.cube
TITLE "Summer Pop"
LUT_3D_SIZE 33
DOMAIN_MIN 0.0 0.0 0.0
DOMAIN_MAX 1.0 1.0 1.0
0.020000 0.000000 0.020000
0.064533 0.000000 0.020000
0.104262 0.000000 0.020000
0.142359 0.000000 0.020000
0.179434 0.000000 0.020000
0.215766 0.000000 0.020000
0.251518 0.000000 0.020000
0.286794 0.000000 0.020000
0.321668 0.000000 0.020000
0.356193 0.000000 0.020000
0.390413 0.000000 0.020000
0.424359 0.000000 0.020000
0.458059 0.000000 0.020000
0.491535 0.000000 0.020000
0.524805 0.000000 0.020000
0.557885 0.000000 0.020000
0.590790 0.000000 0.020000
0.623530 0.000000 0.020000
0.656116 0.000000 0.020000
0.688558 0.000000 0.020000
0.720863 0.000000 0.020000
0.753040 0.000000 0.020000
0.785094 0.000000 0.020000
0.817031 0.000000 0.020000
0.848858 0.000000 0.020000
0.880579 0.000000 0.020000
0.912198 0.000000 0.020000
0.943720 0.000000 0.020000
0.975149 0.000000 0.020000
1.000000 0.000000 0.020000
1.000000 0.000000 0.020000
1.000000 0.000000 0.020000
1.000000 0.000000 0.020000
0.017400 0.037333 0.017400
0.064533 0.033253 0.013320
0.104262 0.027293 0.007361
0.142359 0.021579 0.001646
0.179434 0.019507 0.000000
0.215766 0.019103 0.000000
0.251518 0.018830 0.000000
0.286794 0.018632 0.000000
0.321668 0.018482 0.000000
0.356193 0.018364 0.000000
0.390413 0.018269 0.000000
0.424359 0.018190 0.000000
0.458059 0.018124 0.000000
0.491535 0.018068 0.000000
0.524805 0.018019 0.000000
0.557885 0.017977 0.000000
0.590790 0.017940 0.000000
0.623530 0.017907 0.000000
0.656116 0.017878 0.000000
0.688558 0.017851 0.000000
0.720863 0.017827 0.000000
0.753040 0.017806 0.000000
0.785094 0.017786 0.000000
0.817031 0.017768 0.000000
0.848858 0.017751 0.000000
0.880579 0.017736 0.000000
0.912198 0.017721 0.000000
0.943720 0.017708 0.000000
0.975149 0.017696 0.000000
1.000000 0.017686 0.000000
1.000000 0.017686 0.000000
1.000000 0.017686 0.000000
1.000000 0.017686 0.000000
0.012106 0.072624 0.012106
0.063320 0.072624 0.012106
0.104262 0.067878 0.007361
0.142359 0.062163 0.001646
0.179434 0.059225 0.000000
0.215766 0.058000 0.000000
0.251518 0.057170 0.000000
0.286794 0.056569 0.000000
0.321668 0.056113 0.000000
0.356193 0.055754 0.000000
0.390413 0.055465 0.000000
0.424359 0.055226 0.000000
0.458059 0.055026 0.000000
0.491535 0.054856 0.000000
0.524805 0.054709 0.000000
0.557885 0.054580 0.000000
0.590790 0.054468 0.000000
0.623530 0.054368 0.000000
0.656116 0.054278 0.000000
0.688558 0.054198 0.000000
0.720863 0.054125 0.000000
0.753040 0.054059 0.000000
0.785094 0.053999 0.000000
0.817031 0.053944 0.000000
0.848858 0.053893 0.000000
0.880579 0.053847 0.000000
0.912198 0.053803 0.000000
0.943720 0.053763 0.000000
0.975149 0.053726 0.000000
1.000000 0.053698 0.000000
1.000000 0.053698 0.000000
1.000000 0.053698 0.000000
1.000000 0.053698 0.000000
0.006923 0.107183 0.006923
0.058136 0.107183 0.006923
0.103824 0.107183 0.006923
0.142359 0.101906 0.001646
0.179434 0.098120 0.000000
0.215766 0.096090 0.000000
0.251518 0.094714 0.000000
0.286794 0.093719 0.000000
0.321668 0.092963 0.000000
0.356193 0.092369 0.000000
0.390413 0.091890 0.000000
0.424359 0.091495 0.000000
0.458059 0.091163 0.000000
0.491535 0.090881 0.000000
0.524805 0.090637 0.000000
0.557885 0.090425 0.000000
0.590790 0.090238 0.000000
0.623530 0.090072 0.000000
0.656116 0.089924 0.000000
0.688558 0.089791 0.000000
0.720863 0.089671 0.000000
0.753040 0.089562 0.000000
0.785094 0.089462 0.000000
0.817031 0.089371 0.000000
0.848858 0.089287 0.000000
0.880579 0.089209 0.000000
0.912198 0.089137 0.000000
0.943720 0.089071 0.000000
0.975149 0.089009 0.000000
1.000000 0.088962 0.000000
1.000000 0.088962 0.000000
1.000000 0.088962 0.000000
1.000000 0.088962 0.000000
0.001809 0.141276 0.001809
0.053022 0.141276 0.001809
0.098710 0.141276 0.001809
0.142359 0.141113 0.001646
0.179434 0.136489 0.000000
0.215766 0.133665 0.000000
0.251518 0.131752 0.000000
0.286794 0.130367 0.000000
0.321668 0.129316 0.000000
0.356193 0.128490 0.000000
0.390413 0.127824 0.000000
0.424359 0.127274 0.000000
0.458059 0.126812 0.000000
0.491535 0.126419 0.000000
0.524805 0.126080 0.000000
0.557885 0.125785 0.000000
0.590790 0.125525 0.000000
0.623530 0.125294 0.000000
0.656116 0.125089 0.000000
0.688558 0.124904 0.000000
0.720863 0.124736 0.000000
0.753040 0.124584 0.000000
0.785094 0.124446 0.000000
0.817031 0.124319 0.000000
0.848858 0.124202 0.000000
0.880579 0.124094 0.000000
0.912198 0.123994 0.000000
0.943720 0.123901 0.000000
0.975149 0.123815 0.000000
1.000000 0.123751 0.000000
1.000000 0.123751 0.000000
1.000000 0.123751 0.000000
1.000000 0.123751 0.000000
0.000000 0.175025 0.000000
0.050279 0.175025 0.000000
0.095133 0.175025 0.000000
0.138145 0.175025 0.000000
0.179434 0.174472 0.000000
0.215766 0.170863 0.000000
0.251518 0.168417 0.000000
0.286794 0.166647 0.000000
0.321668 0.165303 0.000000
0.356193 0.164248 0.000000
0.390413 0.163396 0.000000
0.424359 0.162693 0.000000
0.458059 0.162103 0.000000
0.491535 0.161601 0.000000
0.524805 0.161167 0.000000
0.557885 0.160789 0.000000
0.590790 0.160457 0.000000
0.623530 0.160162 0.000000
0.656116 0.159899 0.000000
0.688558 0.159663 0.000000
0.720863 0.159449 0.000000
0.753040 0.159255 0.000000
0.785094 0.159078 0.000000
0.817031 0.158915 0.000000
0.848858 0.158766 0.000000
0.880579 0.158628 0.000000
0.912198 0.158500 0.000000
0.943720 0.158382 0.000000
0.975149 0.158271 0.000000
1.000000 0.158189 0.000000
1.000000 0.158189 0.000000
1.000000 0.158189 0.000000
1.000000 0.158189 0.000000
0.000000 0.208504 0.000000
0.049258 0.208504 0.000000
0.093202 0.208504 0.000000
0.135342 0.208504 0.000000
0.176350 0.208504 0.000000
0.215766 0.207762 0.000000
0.251518 0.204788 0.000000
0.286794 0.202635 0.000000
0.321668 0.201002 0.000000
0.356193 0.199718 0.000000
0.390413 0.198682 0.000000
0.424359 0.197828 0.000000
0.458059 0.197110 0.000000
0.491535 0.196499 0.000000
0.524805 0.195972 0.000000
0.557885 0.195513 0.000000
0.590790 0.195109 0.000000
0.623530 0.194751 0.000000
0.656116 0.194431 0.000000
0.688558 0.194143 0.000000
0.720863 0.193883 0.000000
0.753040 0.193647 0.000000
0.785094 0.193432 0.000000
0.817031 0.193234 0.000000
0.848858 0.193053 0.000000
0.880579 0.192885 0.000000
0.912198 0.192730 0.000000
0.943720 0.192585 0.000000
0.975149 0.192451 0.000000
1.000000 0.192351 0.000000
1.000000 0.192351 0.000000
1.000000 0.192351 0.000000
1.000000 0.192351 0.000000
0.000000 0.241759 0.000000
0.048550 0.241759 0.000000
0.091862 0.241759 0.000000
0.133395 0.241759 0.000000
0.173813 0.241759 0.000000
0.213422 0.241759 0.000000
0.251518 0.240916 0.000000
0.286794 0.238383 0.000000
0.321668 0.236462 0.000000
0.356193 0.234952 0.000000
0.390413 0.233733 0.000000
0.424359 0.232728 0.000000
0.458059 0.231884 0.000000
0.491535 0.231165 0.000000
0.524805 0.230545 0.000000
0.557885 0.230005 0.000000
0.590790 0.229530 0.000000
0.623530 0.229108 0.000000
0.656116 0.228732 0.000000
0.688558 0.228393 0.000000
0.720863 0.228088 0.000000
0.753040 0.227810 0.000000
0.785094 0.227556 0.000000
0.817031 0.227324 0.000000
0.848858 0.227110 0.000000
0.880579 0.226913 0.000000
0.912198 0.226731 0.000000
0.943720 0.226561 0.000000
0.975149 0.226403 0.000000
1.000000 0.226285 0.000000
1.000000 0.226285 0.000000
1.000000 0.226285 0.000000
1.000000 0.226285 0.000000
0.000000 0.274825 0.000000
0.048029 0.274825 0.000000
0.090876 0.274825 0.000000
0.131963 0.274825 0.000000
0.171947 0.274825 0.000000
0.211131 0.274825 0.000000
0.249689 0.274825 0.000000
0.286794 0.273927 0.000000
0.321668 0.271719 0.000000
0.356193 0.269984 0.000000
0.390413 0.268584 0.000000
0.424359 0.267429 0.000000
0.458059 0.266459 0.000000
0.491535 0.265633 0.000000
0.524805 0.264921 0.000000
0.557885 0.264300 0.000000
0.590790 0.263754 0.000000
0.623530 0.263269 0.000000
0.656116 0.262837 0.000000
0.688558 0.262448 0.000000
0.720863 0.262096 0.000000
0.753040 0.261777 0.000000
0.785094 0.261486 0.000000
0.817031 0.261219 0.000000
0.848858 0.260974 0.000000
0.880579 0.260747 0.000000
0.912198 0.260537 0.000000
0.943720 0.260342 0.000000
0.975149 0.260161 0.000000
1.000000 0.260025 0.000000
1.000000 0.260025 0.000000
1.000000 0.260025 0.000000
1.000000 0.260025 0.000000
0.000000 0.307725 0.000000
0.047629 0.307725 0.000000
0.090119 0.307725 0.000000
0.130865 0.307725 0.000000
0.170516 0.307725 0.000000
0.209374 0.307725 0.000000
0.247611 0.307725 0.000000
0.285339 0.307725 0.000000
0.321668 0.306800 0.000000
0.356193 0.304841 0.000000
0.390413 0.303260 0.000000
0.424359 0.301956 0.000000
0.458059 0.300861 0.000000
0.491535 0.299928 0.000000
0.524805 0.299124 0.000000
0.557885 0.298423 0.000000
0.590790 0.297806 0.000000
0.623530 0.297259 0.000000
0.656116 0.296771 0.000000
0.688558 0.296332 0.000000
0.720863 0.295935 0.000000
0.753040 0.295575 0.000000
0.785094 0.295246 0.000000
0.817031 0.294944 0.000000
0.848858 0.294667 0.000000
0.880579 0.294411 0.000000
0.912198 0.294174 0.000000
0.943720 0.293954 0.000000
0.975149 0.293749 0.000000
1.000000 0.293596 0.000000
1.000000 0.293596 0.000000
1.000000 0.293596 0.000000
1.000000 0.293596 0.000000
0.000000 0.340478 0.000000
0.047313 0.340478 0.000000
0.089521 0.340478 0.000000
0.129995 0.340478 0.000000
0.169384 0.340478 0.000000
0.207984 0.340478 0.000000
0.245966 0.340478 0.000000
0.283444 0.340478 0.000000
0.320494 0.340478 0.000000
0.356193 0.339543 0.000000
0.390413 0.337782 0.000000
0.424359 0.336329 0.000000
0.458059 0.335110 0.000000
0.491535 0.334071 0.000000
0.524805 0.333175 0.000000
0.557885 0.332394 0.000000
0.590790 0.331708 0.000000
0.623530 0.331098 0.000000
0.656116 0.330554 0.000000
0.688558 0.330065 0.000000
0.720863 0.329623 0.000000
0.753040 0.329222 0.000000
0.785094 0.328856 0.000000
0.817031 0.328520 0.000000
0.848858 0.328211 0.000000
0.880579 0.327926 0.000000
0.912198 0.327662 0.000000
0.943720 0.327417 0.000000
0.975149 0.327189 0.000000
1.000000 0.327019 0.000000
1.000000 0.327019 0.000000
1.000000 0.327019 0.000000
1.000000 0.327019 0.000000
0.000000 0.373101 0.000000
0.047056 0.373101 0.000000
0.089035 0.373101 0.000000
0.129290 0.373101 0.000000
0.168465 0.373101 0.000000
0.206855 0.373101 0.000000
0.244632 0.373101 0.000000
0.281905 0.373101 0.000000
0.318754 0.373101 0.000000
0.355235 0.373101 0.000000
0.390413 0.372166 0.000000
0.424359 0.370566 0.000000
0.458059 0.369222 0.000000
0.491535 0.368078 0.000000
0.524805 0.367091 0.000000
0.557885 0.366230 0.000000
0.590790 0.365473 0.000000
0.623530 0.364802 0.000000
0.656116 0.364203 0.000000
0.688558 0.363664 0.000000
0.720863 0.363177 0.000000
0.753040 0.362735 0.000000
0.785094 0.362331 0.000000
0.817031 0.361961 0.000000
0.848858 0.361621 0.000000
0.880579 0.361307 0.000000
0.912198 0.361016 0.000000
0.943720 0.360746 0.000000
0.975149 0.360495 0.000000
1.000000 0.360307 0.000000
1.000000 0.360307 0.000000
1.000000 0.360307 0.000000
1.000000 0.360307 0.000000
0.000000 0.405605 0.000000
0.046843 0.405605 0.000000
0.088633 0.405605 0.000000
0.128706 0.405605 0.000000
0.167703 0.405605 0.000000
0.205920 0.405605 0.000000
0.243526 0.405605 0.000000
0.280632 0.405605 0.000000
0.317314 0.405605 0.000000
0.353630 0.405605 0.000000
0.389625 0.405605 0.000000
0.424359 0.404677 0.000000
0.458059 0.403210 0.000000
0.491535 0.401960 0.000000
0.524805 0.400882 0.000000
0.557885 0.399943 0.000000
0.590790 0.399116 0.000000
0.623530 0.398383 0.000000
0.656116 0.397729 0.000000
0.688558 0.397140 0.000000
0.720863 0.396609 0.000000
0.753040 0.396126 0.000000
0.785094 0.395685 0.000000
0.817031 0.395281 0.000000
0.848858 0.394910 0.000000
0.880579 0.394567 0.000000
0.912198 0.394249 0.000000
0.943720 0.393954 0.000000
0.975149 0.393679 0.000000
1.000000 0.393475 0.000000
1.000000 0.393475 0.000000
1.000000 0.393475 0.000000
1.000000 0.393475 0.000000
0.000000 0.438001 0.000000
0.046664 0.438001 0.000000
0.088294 0.438001 0.000000
0.128214 0.438001 0.000000
0.167062 0.438001 0.000000
0.205133 0.438001 0.000000
0.242595 0.438001 0.000000
0.279559 0.438001 0.000000
0.316101 0.438001 0.000000
0.352279 0.438001 0.000000
0.388136 0.438001 0.000000
0.423706 0.438001 0.000000
0.458059 0.437085 0.000000
0.491535 0.435730 0.000000
0.524805 0.434562 0.000000
0.557885 0.433543 0.000000
0.590790 0.432647 0.000000
0.623530 0.431853 0.000000
0.656116 0.431143 0.000000
0.688558 0.430505 0.000000
0.720863 0.429929 0.000000
0.753040 0.429405 0.000000
0.785094 0.428928 0.000000
0.817031 0.428490 0.000000
0.848858 0.428087 0.000000
0.880579 0.427715 0.000000
0.912198 0.427371 0.000000
0.943720 0.427051 0.000000
0.975149 0.426753 0.000000
1.000000 0.426532 0.000000
1.000000 0.426532 0.000000
1.000000 0.426532 0.000000
1.000000 0.426532 0.000000
0.000000 0.470297 0.000000
0.046511 0.470297 0.000000
0.088005 0.470297 0.000000
0.127794 0.470297 0.000000
0.166515 0.470297 0.000000
0.204461 0.470297 0.000000
0.241801 0.470297 0.000000
0.278644 0.470297 0.000000
0.315066 0.470297 0.000000
0.351125 0.470297 0.000000
0.386865 0.470297 0.000000
0.422319 0.470297 0.000000
0.457515 0.470297 0.000000
0.491535 0.469396 0.000000
0.524805 0.468138 0.000000
0.557885 0.467040 0.000000
0.590790 0.466075 0.000000
0.623530 0.465219 0.000000
0.656116 0.464455 0.000000
0.688558 0.463768 0.000000
0.720863 0.463147 0.000000
0.753040 0.462583 0.000000
0.785094 0.462068 0.000000
0.817031 0.461596 0.000000
0.848858 0.461163 0.000000
0.880579 0.460762 0.000000
0.912198 0.460391 0.000000
0.943720 0.460047 0.000000
0.975149 0.459726 0.000000
1.000000 0.459487 0.000000
1.000000 0.459487 0.000000
1.000000 0.459487 0.000000
1.000000 0.459487 0.000000
0.000000 0.502501 0.000000
0.046379 0.502501 0.000000
0.087755 0.502501 0.000000
0.127431 0.502501 0.000000
0.166043 0.502501 0.000000
0.203881 0.502501 0.000000
0.241115 0.502501 0.000000
0.277853 0.502501 0.000000
0.314172 0.502501 0.000000
0.350129 0.502501 0.000000
0.385766 0.502501 0.000000
0.421120 0.502501 0.000000
0.456217 0.502501 0.000000
0.491080 0.502501 0.000000
0.524805 0.501617 0.000000
0.557885 0.500442 0.000000
0.590790 0.499407 0.000000
0.623530 0.498490 0.000000
0.656116 0.497671 0.000000
0.688558 0.496935 0.000000
0.720863 0.496270 0.000000
0.753040 0.495665 0.000000
0.785094 0.495114 0.000000
0.817031 0.494608 0.000000
0.848858 0.494144 0.000000
0.880579 0.493714 0.000000
0.912198 0.493317 0.000000
0.943720 0.492948 0.000000
0.975149 0.492604 0.000000
1.000000 0.492348 0.000000
1.000000 0.492348 0.000000
1.000000 0.492348 0.000000
1.000000 0.492348 0.000000
0.000000 0.534619 0.000000
0.046264 0.534619 0.000000
0.087537 0.534619 0.000000
0.127115 0.534619 0.000000
0.165630 0.534619 0.000000
0.203375 0.534619 0.000000
0.240516 0.534619 0.000000
0.277163 0.534619 0.000000
0.313391 0.534619 0.000000
0.349259 0.534619 0.000000
0.384808 0.534619 0.000000
0.420074 0.534619 0.000000
0.455083 0.534619 0.000000
0.489860 0.534619 0.000000
0.524423 0.534619 0.000000
0.557885 0.533754 0.000000
0.590790 0.532651 0.000000
0.623530 0.531673 0.000000
0.656116 0.530799 0.000000
0.688558 0.530014 0.000000
0.720863 0.529304 0.000000
0.753040 0.528660 0.000000
0.785094 0.528072 0.000000
0.817031 0.527533 0.000000
0.848858 0.527037 0.000000
0.880579 0.526579 0.000000
0.912198 0.526155 0.000000
0.943720 0.525762 0.000000
0.975149 0.525395 0.000000
1.000000 0.525122 0.000000
1.000000 0.525122 0.000000
1.000000 0.525122 0.000000
1.000000 0.525122 0.000000
0.000000 0.566657 0.000000
0.046163 0.566657 0.000000
0.087345 0.566657 0.000000
0.126836 0.566657 0.000000
0.165267 0.566657 0.000000
0.202929 0.566657 0.000000
0.239988 0.566657 0.000000
0.276555 0.566657 0.000000
0.312704 0.566657 0.000000
0.348493 0.566657 0.000000
0.383965 0.566657 0.000000
0.419153 0.566657 0.000000
0.454086 0.566657 0.000000
0.488786 0.566657 0.000000
0.523274 0.566657 0.000000
0.557564 0.566657 0.000000
0.590790 0.565811 0.000000
0.623530 0.564772 0.000000
0.656116 0.563844 0.000000
0.688558 0.563010 0.000000
0.720863 0.562257 0.000000
0.753040 0.561572 0.000000
0.785094 0.560947 0.000000
0.817031 0.560374 0.000000
0.848858 0.559848 0.000000
0.880579 0.559361 0.000000
0.912198 0.558911 0.000000
0.943720 0.558493 0.000000
0.975149 0.558104 0.000000
1.000000 0.557813 0.000000
1.000000 0.557813 0.000000
1.000000 0.557813 0.000000
1.000000 0.557813 0.000000
0.000000 0.598620 0.000000
0.046073 0.598620 0.000000
0.087175 0.598620 0.000000
0.126589 0.598620 0.000000
0.164945 0.598620 0.000000
0.202533 0.598620 0.000000
0.239521 0.598620 0.000000
0.276016 0.598620 0.000000
0.312095 0.598620 0.000000
0.347814 0.598620 0.000000
0.383216 0.598620 0.000000
0.418336 0.598620 0.000000
0.453200 0.598620 0.000000
0.487833 0.598620 0.000000
0.522253 0.598620 0.000000
0.556477 0.598620 0.000000
0.590519 0.598620 0.000000
0.623530 0.597794 0.000000
0.656116 0.596812 0.000000
0.688558 0.595929 0.000000
0.720863 0.595131 0.000000
0.753040 0.594407 0.000000
0.785094 0.593745 0.000000
0.817031 0.593139 0.000000
0.848858 0.592581 0.000000
0.880579 0.592067 0.000000
0.912198 0.591590 0.000000
0.943720 0.591148 0.000000
0.975149 0.590735 0.000000
1.000000 0.590428 0.000000
1.000000 0.590428 0.000000
1.000000 0.590428 0.000000
1.000000 0.590428 0.000000
0.000000 0.630511 0.000000
0.045992 0.630511 0.000000
0.087023 0.630511 0.000000
0.126368 0.630511 0.000000
0.164657 0.630511 0.000000
0.202180 0.630511 0.000000
0.239102 0.630511 0.000000
0.275534 0.630511 0.000000
0.311550 0.630511 0.000000
0.347207 0.630511 0.000000
0.382547 0.630511 0.000000
0.417606 0.630511 0.000000
0.452409 0.630511 0.000000
0.486982 0.630511 0.000000
0.521342 0.630511 0.000000
0.555506 0.630511 0.000000
0.589488 0.630511 0.000000
0.623301 0.630511 0.000000
0.656116 0.629706 0.000000
0.688558 0.628775 0.000000
0.720863 0.627933 0.000000
0.753040 0.627168 0.000000
0.785094 0.626470 0.000000
0.817031 0.625831 0.000000
0.848858 0.625243 0.000000
0.880579 0.624700 0.000000
0.912198 0.624197 0.000000
0.943720 0.623730 0.000000
0.975149 0.623295 0.000000
1.000000 0.622971 0.000000
1.000000 0.622971 0.000000
1.000000 0.622971 0.000000
1.000000 0.622971 0.000000
0.000000 0.662336 0.000000
0.045920 0.662336 0.000000
0.086886 0.662336 0.000000
0.126169 0.662336 0.000000
0.164398 0.662336 0.000000
0.201862 0.662336 0.000000
0.238727 0.662336 0.000000
0.275101 0.662336 0.000000
0.311060 0.662336 0.000000
0.346661 0.662336 0.000000
0.381946 0.662336 0.000000
0.416949 0.662336 0.000000
0.451698 0.662336 0.000000
0.486217 0.662336 0.000000
0.520523 0.662336 0.000000
0.554633 0.662336 0.000000
0.588562 0.662336 0.000000
0.622322 0.662336 0.000000
0.655923 0.662336 0.000000
0.688558 0.661551 0.000000
0.720863 0.660666 0.000000
0.753040 0.659861 0.000000
0.785094 0.659127 0.000000
0.817031 0.658454 0.000000
0.848858 0.657835 0.000000
0.880579 0.657264 0.000000
0.912198 0.656735 0.000000
0.943720 0.656243 0.000000
0.975149 0.655786 0.000000
1.000000 0.655445 0.000000
1.000000 0.655445 0.000000
1.000000 0.655445 0.000000
1.000000 0.655445 0.000000
0.000000 0.694097 0.000000
0.045855 0.694097 0.000000
0.086762 0.694097 0.000000
0.125990 0.694097 0.000000
0.164164 0.694097 0.000000
0.201575 0.694097 0.000000
0.238387 0.694097 0.000000
0.274710 0.694097 0.000000
0.310618 0.694097 0.000000
0.346168 0.694097 0.000000
0.381403 0.694097 0.000000
0.416356 0.694097 0.000000
0.451056 0.694097 0.000000
0.485525 0.694097 0.000000
0.519782 0.694097 0.000000
0.553844 0.694097 0.000000
0.587725 0.694097 0.000000
0.621436 0.694097 0.000000
0.654989 0.694097 0.000000
0.688394 0.694097 0.000000
0.720863 0.693333 0.000000
0.753040 0.692488 0.000000
0.785094 0.691718 0.000000
0.817031 0.691012 0.000000
0.848858 0.690362 0.000000
0.880579 0.689763 0.000000
0.912198 0.689207 0.000000
0.943720 0.688692 0.000000
0.975149 0.688212 0.000000
1.000000 0.687854 0.000000
1.000000 0.687854 0.000000
1.000000 0.687854 0.000000
1.000000 0.687854 0.000000
0.000000 0.725797 0.000000
0.045795 0.725797 0.000000
0.086650 0.725797 0.000000
0.125827 0.725797 0.000000
0.163952 0.725797 0.000000
0.201314 0.725797 0.000000
0.238079 0.725797 0.000000
0.274354 0.725797 0.000000
0.310216 0.725797 0.000000
0.345720 0.725797 0.000000
0.380909 0.725797 0.000000
0.415817 0.725797 0.000000
0.450472 0.725797 0.000000
0.484896 0.725797 0.000000
0.519109 0.725797 0.000000
0.553127 0.725797 0.000000
0.586964 0.725797 0.000000
0.620632 0.725797 0.000000
0.654142 0.725797 0.000000
0.687503 0.725797 0.000000
0.720724 0.725797 0.000000
0.753040 0.725054 0.000000
0.785094 0.724247 0.000000
0.817031 0.723508 0.000000
0.848858 0.722828 0.000000
0.880579 0.722200 0.000000
0.912198 0.721618 0.000000
0.943720 0.721079 0.000000
0.975149 0.720576 0.000000
1.000000 0.720201 0.000000
1.000000 0.720201 0.000000
1.000000 0.720201 0.000000
1.000000 0.720201 0.000000
0.000000 0.757440 0.000000
0.045741 0.757440 0.000000
0.086548 0.757440 0.000000
0.125678 0.757440 0.000000
0.163758 0.757440 0.000000
0.201076 0.757440 0.000000
0.237797 0.757440 0.000000
0.274030 0.757440 0.000000
0.309849 0.757440 0.000000
0.345311 0.757440 0.000000
0.380459 0.757440 0.000000
0.415325 0.757440 0.000000
0.449939 0.757440 0.000000
0.484323 0.757440 0.000000
0.518496 0.757440 0.000000
0.552473 0.757440 0.000000
0.586270 0.757440 0.000000
0.619898 0.757440 0.000000
0.653368 0.757440 0.000000
0.686690 0.757440 0.000000
0.719871 0.757440 0.000000
0.752920 0.757440 0.000000
0.785094 0.756717 0.000000
0.817031 0.755944 0.000000
0.848858 0.755234 0.000000
0.880579 0.754578 0.000000
0.912198 0.753971 0.000000
0.943720 0.753406 0.000000
0.975149 0.752881 0.000000
1.000000 0.752490 0.000000
1.000000 0.752490 0.000000
1.000000 0.752490 0.000000
1.000000 0.752490 0.000000
0.000000 0.789028 0.000000
0.045692 0.789028 0.000000
0.086454 0.789028 0.000000
0.125542 0.789028 0.000000
0.163580 0.789028 0.000000
0.200858 0.789028 0.000000
0.237539 0.789028 0.000000
0.273732 0.789028 0.000000
0.309513 0.789028 0.000000
0.344937 0.789028 0.000000
0.380046 0.789028 0.000000
0.414875 0.789028 0.000000
0.449451 0.789028 0.000000
0.483798 0.789028 0.000000
0.517933 0.789028 0.000000
0.551874 0.789028 0.000000
0.585634 0.789028 0.000000
0.619226 0.789028 0.000000
0.652660 0.789028 0.000000
0.685945 0.789028 0.000000
0.719091 0.789028 0.000000
0.752104 0.789028 0.000000
0.784991 0.789028 0.000000
0.817031 0.788325 0.000000
0.848858 0.787584 0.000000
0.880579 0.786900 0.000000
0.912198 0.786266 0.000000
0.943720 0.785678 0.000000
0.975149 0.785130 0.000000
1.000000 0.784722 0.000000
1.000000 0.784722 0.000000
1.000000 0.784722 0.000000
1.000000 0.784722 0.000000
0.000000 0.820563 0.000000
0.045646 0.820563 0.000000
0.086367 0.820563 0.000000
0.125416 0.820563 0.000000
0.163417 0.820563 0.000000
0.200657 0.820563 0.000000
0.237302 0.820563 0.000000
0.273459 0.820563 0.000000
0.309204 0.820563 0.000000
0.344592 0.820563 0.000000
0.379666 0.820563 0.000000
0.414461 0.820563 0.000000
0.449003 0.820563 0.000000
0.483315 0.820563 0.000000
0.517416 0.820563 0.000000
0.551323 0.820563 0.000000
0.585049 0.820563 0.000000
0.618608 0.820563 0.000000
0.652008 0.820563 0.000000
0.685260 0.820563 0.000000
0.718373 0.820563 0.000000
0.751353 0.820563 0.000000
0.784208 0.820563 0.000000
0.816943 0.820563 0.000000
0.848858 0.819880 0.000000
0.880579 0.819168 0.000000
0.912198 0.818509 0.000000
0.943720 0.817896 0.000000
0.975149 0.817326 0.000000
1.000000 0.816901 0.000000
1.000000 0.816901 0.000000
1.000000 0.816901 0.000000
1.000000 0.816901 0.000000
0.000000 0.852047 0.000000
0.045604 0.852047 0.000000
0.086288 0.852047 0.000000
0.125301 0.852047 0.000000
0.163266 0.852047 0.000000
0.200472 0.852047 0.000000
0.237083 0.852047 0.000000
0.273207 0.852047 0.000000
0.308919 0.852047 0.000000
0.344274 0.852047 0.000000
0.379316 0.852047 0.000000
0.414079 0.852047 0.000000
0.448589 0.852047 0.000000
0.482869 0.852047 0.000000
0.516939 0.852047 0.000000
0.550815 0.852047 0.000000
0.584510 0.852047 0.000000
0.618037 0.852047 0.000000
0.651407 0.852047 0.000000
0.684628 0.852047 0.000000
0.717710 0.852047 0.000000
0.750660 0.852047 0.000000
0.783484 0.852047 0.000000
0.816190 0.852047 0.000000
0.848781 0.852047 0.000000
0.880579 0.851384 0.000000
0.912198 0.850699 0.000000
