app/src/main/assets/luts/sunset.cube
TITLE "Sunset"
LUT_3D_SIZE 5
DOMAIN_MIN 0.0 0.0 0.0
DOMAIN_MAX 1.0 1.0 1.0
0.040000 0.000000 0.040000
0.355892 0.000000 0.040000
0.629475 0.000000 0.040000
0.889078 0.000000 0.040000
1.000000 0.000000 0.040000
0.000000 0.214598 0.000000
0.355892 0.196706 0.000000
0.629475 0.186445 0.000000
0.889078 0.182823 0.000000
1.000000 0.181872 0.000000
0.000000 0.444331 0.000000
0.347143 0.444331 0.000000
0.629475 0.431767 0.000000
0.889078 0.423379 0.000000
1.000000 0.421178 0.000000
0.000000 0.680146 0.000000
0.335631 0.680146 0.000000
0.626309 0.680146 0.000000
0.889078 0.670303 0.000000
1.000000 0.666819 0.000000
0.000000 0.920000 0.000000
0.330251 0.920000 0.000000
0.616270 0.920000 0.000000
0.887673 0.920000 0.000000
1.000000 0.916667 0.000000
0.040000 0.000000 0.278300
0.355892 0.000000 0.278300
0.629475 0.000000 0.278300
0.889078 0.000000 0.278300
1.000000 0.000000 0.278300
0.000000 0.203905 0.278300
0.355892 0.179274 0.258903
0.629475 0.110878 0.190507
0.889078 0.045977 0.125606
1.000000 0.018247 0.097876
0.000000 0.444331 0.261875
0.333782 0.444331 0.236793
0.629475 0.398045 0.190507
0.889078 0.333144 0.125606
1.000000 0.305413 0.097876
0.000000 0.680146 0.253191
0.274829 0.680146 0.177839
0.616808 0.680146 0.177839
0.889078 0.627913 0.125606
1.000000 0.600183 0.097876
0.000000 0.920000 0.249132
0.214865 0.920000 0.117876
0.556844 0.920000 0.117876
0.881348 0.920000 0.117876
1.000000 0.900000 0.097876
0.040000 0.000000 0.523254
0.355892 0.000000 0.523254
0.629475 0.000000 0.523254
0.889078 0.000000 0.523254
1.000000 0.000000 0.523254
0.000000 0.189049 0.523254
0.314052 0.137433 0.523254
0.629475 0.110878 0.496699
0.889078 0.045977 0.431798
1.000000 0.018247 0.404068
0.000000 0.437798 0.523254
0.314052 0.424600 0.523254
0.629475 0.398045 0.496699
0.889078 0.333144 0.431798
1.000000 0.305413 0.404068
0.000000 0.680146 0.513451
0.274829 0.680146 0.484031
0.616808 0.680146 0.484031
0.889078 0.627913 0.431798
1.000000 0.600183 0.404068
0.000000 0.920000 0.505220
0.214865 0.920000 0.424068
0.556844 0.920000 0.424068
0.881348 0.920000 0.424068
1.000000 0.900000 0.404068
0.040000 0.000000 0.770783
0.355892 0.000000 0.770783
0.629475 0.000000 0.770783
0.889078 0.000000 0.770783
1.000000 0.000000 0.770783
0.000000 0.184154 0.770783
0.252169 0.075551 0.770783
0.594148 0.075551 0.770783
0.889078 0.045977 0.741209
1.000000 0.018247 0.713479
0.000000 0.426462 0.770783
0.252169 0.362718 0.770783
0.594148 0.362718 0.770783
0.889078 0.333144 0.741209
1.000000 0.305413 0.713479
0.000000 0.675185 0.770783
0.252169 0.657487 0.770783
0.594148 0.657487 0.770783
0.889078 0.627913 0.741209
1.000000 0.600183 0.713479
0.000000 0.920000 0.764001
0.214865 0.920000 0.733479
0.556844 0.920000 0.733479
0.881348 0.920000 0.733479
1.000000 0.900000 0.713479
0.040000 0.000000 1.000000
0.355892 0.000000 1.000000
0.629475 0.000000 1.000000
0.889078 0.000000 1.000000
1.000000 0.000000 1.000000
0.000000 0.181872 1.000000
0.194865 0.018247 1.000000
0.536844 0.018247 1.000000
0.861348 0.018247 1.000000
1.000000 0.018247 1.000000
0.000000 0.421178 1.000000
0.194865 0.305413 1.000000
0.536844 0.305413 1.000000
0.861348 0.305413 1.000000
1.000000 0.305413 1.000000
0.000000 0.666819 1.000000
0.194865 0.600183 1.000000
0.536844 0.600183 1.000000
0.861348 0.600183 1.000000
1.000000 0.600183 1.000000
0.000000 0.916667 1.000000
0.194865 0.900000 1.000000
0.536844 0.900000 1.000000
0.861348 0.900000 1.000000
1.000000 0.900000 1.000000
