app/src/main/assets/luts/sunset.cube
TITLE "Sunset"
LUT_3D_SIZE 9
DOMAIN_MIN 0.0 0.0 0.0
DOMAIN_MAX 1.0 1.0 1.0
0.040000 0.000000 0.040000
0.209282 0.000000 0.040000
0.355892 0.000000 0.040000
0.495010 0.000000 0.040000
0.629475 0.000000 0.040000
0.760584 0.000000 0.040000
0.889078 0.000000 0.040000
1.000000 0.000000 0.040000
1.000000 0.000000 0.040000
0.024089 0.103644 0.024089
0.209282 0.078682 0.000000
0.355892 0.071703 0.000000
0.495010 0.069239 0.000000
0.629475 0.067962 0.000000
0.760584 0.067177 0.000000
0.889078 0.066642 0.000000
1.000000 0.066296 0.000000
1.000000 0.066296 0.000000
0.000000 0.214598 0.000000
0.208065 0.214598 0.000000
0.355892 0.196706 0.000000
0.495010 0.189946 0.000000
0.629475 0.186445 0.000000
0.760584 0.184290 0.000000
0.889078 0.182823 0.000000
1.000000 0.181872 0.000000
1.000000 0.181872 0.000000
0.000000 0.328489 0.000000
0.192754 0.328489 0.000000
0.355892 0.325019 0.000000
0.495010 0.313850 0.000000
0.629475 0.308065 0.000000
0.760584 0.304503 0.000000
0.889078 0.302080 0.000000
1.000000 0.300509 0.000000
1.000000 0.300509 0.000000
0.000000 0.444331 0.000000
0.186029 0.444331 0.000000
0.347143 0.444331 0.000000
0.495010 0.439875 0.000000
0.629475 0.431767 0.000000
0.760584 0.426775 0.000000
0.889078 0.423379 0.000000
1.000000 0.421178 0.000000
1.000000 0.421178 0.000000
0.000000 0.561645 0.000000
0.182263 0.561645 0.000000
0.340115 0.561645 0.000000
0.489900 0.561645 0.000000
0.629475 0.557042 0.000000
0.760584 0.550602 0.000000
0.889078 0.546220 0.000000
1.000000 0.543380 0.000000
1.000000 0.543380 0.000000
0.000000 0.680146 0.000000
0.179860 0.680146 0.000000
0.335631 0.680146 0.000000
0.483442 0.680146 0.000000
0.626309 0.680146 0.000000
0.760584 0.675681 0.000000
0.889078 0.670303 0.000000
1.000000 0.666819 0.000000
1.000000 0.666819 0.000000
0.000000 0.799643 0.000000
0.178196 0.799643 0.000000
0.332526 0.799643 0.000000
0.478969 0.799643 0.000000
0.620515 0.799643 0.000000
0.758527 0.799643 0.000000
0.889078 0.795430 0.000000
1.000000 0.791295 0.000000
1.000000 0.791295 0.000000
0.000000 0.920000 0.000000
0.176977 0.920000 0.000000
0.330251 0.920000 0.000000
0.475692 0.920000 0.000000
0.616270 0.920000 0.000000
0.753338 0.920000 0.000000
0.887673 0.920000 0.000000
1.000000 0.916667 0.000000
1.000000 0.916667 0.000000
0.040000 0.000000 0.157510
0.209282 0.000000 0.157510
0.355892 0.000000 0.157510
0.495010 0.000000 0.157510
0.629475 0.000000 0.157510
0.760584 0.000000 0.157510
0.889078 0.000000 0.157510
1.000000 0.000000 0.157510
1.000000 0.000000 0.157510
0.010623 0.090177 0.157510
0.209282 0.077234 0.144567
0.355892 0.040582 0.107914
0.495010 0.005802 0.073135
0.629475 0.000000 0.064483
0.760584 0.000000 0.062364
0.889078 0.000000 0.060974
1.000000 0.000000 0.060094
1.000000 0.000000 0.060094
0.000000 0.214598 0.144431
0.207954 0.214598 0.143238
0.355892 0.179274 0.107914
0.495010 0.144495 0.073135
0.629475 0.110878 0.039518
0.760584 0.078101 0.006741
0.889078 0.069379 0.000000
1.000000 0.067761 0.000000
1.000000 0.067761 0.000000
0.000000 0.328489 0.133803
0.179481 0.328489 0.114765
0.355892 0.321638 0.107914
0.495010 0.286859 0.073135
0.629475 0.253242 0.039518
0.760584 0.220465 0.006741
0.889078 0.207792 0.000000
1.000000 0.202945 0.000000
1.000000 0.202945 0.000000
0.000000 0.444331 0.129135
0.150520 0.444331 0.085805
0.333782 0.444331 0.085805
0.495010 0.431661 0.073135
0.629475 0.398045 0.039518
0.760584 0.365267 0.006741
0.889078 0.348575 0.000000
1.000000 0.340444 0.000000
1.000000 0.340444 0.000000
0.000000 0.561645 0.126521
0.121192 0.561645 0.056476
0.304454 0.561645 0.056476
0.478351 0.561645 0.056476
0.629475 0.544687 0.039518
0.760584 0.511910 0.006741
0.889078 0.491147 0.000000
1.000000 0.479691 0.000000
1.000000 0.479691 0.000000
0.000000 0.680146 0.124853
0.091566 0.680146 0.026851
0.274829 0.680146 0.026851
0.448726 0.680146 0.026851
0.616808 0.680146 0.026851
0.760584 0.660036 0.006741
0.889078 0.635162 0.000000
1.000000 0.620347 0.000000
1.000000 0.620347 0.000000
0.000000 0.799643 0.123697
0.064472 0.799643 0.000000
0.247044 0.799643 0.000000
0.420286 0.799643 0.000000
0.587735 0.799643 0.000000
0.751003 0.799643 0.000000
0.889078 0.780387 0.000000
1.000000 0.762185 0.000000
1.000000 0.762185 0.000000
0.000000 0.920000 0.122851
0.062467 0.920000 0.000000
0.239363 0.920000 0.000000
0.407218 0.920000 0.000000
0.569461 0.920000 0.000000
0.727653 0.920000 0.000000
0.882691 0.920000 0.000000
1.000000 0.905043 0.000000
1.000000 0.905043 0.000000
0.040000 0.000000 0.278300
0.209282 0.000000 0.278300
0.355892 0.000000 0.278300
0.495010 0.000000 0.278300
0.629475 0.000000 0.278300
0.760584 0.000000 0.278300
0.889078 0.000000 0.278300
1.000000 0.000000 0.278300
1.000000 0.000000 0.278300
0.000000 0.074327 0.278300
0.192028 0.059980 0.278300
0.355892 0.040582 0.258903
0.495010 0.005802 0.224123
0.629475 0.000000 0.209082
0.760584 0.000000 0.202212
0.889078 0.000000 0.197704
1.000000 0.000000 0.194852
1.000000 0.000000 0.194852
0.000000 0.203905 0.278300
0.192028 0.198672 0.278300
0.355892 0.179274 0.258903
0.495010 0.144495 0.224123
0.629475 0.110878 0.190507
0.760584 0.078101 0.157730
0.889078 0.045977 0.125606
1.000000 0.018247 0.097876
1.000000 0.018247 0.097876
0.000000 0.328489 0.271342
0.179481 0.328489 0.265753
0.355892 0.321638 0.258903
0.495010 0.286859 0.224123
0.629475 0.253242 0.190507
0.760584 0.220465 0.157730
0.889078 0.188341 0.125606
1.000000 0.160611 0.097876
1.000000 0.160611 0.097876
0.000000 0.444331 0.261875
0.150520 0.444331 0.236793
0.333782 0.444331 0.236793
0.495010 0.431661 0.224123
0.629475 0.398045 0.190507
0.760584 0.365267 0.157730
0.889078 0.333144 0.125606
1.000000 0.305413 0.097876
1.000000 0.305413 0.097876
0.000000 0.561645 0.256573
0.121192 0.561645 0.207464
0.304454 0.561645 0.207464
0.478351 0.561645 0.207464
0.629475 0.544687 0.190507
0.760584 0.511910 0.157730
0.889078 0.479787 0.125606
1.000000 0.452056 0.097876
1.000000 0.452056 0.097876
0.000000 0.680146 0.253191
0.091566 0.680146 0.177839
0.274829 0.680146 0.177839
0.448726 0.680146 0.177839
0.616808 0.680146 0.177839
0.760584 0.660036 0.157730
0.889078 0.627913 0.125606
1.000000 0.600183 0.097876
1.000000 0.600183 0.097876
0.000000 0.799643 0.250848
0.061692 0.799643 0.147965
0.244954 0.799643 0.147965
0.418852 0.799643 0.147965
0.586933 0.799643 0.147965
0.750819 0.799643 0.147965
0.889078 0.777284 0.125606
1.000000 0.749554 0.097876
1.000000 0.749554 0.097876
0.000000 0.920000 0.249132
0.031603 0.920000 0.117876
0.214865 0.920000 0.117876
0.388762 0.920000 0.117876
0.556844 0.920000 0.117876
0.720730 0.920000 0.117876
0.881348 0.920000 0.117876
1.000000 0.900000 0.097876
1.000000 0.900000 0.097876
0.040000 0.000000 0.400361
0.209282 0.000000 0.400361
0.355892 0.000000 0.400361
0.495010 0.000000 0.400361
0.629475 0.000000 0.400361
0.760584 0.000000 0.400361
0.889078 0.000000 0.400361
1.000000 0.000000 0.400361
1.000000 0.000000 0.400361
0.000000 0.070708 0.400361
0.161513 0.029464 0.400361
0.344775 0.029464 0.400361
0.495010 0.005802 0.376699
0.629475 0.000000 0.355202
0.760584 0.000000 0.343530
0.889078 0.000000 0.335871
1.000000 0.000000 0.331026
1.000000 0.000000 0.331026
0.000000 0.193978 0.400361
0.161513 0.168157 0.400361
0.344775 0.168157 0.400361
0.495010 0.144495 0.376699
0.629475 0.110878 0.343083
0.760584 0.078101 0.310305
0.889078 0.045977 0.278182
1.000000 0.018247 0.250451
1.000000 0.018247 0.250451
0.000000 0.320511 0.400361
0.161513 0.310521 0.400361
0.344775 0.310521 0.400361
0.495010 0.286859 0.376699
0.629475 0.253242 0.343083
0.760584 0.220465 0.310305
0.889078 0.188341 0.278182
1.000000 0.160611 0.250451
1.000000 0.160611 0.250451
0.000000 0.444331 0.396011
0.150520 0.444331 0.389369
0.333782 0.444331 0.389369
0.495010 0.431661 0.376699
0.629475 0.398045 0.343083
0.760584 0.365267 0.310305
0.889078 0.333144 0.278182
1.000000 0.305413 0.250451
1.000000 0.305413 0.250451
0.000000 0.561645 0.387994
0.121192 0.561645 0.360040
0.304454 0.561645 0.360040
0.478351 0.561645 0.360040
0.629475 0.544687 0.343083
0.760584 0.511910 0.310305
0.889078 0.479787 0.278182
1.000000 0.452056 0.250451
1.000000 0.452056 0.250451
0.000000 0.680146 0.382879
0.091566 0.680146 0.330415
0.274829 0.680146 0.330415
0.448726 0.680146 0.330415
0.616808 0.680146 0.330415
0.760584 0.660036 0.310305
0.889078 0.627913 0.278182
1.000000 0.600183 0.250451
1.000000 0.600183 0.250451
0.000000 0.799643 0.379336
0.061692 0.799643 0.300541
0.244954 0.799643 0.300541
0.418852 0.799643 0.300541
0.586933 0.799643 0.300541
0.750819 0.799643 0.300541
0.889078 0.777284 0.278182
1.000000 0.749554 0.250451
1.000000 0.749554 0.250451
0.000000 0.920000 0.376741
0.031603 0.920000 0.270451
0.214865 0.920000 0.270451
0.388762 0.920000 0.270451
0.556844 0.920000 0.270451
0.720730 0.920000 0.270451
0.881348 0.920000 0.270451
1.000000 0.900000 0.250451
1.000000 0.900000 0.250451
0.040000 0.000000 0.523254
0.209282 0.000000 0.523254
0.355892 0.000000 0.523254
0.495010 0.000000 0.523254
0.629475 0.000000 0.523254
0.760584 0.000000 0.523254
0.889078 0.000000 0.523254
1.000000 0.000000 0.523254
1.000000 0.000000 0.523254
0.000000 0.068912 0.523254
0.131731 0.000000 0.523254
0.314554 0.000000 0.523254
0.488034 0.000000 0.523254
0.629475 0.000000 0.502317
0.760584 0.000000 0.485811
0.889078 0.000000 0.474981
1.000000 0.000000 0.468129
1.000000 0.000000 0.468129
0.000000 0.189049 0.523254
0.130789 0.137433 0.523254
0.314052 0.137433 0.523254
0.487949 0.137433 0.523254
0.629475 0.110878 0.496699
0.760584 0.078101 0.463921
0.889078 0.045977 0.431798
1.000000 0.018247 0.404068
1.000000 0.018247 0.404068
0.000000 0.312368 0.523254
0.130789 0.279798 0.523254
0.314052 0.279798 0.523254
0.487949 0.279798 0.523254
0.629475 0.253242 0.496699
0.760584 0.220465 0.463921
0.889078 0.188341 0.431798
1.000000 0.160611 0.404068
1.000000 0.160611 0.404068
0.000000 0.437798 0.523254
0.130789 0.424600 0.523254
0.314052 0.424600 0.523254
0.487949 0.424600 0.523254
0.629475 0.398045 0.496699
0.760584 0.365267 0.463921
0.889078 0.333144 0.431798
1.000000 0.305413 0.404068
1.000000 0.305413 0.404068
0.000000 0.561645 0.520310
0.121192 0.561645 0.513656
0.304454 0.561645 0.513656
0.478351 0.561645 0.513656
0.629475 0.544687 0.496699
0.760584 0.511910 0.463921
0.889078 0.479787 0.431798
1.000000 0.452056 0.404068
1.000000 0.452056 0.404068
0.000000 0.680146 0.513451
0.091566 0.680146 0.484031
0.274829 0.680146 0.484031
0.448726 0.680146 0.484031
0.616808 0.680146 0.484031
0.760584 0.660036 0.463921
0.889078 0.627913 0.431798
1.000000 0.600183 0.404068
1.000000 0.600183 0.404068
0.000000 0.799643 0.508700
0.061692 0.799643 0.454157
0.244954 0.799643 0.454157
0.418852 0.799643 0.454157
0.586933 0.799643 0.454157
0.750819 0.799643 0.454157
0.889078 0.777284 0.431798
1.000000 0.749554 0.404068
1.000000 0.749554 0.404068
0.000000 0.920000 0.505220
0.031603 0.920000 0.424068
0.214865 0.920000 0.424068
0.388762 0.920000 0.424068
0.556844 0.920000 0.424068
0.720730 0.920000 0.424068
0.881348 0.920000 0.424068
1.000000 0.900000 0.404068
1.000000 0.900000 0.404068
0.040000 0.000000 0.646769
0.209282 0.000000 0.646769
0.355892 0.000000 0.646769
0.495010 0.000000 0.646769
0.629475 0.000000 0.646769
0.760584 0.000000 0.646769
0.889078 0.000000 0.646769
1.000000 0.000000 0.646769
1.000000 0.000000 0.646769
0.000000 0.067839 0.646769
0.125797 0.000000 0.646769
0.300384 0.000000 0.646769
0.466050 0.000000 0.646769
0.626175 0.000000 0.646769
0.760584 0.000000 0.628813
0.889078 0.000000 0.614795
1.000000 0.000000 0.605926
1.000000 0.000000 0.605926
0.000000 0.186108 0.646769
0.099911 0.106555 0.646769
0.283173 0.106555 0.646769
0.457070 0.106555 0.646769
0.625152 0.106555 0.646769
0.760584 0.078101 0.618316
0.889078 0.045977 0.586192
1.000000 0.018247 0.558462
1.000000 0.018247 0.558462
0.000000 0.307507 0.646769
0.099911 0.248919 0.646769
0.283173 0.248919 0.646769
0.457070 0.248919 0.646769
0.625152 0.248919 0.646769
0.760584 0.220465 0.618316
0.889078 0.188341 0.586192
1.000000 0.160611 0.558462
1.000000 0.160611 0.558462
0.000000 0.430985 0.646769
0.099911 0.393721 0.646769
0.283173 0.393721 0.646769
0.457070 0.393721 0.646769
0.625152 0.393721 0.646769
0.760584 0.365267 0.618316
0.889078 0.333144 0.586192
1.000000 0.305413 0.558462
1.000000 0.305413 0.558462
0.000000 0.556033 0.646769
0.099911 0.540364 0.646769
0.283173 0.540364 0.646769
0.457070 0.540364 0.646769
0.625152 0.540364 0.646769
0.760584 0.511910 0.618316
0.889078 0.479787 0.586192
1.000000 0.452056 0.558462
1.000000 0.452056 0.558462
0.000000 0.680146 0.644684
0.091566 0.680146 0.638425
0.274829 0.680146 0.638425
0.448726 0.680146 0.638425
0.616808 0.680146 0.638425
0.760584 0.660036 0.618316
0.889078 0.627913 0.586192
1.000000 0.600183 0.558462
1.000000 0.600183 0.558462
0.000000 0.799643 0.638720
0.061692 0.799643 0.608551
0.244954 0.799643 0.608551
0.418852 0.799643 0.608551
0.586933 0.799643 0.608551
0.750819 0.799643 0.608551
0.889078 0.777284 0.586192
1.000000 0.749554 0.558462
1.000000 0.749554 0.558462
0.000000 0.920000 0.634350
0.031603 0.920000 0.578462
0.214865 0.920000 0.578462
0.388762 0.920000 0.578462
0.556844 0.920000 0.578462
0.720730 0.920000 0.578462
0.881348 0.920000 0.578462
1.000000 0.900000 0.558462
1.000000 0.900000 0.558462
0.040000 0.000000 0.770783
0.209282 0.000000 0.770783
0.355892 0.000000 0.770783
0.495010 0.000000 0.770783
0.629475 0.000000 0.770783
0.760584 0.000000 0.770783
0.889078 0.000000 0.770783
1.000000 0.000000 0.770783
1.000000 0.000000 0.770783
0.000000 0.067127 0.770783
0.122050 0.000000 0.770783
0.291436 0.000000 0.770783
0.452167 0.000000 0.770783
0.607522 0.000000 0.770783
0.759000 0.000000 0.770783
0.889078 0.000000 0.755173
1.000000 0.000000 0.744279
1.000000 0.000000 0.744279
0.000000 0.184154 0.770783
0.068907 0.075551 0.770783
0.252169 0.075551 0.770783
0.426067 0.075551 0.770783
0.594148 0.075551 0.770783
0.758034 0.075551 0.770783
0.889078 0.045977 0.741209
1.000000 0.018247 0.713479
1.000000 0.018247 0.713479
0.000000 0.304280 0.770783
0.068907 0.217915 0.770783
0.252169 0.217915 0.770783
0.426067 0.217915 0.770783
0.594148 0.217915 0.770783
0.758034 0.217915 0.770783
0.889078 0.188341 0.741209
1.000000 0.160611 0.713479
1.000000 0.160611 0.713479
0.000000 0.426462 0.770783
0.068907 0.362718 0.770783
0.252169 0.362718 0.770783
0.426067 0.362718 0.770783
0.594148 0.362718 0.770783
0.758034 0.362718 0.770783
0.889078 0.333144 0.741209
1.000000 0.305413 0.713479
1.000000 0.305413 0.713479
0.000000 0.550198 0.770783
0.068907 0.509360 0.770783
0.252169 0.509360 0.770783
0.426067 0.509360 0.770783
0.594148 0.509360 0.770783
0.758034 0.509360 0.770783
0.889078 0.479787 0.741209
1.000000 0.452056 0.713479
1.000000 0.452056 0.713479
0.000000 0.675185 0.770783
0.068907 0.657487 0.770783
0.252169 0.657487 0.770783
0.426067 0.657487 0.770783
0.594148 0.657487 0.770783
0.758034 0.657487 0.770783
0.889078 0.627913 0.741209
1.000000 0.600183 0.713479
1.000000 0.600183 0.713479
0.000000 0.799643 0.769264
0.061692 0.799643 0.763568
0.244954 0.799643 0.763568
0.418852 0.799643 0.763568
0.586933 0.799643 0.763568
0.750819 0.799643 0.763568
0.889078 0.777284 0.741209
1.000000 0.749554 0.713479
1.000000 0.749554 0.713479
0.000000 0.920000 0.764001
0.031603 0.920000 0.733479
0.214865 0.920000 0.733479
0.388762 0.920000 0.733479
0.556844 0.920000 0.733479
0.720730 0.920000 0.733479
0.881348 0.920000 0.733479
1.000000 0.900000 0.713479
1.000000 0.900000 0.713479
0.040000 0.000000 0.895213
0.209282 0.000000 0.895213
0.355892 0.000000 0.895213
0.495010 0.000000 0.895213
0.629475 0.000000 0.895213
0.760584 0.000000 0.895213
0.889078 0.000000 0.895213
1.000000 0.000000 0.895213
1.000000 0.000000 0.895213
0.000000 0.066621 0.895213
0.119470 0.000000 0.895213
0.285276 0.000000 0.895213
0.442609 0.000000 0.895213
0.594681 0.000000 0.895213
0.742957 0.000000 0.895213
0.888275 0.000000 0.895213
1.000000 0.000000 0.883097
1.000000 0.000000 0.883097
0.000000 0.182764 0.895213
0.037800 0.044444 0.895213
0.221062 0.044444 0.895213
0.394959 0.044444 0.895213
0.563041 0.044444 0.895213
0.726927 0.044444 0.895213
0.887545 0.044444 0.895213
1.000000 0.018247 0.869016
1.000000 0.018247 0.869016
0.000000 0.301982 0.895213
0.037800 0.186808 0.895213
0.221062 0.186808 0.895213
0.394959 0.186808 0.895213
0.563041 0.186808 0.895213
0.726927 0.186808 0.895213
0.887545 0.186808 0.895213
1.000000 0.160611 0.869016
1.000000 0.160611 0.869016
0.000000 0.423242 0.895213
0.037800 0.331610 0.895213
0.221062 0.331610 0.895213
0.394959 0.331610 0.895213
0.563041 0.331610 0.895213
0.726927 0.331610 0.895213
0.887545 0.331610 0.895213
1.000000 0.305413 0.869016
1.000000 0.305413 0.869016
0.000000 0.546043 0.895213
0.037800 0.478253 0.895213
0.221062 0.478253 0.895213
0.394959 0.478253 0.895213
0.563041 0.478253 0.895213
0.726927 0.478253 0.895213
0.887545 0.478253 0.895213
1.000000 0.452056 0.869016
1.000000 0.452056 0.869016
0.000000 0.670087 0.895213
0.037800 0.626379 0.895213
0.221062 0.626379 0.895213
0.394959 0.626379 0.895213
0.563041 0.626379 0.895213
0.726927 0.626379 0.895213
0.887545 0.626379 0.895213
1.000000 0.600183 0.869016
1.000000 0.600183 0.869016
0.000000 0.795173 0.895213
0.037800 0.775751 0.895213
0.221062 0.775751 0.895213
0.394959 0.775751 0.895213
0.563041 0.775751 0.895213
0.726927 0.775751 0.895213
0.887545 0.775751 0.895213
1.000000 0.749554 0.869016
1.000000 0.749554 0.869016
0.000000 0.920000 0.894086
0.031603 0.920000 0.889016
0.214865 0.920000 0.889016
0.388762 0.920000 0.889016
0.556844 0.920000 0.889016
0.720730 0.920000 0.889016
0.881348 0.920000 0.889016
1.000000 0.900000 0.869016
1.000000 0.900000 0.869016
0.040000 0.000000 1.000000
0.209282 0.000000 1.000000
0.355892 0.000000 1.000000
0.495010 0.000000 1.000000
0.629475 0.000000 1.000000
0.760584 0.000000 1.000000
0.889078 0.000000 1.000000
1.000000 0.000000 1.000000
1.000000 0.000000 1.000000
0.000000 0.066296 1.000000
0.117853 0.000000 1.000000
0.281415 0.000000 1.000000
0.436619 0.000000 1.000000
0.586632 0.000000 1.000000
0.732901 0.000000 1.000000
0.876253 0.000000 1.000000
1.000000 0.000000 1.000000
1.000000 0.000000 1.000000
0.000000 0.181872 1.000000
0.011603 0.018247 1.000000
0.194865 0.018247 1.000000
0.368762 0.018247 1.000000
0.536844 0.018247 1.000000
0.700730 0.018247 1.000000
0.861348 0.018247 1.000000
1.000000 0.018247 1.000000
1.000000 0.018247 1.000000
0.000000 0.300509 1.000000
0.011603 0.160611 1.000000
0.194865 0.160611 1.000000
0.368762 0.160611 1.000000
0.536844 0.160611 1.000000
0.700730 0.160611 1.000000
0.861348 0.160611 1.000000
1.000000 0.160611 1.000000
1.000000 0.160611 1.000000
0.000000 0.421178 1.000000
0.011603 0.305413 1.000000
0.194865 0.305413 1.000000
0.368762 0.305413 1.000000
0.536844 0.305413 1.000000
0.700730 0.305413 1.000000
0.861348 0.305413 1.000000
1.000000 0.305413 1.000000
1.000000 0.305413 1.000000
0.000000 0.543380 1.000000
0.011603 0.452056 1.000000
0.194865 0.452056 1.000000
0.368762 0.452056 1.000000
0.536844 0.452056 1.000000
0.700730 0.452056 1.000000
0.861348 0.452056 1.000000
1.000000 0.452056 1.000000
1.000000 0.452056 1.000000
0.000000 0.666819 1.000000
0.011603 0.600183 1.000000
0.194865 0.600183 1.000000
0.368762 0.600183 1.000000
0.536844 0.600183 1.000000
0.700730 0.600183 1.000000
0.861348 0.600183 1.000000
1.000000 0.600183 1.000000
1.000000 0.600183 1.000000
0.000000 0.791295 1.000000
0.011603 0.749554 1.000000
0.194865 0.749554 1.000000
0.368762 0.749554 1.000000
0.536844 0.749554 1.000000
0.700730 0.749554 1.000000
0.861348 0.749554 1.000000
1.000000 0.749554 1.000000
1.000000 0.749554 1.000000
0.000000 0.916667 1.000000
0.011603 0.900000 1.000000
0.194865 0.900000 1.000000
0.368762 0.900000 1.000000
0.536844 0.900000 1.000000
0.700730 0.900000 1.000000
0.861348 0.900000 1.000000
1.000000 0.900000 1.000000
1.000000 0.900000 1.000000
