app/src/main/assets/luts/sunset.cube
TITLE "Sunset"
LUT_3D_SIZE 33
DOMAIN_MIN 0.0 0.0 0.0
DOMAIN_MAX 1.0 1.0 1.0
0.040000 0.000000 0.040000
0.088614 0.000000 0.040000
0.130716 0.000000 0.040000
0.170667 0.000000 0.040000
0.209282 0.000000 0.040000
0.246933 0.000000 0.040000
0.283834 0.000000 0.040000
0.320121 0.000000 0.040000
0.355892 0.000000 0.040000
0.391217 0.000000 0.040000
0.426151 0.000000 0.040000
0.460737 0.000000 0.040000
0.495010 0.000000 0.040000
0.528998 0.000000 0.040000
0.562725 0.000000 0.040000
0.596211 0.000000 0.040000
0.629475 0.000000 0.040000
0.662532 0.000000 0.040000
0.695395 0.000000 0.040000
0.728075 0.000000 0.040000
0.760584 0.000000 0.040000
0.792931 0.000000 0.040000
0.825124 0.000000 0.040000
0.857171 0.000000 0.040000
0.889078 0.000000 0.040000
0.920854 0.000000 0.040000
0.952502 0.000000 0.040000
0.984028 0.000000 0.040000
1.000000 0.000000 0.040000
1.000000 0.000000 0.040000
1.000000 0.000000 0.040000
1.000000 0.000000 0.040000
1.000000 0.000000 0.040000
0.040000 0.020220 0.040000
0.088614 0.008066 0.027847
0.130716 0.000000 0.019415
0.170667 0.000000 0.018436
0.209282 0.000000 0.017891
0.246933 0.000000 0.017542
0.283834 0.000000 0.017298
0.320121 0.000000 0.017117
0.355892 0.000000 0.016978
0.391217 0.000000 0.016867
0.426151 0.000000 0.016776
0.460737 0.000000 0.016701
0.495010 0.000000 0.016637
0.528998 0.000000 0.016582
0.562725 0.000000 0.016535
0.596211 0.000000 0.016493
0.629475 0.000000 0.016456
0.662532 0.000000 0.016424
0.695395 0.000000 0.016394
0.728075 0.000000 0.016368
0.760584 0.000000 0.016344
0.792931 0.000000 0.016322
0.825124 0.000000 0.016302
0.857171 0.000000 0.016283
0.889078 0.000000 0.016267
0.920854 0.000000 0.016251
0.952502 0.000000 0.016236
0.984028 0.000000 0.016223
1.000000 0.000000 0.016216
1.000000 0.000000 0.016216
1.000000 0.000000 0.016216
1.000000 0.000000 0.016216
1.000000 0.000000 0.016216
0.037486 0.050057 0.037486
0.088614 0.040417 0.027847
0.130716 0.029892 0.017321
0.170667 0.019904 0.007333
0.209282 0.012433 0.000000
0.246933 0.012001 0.000000
0.283834 0.011706 0.000000
0.320121 0.011493 0.000000
0.355892 0.011330 0.000000
0.391217 0.011202 0.000000
0.426151 0.011098 0.000000
0.460737 0.011013 0.000000
0.495010 0.010941 0.000000
0.528998 0.010879 0.000000
0.562725 0.010826 0.000000
0.596211 0.010780 0.000000
0.629475 0.010739 0.000000
0.662532 0.010703 0.000000
0.695395 0.010670 0.000000
0.728075 0.010641 0.000000
0.760584 0.010615 0.000000
0.792931 0.010591 0.000000
0.825124 0.010569 0.000000
0.857171 0.010549 0.000000
0.889078 0.010530 0.000000
0.920854 0.010513 0.000000
0.952502 0.010497 0.000000
0.984028 0.010483 0.000000
1.000000 0.010476 0.000000
1.000000 0.010476 0.000000
1.000000 0.010476 0.000000
1.000000 0.010476 0.000000
1.000000 0.010476 0.000000
0.030844 0.076623 0.030844
0.088614 0.073625 0.027847
0.130716 0.063099 0.017321
0.170667 0.053112 0.007333
0.209282 0.045276 0.000000
0.246933 0.043702 0.000000
0.283834 0.042631 0.000000
0.320121 0.041852 0.000000
0.355892 0.041260 0.000000
0.391217 0.040794 0.000000
0.426151 0.040416 0.000000
0.460737 0.040105 0.000000
0.495010 0.039842 0.000000
0.528998 0.039618 0.000000
0.562725 0.039425 0.000000
0.596211 0.039256 0.000000
0.629475 0.039108 0.000000
0.662532 0.038976 0.000000
0.695395 0.038858 0.000000
0.728075 0.038752 0.000000
0.760584 0.038656 0.000000
0.792931 0.038568 0.000000
0.825124 0.038489 0.000000
0.857171 0.038415 0.000000
0.889078 0.038348 0.000000
0.920854 0.038286 0.000000
0.952502 0.038228 0.000000
0.984028 0.038175 0.000000
1.000000 0.038149 0.000000
1.000000 0.038149 0.000000
1.000000 0.038149 0.000000
1.000000 0.038149 0.000000
1.000000 0.038149 0.000000
0.024089 0.103644 0.024089
0.084856 0.103644 0.024089
0.130716 0.096876 0.017321
0.170667 0.086888 0.007333
0.209282 0.078682 0.000000
0.246933 0.075946 0.000000
0.283834 0.074084 0.000000
0.320121 0.072732 0.000000
0.355892 0.071703 0.000000
0.391217 0.070892 0.000000
0.426151 0.070236 0.000000
0.460737 0.069694 0.000000
0.495010 0.069239 0.000000
0.528998 0.068850 0.000000
0.562725 0.068514 0.000000
0.596211 0.068221 0.000000
0.629475 0.067962 0.000000
0.662532 0.067733 0.000000
0.695395 0.067528 0.000000
0.728075 0.067344 0.000000
0.760584 0.067177 0.000000
0.792931 0.067025 0.000000
0.825124 0.066886 0.000000
0.857171 0.066759 0.000000
0.889078 0.066642 0.000000
0.920854 0.066534 0.000000
0.952502 0.066434 0.000000
0.984028 0.066340 0.000000
1.000000 0.066296 0.000000
1.000000 0.066296 0.000000
1.000000 0.066296 0.000000
1.000000 0.066296 0.000000
1.000000 0.066296 0.000000
0.017248 0.131008 0.017248
0.078015 0.131008 0.017248
0.130643 0.131008 0.017248
0.170667 0.121094 0.007333
0.209282 0.112513 0.000000
0.246933 0.108600 0.000000
0.283834 0.105938 0.000000
0.320121 0.104004 0.000000
0.355892 0.102532 0.000000
0.391217 0.101373 0.000000
0.426151 0.100436 0.000000
0.460737 0.099661 0.000000
0.495010 0.099009 0.000000
0.528998 0.098453 0.000000
0.562725 0.097972 0.000000
0.596211 0.097553 0.000000
0.629475 0.097184 0.000000
0.662532 0.096856 0.000000
0.695395 0.096563 0.000000
0.728075 0.096299 0.000000
0.760584 0.096060 0.000000
0.792931 0.095843 0.000000
0.825124 0.095645 0.000000
0.857171 0.095463 0.000000
0.889078 0.095296 0.000000
0.920854 0.095141 0.000000
0.952502 0.094998 0.000000
0.984028 0.094864 0.000000
1.000000 0.094800 0.000000
1.000000 0.094800 0.000000
1.000000 0.094800 0.000000
1.000000 0.094800 0.000000
1.000000 0.094800 0.000000
0.010338 0.158650 0.010338
0.071105 0.158650 0.010338
0.123733 0.158650 0.010338
0.170667 0.155645 0.007333
0.209282 0.146686 0.000000
0.246933 0.141585 0.000000
0.283834 0.138114 0.000000
0.320121 0.135592 0.000000
0.355892 0.133674 0.000000
0.391217 0.132163 0.000000
0.426151 0.130940 0.000000
0.460737 0.129930 0.000000
0.495010 0.129080 0.000000
0.528998 0.128355 0.000000
0.562725 0.127729 0.000000
0.596211 0.127182 0.000000
0.629475 0.126701 0.000000
0.662532 0.126273 0.000000
0.695395 0.125891 0.000000
0.728075 0.125547 0.000000
0.760584 0.125236 0.000000
0.792931 0.124953 0.000000
0.825124 0.124695 0.000000
0.857171 0.124457 0.000000
0.889078 0.124239 0.000000
0.920854 0.124038 0.000000
0.952502 0.123851 0.000000
0.984028 0.123677 0.000000
1.000000 0.123593 0.000000
1.000000 0.123593 0.000000
1.000000 0.123593 0.000000
1.000000 0.123593 0.000000
1.000000 0.123593 0.000000
0.003369 0.186523 0.003369
0.064136 0.186523 0.003369
0.116764 0.186523 0.003369
0.166703 0.186523 0.003369
0.209282 0.181146 0.000000
0.246933 0.174846 0.000000
0.283834 0.170560 0.000000
0.320121 0.167446 0.000000
0.355892 0.165077 0.000000
0.391217 0.163211 0.000000
0.426151 0.161701 0.000000
0.460737 0.160454 0.000000
0.495010 0.159404 0.000000
0.528998 0.158509 0.000000
0.562725 0.157736 0.000000
0.596211 0.157061 0.000000
0.629475 0.156466 0.000000
0.662532 0.155938 0.000000
0.695395 0.155466 0.000000
0.728075 0.155041 0.000000
0.760584 0.154657 0.000000
0.792931 0.154308 0.000000
0.825124 0.153988 0.000000
0.857171 0.153696 0.000000
0.889078 0.153426 0.000000
0.920854 0.153177 0.000000
0.952502 0.152946 0.000000
0.984028 0.152732 0.000000
1.000000 0.152629 0.000000
1.000000 0.152629 0.000000
1.000000 0.152629 0.000000
1.000000 0.152629 0.000000
1.000000 0.152629 0.000000
0.000000 0.214598 0.000000
0.059751 0.214598 0.000000
0.111499 0.214598 0.000000
0.160603 0.214598 0.000000
0.208065 0.214598 0.000000
0.246933 0.208347 0.000000
0.283834 0.203240 0.000000
0.320121 0.199529 0.000000
0.355892 0.196706 0.000000
0.391217 0.194482 0.000000
0.426151 0.192684 0.000000
0.460737 0.191197 0.000000
0.495010 0.189946 0.000000
0.528998 0.188880 0.000000
0.562725 0.187958 0.000000
0.596211 0.187154 0.000000
0.629475 0.186445 0.000000
0.662532 0.185816 0.000000
0.695395 0.185254 0.000000
0.728075 0.184748 0.000000
0.760584 0.184290 0.000000
0.792931 0.183873 0.000000
0.825124 0.183493 0.000000
0.857171 0.183144 0.000000
0.889078 0.182823 0.000000
0.920854 0.182526 0.000000
0.952502 0.182251 0.000000
0.984028 0.181996 0.000000
1.000000 0.181872 0.000000
1.000000 0.181872 0.000000
1.000000 0.181872 0.000000
1.000000 0.181872 0.000000
1.000000 0.181872 0.000000
0.000000 0.242848 0.000000
0.058200 0.242848 0.000000
0.108605 0.242848 0.000000
0.156434 0.242848 0.000000
0.202663 0.242848 0.000000
0.246933 0.242059 0.000000
0.283834 0.236125 0.000000
0.320121 0.231814 0.000000
0.355892 0.228534 0.000000
0.391217 0.225951 0.000000
0.426151 0.223861 0.000000
0.460737 0.222133 0.000000
0.495010 0.220681 0.000000
0.528998 0.219441 0.000000
0.562725 0.218371 0.000000
0.596211 0.217436 0.000000
0.629475 0.216613 0.000000
0.662532 0.215882 0.000000
0.695395 0.215228 0.000000
0.728075 0.214640 0.000000
0.760584 0.214108 0.000000
0.792931 0.213625 0.000000
0.825124 0.213183 0.000000
0.857171 0.212778 0.000000
0.889078 0.212404 0.000000
0.920854 0.212060 0.000000
0.952502 0.211740 0.000000
0.984028 0.211443 0.000000
1.000000 0.211300 0.000000
1.000000 0.211300 0.000000
1.000000 0.211300 0.000000
1.000000 0.211300 0.000000
1.000000 0.211300 0.000000
0.000000 0.271257 0.000000
0.057022 0.271257 0.000000
0.106407 0.271257 0.000000
0.153269 0.271257 0.000000
0.198563 0.271257 0.000000
0.242726 0.271257 0.000000
0.283834 0.269193 0.000000
0.320121 0.264279 0.000000
0.355892 0.260540 0.000000
0.391217 0.257594 0.000000
0.426151 0.255212 0.000000
0.460737 0.253242 0.000000
0.495010 0.251586 0.000000
0.528998 0.250173 0.000000
0.562725 0.248953 0.000000
0.596211 0.247887 0.000000
0.629475 0.246949 0.000000
0.662532 0.246116 0.000000
0.695395 0.245371 0.000000
0.728075 0.244700 0.000000
0.760584 0.244094 0.000000
0.792931 0.243542 0.000000
0.825124 0.243039 0.000000
0.857171 0.242576 0.000000
0.889078 0.242151 0.000000
0.920854 0.241758 0.000000
0.952502 0.241394 0.000000
0.984028 0.241055 0.000000
1.000000 0.240892 0.000000
1.000000 0.240892 0.000000
1.000000 0.240892 0.000000
1.000000 0.240892 0.000000
1.000000 0.240892 0.000000
0.000000 0.299808 0.000000
0.056098 0.299808 0.000000
0.104683 0.299808 0.000000
0.150785 0.299808 0.000000
0.195345 0.299808 0.000000
0.238793 0.299808 0.000000
0.281374 0.299808 0.000000
0.320121 0.296907 0.000000
0.355892 0.292706 0.000000
0.391217 0.289397 0.000000
0.426151 0.286720 0.000000
0.460737 0.284508 0.000000
0.495010 0.282647 0.000000
0.528998 0.281060 0.000000
0.562725 0.279689 0.000000
0.596211 0.278492 0.000000
0.629475 0.277437 0.000000
0.662532 0.276501 0.000000
0.695395 0.275664 0.000000
0.728075 0.274911 0.000000
0.760584 0.274230 0.000000
0.792931 0.273610 0.000000
0.825124 0.273044 0.000000
0.857171 0.272525 0.000000
0.889078 0.272047 0.000000
0.920854 0.271606 0.000000
0.952502 0.271196 0.000000
0.984028 0.270816 0.000000
1.000000 0.270633 0.000000
1.000000 0.270633 0.000000
1.000000 0.270633 0.000000
1.000000 0.270633 0.000000
1.000000 0.270633 0.000000
0.000000 0.328489 0.000000
0.055354 0.328489 0.000000
0.103294 0.328489 0.000000
0.148785 0.328489 0.000000
0.192754 0.328489 0.000000
0.235626 0.328489 0.000000
0.277642 0.328489 0.000000
0.318961 0.328489 0.000000
0.355892 0.325019 0.000000
0.391217 0.321345 0.000000
0.426151 0.318372 0.000000
0.460737 0.315916 0.000000
0.495010 0.313850 0.000000
0.528998 0.312087 0.000000
0.562725 0.310565 0.000000
0.596211 0.309236 0.000000
0.629475 0.308065 0.000000
0.662532 0.307025 0.000000
0.695395 0.306096 0.000000
0.728075 0.305260 0.000000
0.760584 0.304503 0.000000
0.792931 0.303815 0.000000
0.825124 0.303187 0.000000
0.857171 0.302610 0.000000
0.889078 0.302080 0.000000
0.920854 0.301589 0.000000
0.952502 0.301135 0.000000
0.984028 0.300713 0.000000
1.000000 0.300509 0.000000
1.000000 0.300509 0.000000
1.000000 0.300509 0.000000
1.000000 0.300509 0.000000
1.000000 0.300509 0.000000
0.000000 0.357290 0.000000
0.054742 0.357290 0.000000
0.102153 0.357290 0.000000
0.147140 0.357290 0.000000
0.190623 0.357290 0.000000
0.233021 0.357290 0.000000
0.274573 0.357290 0.000000
0.315435 0.357290 0.000000
0.355716 0.357290 0.000000
0.391217 0.353426 0.000000
0.426151 0.350157 0.000000
0.460737 0.347455 0.000000
0.495010 0.345183 0.000000
0.528998 0.343244 0.000000
0.562725 0.341570 0.000000
0.596211 0.340108 0.000000
0.629475 0.338820 0.000000
0.662532 0.337677 0.000000
0.695395 0.336655 0.000000
0.728075 0.335735 0.000000
0.760584 0.334903 0.000000
0.792931 0.334146 0.000000
0.825124 0.333455 0.000000
0.857171 0.332821 0.000000
0.889078 0.332238 0.000000
0.920854 0.331698 0.000000
0.952502 0.331199 0.000000
0.984028 0.330734 0.000000
1.000000 0.330510 0.000000
1.000000 0.330510 0.000000
1.000000 0.330510 0.000000
1.000000 0.330510 0.000000
1.000000 0.330510 0.000000
0.000000 0.386202 0.000000
0.054230 0.386202 0.000000
0.101197 0.386202 0.000000
0.145764 0.386202 0.000000
0.188841 0.386202 0.000000
0.230842 0.386202 0.000000
0.272006 0.386202 0.000000
0.312486 0.386202 0.000000
0.352390 0.386202 0.000000
0.391217 0.385631 0.000000
0.426151 0.382064 0.000000
0.460737 0.379116 0.000000
0.495010 0.376637 0.000000
0.528998 0.374522 0.000000
0.562725 0.372694 0.000000
0.596211 0.371099 0.000000
0.629475 0.369694 0.000000
0.662532 0.368447 0.000000
0.695395 0.367332 0.000000
0.728075 0.366328 0.000000
0.760584 0.365420 0.000000
0.792931 0.364594 0.000000
0.825124 0.363840 0.000000
0.857171 0.363149 0.000000
0.889078 0.362512 0.000000
0.920854 0.361923 0.000000
0.952502 0.361378 0.000000
0.984028 0.360871 0.000000
1.000000 0.360627 0.000000
1.000000 0.360627 0.000000
1.000000 0.360627 0.000000
1.000000 0.360627 0.000000
1.000000 0.360627 0.000000
0.000000 0.415218 0.000000
0.053796 0.415218 0.000000
0.100387 0.415218 0.000000
0.144597 0.415218 0.000000
0.187329 0.415218 0.000000
0.228994 0.415218 0.000000
0.269828 0.415218 0.000000
0.309983 0.415218 0.000000
0.349568 0.415218 0.000000
0.388659 0.415218 0.000000
0.426151 0.414085 0.000000
0.460737 0.410890 0.000000
0.495010 0.408203 0.000000
0.528998 0.405911 0.000000
0.562725 0.403930 0.000000
0.596211 0.402202 0.000000
0.629475 0.400679 0.000000
0.662532 0.399327 0.000000
0.695395 0.398118 0.000000
0.728075 0.397031 0.000000
0.760584 0.396047 0.000000
0.792931 0.395152 0.000000
0.825124 0.394334 0.000000
0.857171 0.393585 0.000000
0.889078 0.392894 0.000000
0.920854 0.392257 0.000000
0.952502 0.391666 0.000000
0.984028 0.391117 0.000000
1.000000 0.390852 0.000000
1.000000 0.390852 0.000000
1.000000 0.390852 0.000000
1.000000 0.390852 0.000000
1.000000 0.390852 0.000000
0.000000 0.444331 0.000000
0.053423 0.444331 0.000000
0.099691 0.444331 0.000000
0.143594 0.444331 0.000000
0.186029 0.444331 0.000000
0.227405 0.444331 0.000000
0.267956 0.444331 0.000000
0.307833 0.444331 0.000000
0.347143 0.444331 0.000000
0.385963 0.444331 0.000000
0.424353 0.444331 0.000000
0.460737 0.442771 0.000000
0.495010 0.439875 0.000000
0.528998 0.437405 0.000000
0.562725 0.435271 0.000000
0.596211 0.433408 0.000000
0.629475 0.431767 0.000000
0.662532 0.430310 0.000000
0.695395 0.429008 0.000000
0.728075 0.427836 0.000000
0.760584 0.426775 0.000000
0.792931 0.425811 0.000000
0.825124 0.424930 0.000000
0.857171 0.424122 0.000000
0.889078 0.423379 0.000000
0.920854 0.422692 0.000000
0.952502 0.422055 0.000000
0.984028 0.421463 0.000000
1.000000 0.421178 0.000000
1.000000 0.421178 0.000000
1.000000 0.421178 0.000000
1.000000 0.421178 0.000000
1.000000 0.421178 0.000000
0.000000 0.473535 0.000000
0.053099 0.473535 0.000000
0.099086 0.473535 0.000000
0.142723 0.473535 0.000000
0.184901 0.473535 0.000000
0.226026 0.473535 0.000000
0.266331 0.473535 0.000000
0.305967 0.473535 0.000000
0.345038 0.473535 0.000000
0.383622 0.473535 0.000000
0.421780 0.473535 0.000000
0.459557 0.473535 0.000000
0.495010 0.471647 0.000000
0.528998 0.468998 0.000000
0.562725 0.466710 0.000000
0.596211 0.464712 0.000000
0.629475 0.462953 0.000000
0.662532 0.461391 0.000000
0.695395 0.459994 0.000000
0.728075 0.458737 0.000000
0.760584 0.457600 0.000000
0.792931 0.456566 0.000000
0.825124 0.455622 0.000000
0.857171 0.454756 0.000000
0.889078 0.453958 0.000000
0.920854 0.453222 0.000000
0.952502 0.452539 0.000000
0.984028 0.451904 0.000000
1.000000 0.451599 0.000000
1.000000 0.451599 0.000000
1.000000 0.451599 0.000000
1.000000 0.451599 0.000000
1.000000 0.451599 0.000000
0.000000 0.502825 0.000000
0.052815 0.502825 0.000000
0.098556 0.502825 0.000000
0.141960 0.502825 0.000000
0.183913 0.502825 0.000000
0.224818 0.502825 0.000000
0.264907 0.502825 0.000000
0.304331 0.502825 0.000000
0.343193 0.502825 0.000000
0.381572 0.502825 0.000000
0.419525 0.502825 0.000000
0.457100 0.502825 0.000000
0.494334 0.502825 0.000000
0.528998 0.500684 0.000000
0.562725 0.498241 0.000000
0.596211 0.496109 0.000000
0.629475 0.494230 0.000000
0.662532 0.492563 0.000000
0.695395 0.491072 0.000000
0.728075 0.489730 0.000000
0.760584 0.488516 0.000000
0.792931 0.487412 0.000000
0.825124 0.486404 0.000000
0.857171 0.485480 0.000000
0.889078 0.484628 0.000000
0.920854 0.483842 0.000000
0.952502 0.483113 0.000000
0.984028 0.482435 0.000000
1.000000 0.482109 0.000000
1.000000 0.482109 0.000000
1.000000 0.482109 0.000000
1.000000 0.482109 0.000000
1.000000 0.482109 0.000000
0.000000 0.532196 0.000000
0.052564 0.532196 0.000000
0.098089 0.532196 0.000000
0.141286 0.532196 0.000000
0.183040 0.532196 0.000000
0.223751 0.532196 0.000000
0.263650 0.532196 0.000000
0.302886 0.532196 0.000000
0.341564 0.532196 0.000000
0.379760 0.532196 0.000000
0.417533 0.532196 0.000000
0.454930 0.532196 0.000000
0.491988 0.532196 0.000000
0.528738 0.532196 0.000000
0.562725 0.529860 0.000000
0.596211 0.527592 0.000000
0.629475 0.525595 0.000000
0.662532 0.523821 0.000000
0.695395 0.522236 0.000000
0.728075 0.520809 0.000000
0.760584 0.519518 0.000000
0.792931 0.518344 0.000000
0.825124 0.517272 0.000000
0.857171 0.516289 0.000000
0.889078 0.515383 0.000000
0.920854 0.514547 0.000000
0.952502 0.513772 0.000000
0.984028 0.513051 0.000000
1.000000 0.512704 0.000000
1.000000 0.512704 0.000000
1.000000 0.512704 0.000000
1.000000 0.512704 0.000000
1.000000 0.512704 0.000000
0.000000 0.561645 0.000000
0.052341 0.561645 0.000000
0.097672 0.561645 0.000000
0.140687 0.561645 0.000000
0.182263 0.561645 0.000000
0.222801 0.561645 0.000000
0.262531 0.561645 0.000000
0.301601 0.561645 0.000000
0.340115 0.561645 0.000000
0.378149 0.561645 0.000000
0.415762 0.561645 0.000000
0.453000 0.561645 0.000000
0.489900 0.561645 0.000000
0.526494 0.561645 0.000000
0.562725 0.561562 0.000000
0.596211 0.559159 0.000000
0.629475 0.557042 0.000000
0.662532 0.555163 0.000000
0.695395 0.553482 0.000000
0.728075 0.551970 0.000000
0.760584 0.550602 0.000000
0.792931 0.549358 0.000000
0.825124 0.548221 0.000000
0.857171 0.547179 0.000000
0.889078 0.546220 0.000000
0.920854 0.545333 0.000000
0.952502 0.544512 0.000000
0.984028 0.543748 0.000000
1.000000 0.543380 0.000000
1.000000 0.543380 0.000000
1.000000 0.543380 0.000000
1.000000 0.543380 0.000000
1.000000 0.543380 0.000000
0.000000 0.591168 0.000000
0.052142 0.591168 0.000000
0.097300 0.591168 0.000000
0.140150 0.591168 0.000000
0.181568 0.591168 0.000000
0.221951 0.591168 0.000000
0.261530 0.591168 0.000000
0.300450 0.591168 0.000000
0.338817 0.591168 0.000000
0.376706 0.591168 0.000000
0.414176 0.591168 0.000000
0.451272 0.591168 0.000000
0.488031 0.591168 0.000000
0.524486 0.591168 0.000000
0.560660 0.591168 0.000000
0.596211 0.590805 0.000000
0.629475 0.588568 0.000000
0.662532 0.586582 0.000000
0.695395 0.584806 0.000000
0.728075 0.583209 0.000000
0.760584 0.581763 0.000000
0.792931 0.580449 0.000000
0.825124 0.579248 0.000000
0.857171 0.578147 0.000000
0.889078 0.577133 0.000000
0.920854 0.576196 0.000000
0.952502 0.575328 0.000000
0.984028 0.574521 0.000000
1.000000 0.574133 0.000000
1.000000 0.574133 0.000000
1.000000 0.574133 0.000000
1.000000 0.574133 0.000000
1.000000 0.574133 0.000000
0.000000 0.620761 0.000000
0.051962 0.620761 0.000000
0.096964 0.620761 0.000000
0.139667 0.620761 0.000000
0.180942 0.620761 0.000000
0.221186 0.620761 0.000000
0.260628 0.620761 0.000000
0.299415 0.620761 0.000000
0.337649 0.620761 0.000000
0.375408 0.620761 0.000000
0.412748 0.620761 0.000000
0.449716 0.620761 0.000000
0.486349 0.620761 0.000000
0.522677 0.620761 0.000000
0.558727 0.620761 0.000000
0.594521 0.620761 0.000000
0.629475 0.620169 0.000000
0.662532 0.618077 0.000000
0.695395 0.616206 0.000000
0.728075 0.614522 0.000000
0.760584 0.612999 0.000000
0.792931 0.611614 0.000000
0.825124 0.610349 0.000000
0.857171 0.609189 0.000000
0.889078 0.608120 0.000000
0.920854 0.607133 0.000000
0.952502 0.606219 0.000000
0.984028 0.605368 0.000000
1.000000 0.604959 0.000000
1.000000 0.604959 0.000000
1.000000 0.604959 0.000000
1.000000 0.604959 0.000000
1.000000 0.604959 0.000000
0.000000 0.650421 0.000000
0.051799 0.650421 0.000000
0.096661 0.650421 0.000000
0.139230 0.650421 0.000000
0.180375 0.650421 0.000000
0.220494 0.650421 0.000000
0.259812 0.650421 0.000000
0.298477 0.650421 0.000000
0.336592 0.650421 0.000000
0.374232 0.650421 0.000000
0.411455 0.650421 0.000000
0.448308 0.650421 0.000000
0.484826 0.650421 0.000000
0.521041 0.650421 0.000000
0.556978 0.650421 0.000000
0.592659 0.650421 0.000000
0.628103 0.650421 0.000000
0.662532 0.649643 0.000000
0.695395 0.647676 0.000000
0.728075 0.645907 0.000000
0.760584 0.644306 0.000000
0.792931 0.642850 0.000000
0.825124 0.641520 0.000000
0.857171 0.640301 0.000000
0.889078 0.639178 0.000000
0.920854 0.638141 0.000000
0.952502 0.637179 0.000000
0.984028 0.636286 0.000000
1.000000 0.635855 0.000000
1.000000 0.635855 0.000000
1.000000 0.635855 0.000000
1.000000 0.635855 0.000000
1.000000 0.635855 0.000000
0.000000 0.680146 0.000000
0.051651 0.680146 0.000000
0.096385 0.680146 0.000000
0.138832 0.680146 0.000000
0.179860 0.680146 0.000000
0.219864 0.680146 0.000000
0.259070 0.680146 0.000000
0.297625 0.680146 0.000000
0.335631 0.680146 0.000000
0.373163 0.680146 0.000000
0.410280 0.680146 0.000000
0.447027 0.680146 0.000000
0.483442 0.680146 0.000000
0.519553 0.680146 0.000000
0.555387 0.680146 0.000000
0.590967 0.680146 0.000000
0.626309 0.680146 0.000000
0.661431 0.680146 0.000000
0.695395 0.679215 0.000000
0.728075 0.677360 0.000000
0.760584 0.675681 0.000000
0.792931 0.674154 0.000000
0.825124 0.672760 0.000000
0.857171 0.671481 0.000000
0.889078 0.670303 0.000000
0.920854 0.669215 0.000000
0.952502 0.668207 0.000000
0.984028 0.667270 0.000000
1.000000 0.666819 0.000000
1.000000 0.666819 0.000000
1.000000 0.666819 0.000000
1.000000 0.666819 0.000000
1.000000 0.666819 0.000000
0.000000 0.709933 0.000000
0.051516 0.709933 0.000000
0.096133 0.709933 0.000000
0.138469 0.709933 0.000000
0.179390 0.709933 0.000000
0.219289 0.709933 0.000000
0.258392 0.709933 0.000000
0.296847 0.709933 0.000000
0.334753 0.709933 0.000000
0.372188 0.709933 0.000000
0.409208 0.709933 0.000000
0.445859 0.709933 0.000000
0.482177 0.709933 0.000000
0.518194 0.709933 0.000000
0.553935 0.709933 0.000000
0.589421 0.709933 0.000000
0.624671 0.709933 0.000000
0.659702 0.709933 0.000000
0.694527 0.709933 0.000000
0.728075 0.708878 0.000000
0.760584 0.707121 0.000000
0.792931 0.705524 0.000000
0.825124 0.704064 0.000000
0.857171 0.702726 0.000000
0.889078 0.701493 0.000000
0.920854 0.700355 0.000000
0.952502 0.699300 0.000000
0.984028 0.698319 0.000000
1.000000 0.697847 0.000000
1.000000 0.697847 0.000000
1.000000 0.697847 0.000000
1.000000 0.697847 0.000000
1.000000 0.697847 0.000000
0.000000 0.739780 0.000000
0.051392 0.739780 0.000000
0.095902 0.739780 0.000000
0.138136 0.739780 0.000000
0.178959 0.739780 0.000000
0.218762 0.739780 0.000000
0.257772 0.739780 0.000000
0.296133 0.739780 0.000000
0.333949 0.739780 0.000000
0.371293 0.739780 0.000000
0.408224 0.739780 0.000000
0.444787 0.739780 0.000000
0.481019 0.739780 0.000000
0.516949 0.739780 0.000000
0.552604 0.739780 0.000000
0.588005 0.739780 0.000000
0.623170 0.739780 0.000000
0.658117 0.739780 0.000000
0.692858 0.739780 0.000000
0.727406 0.739780 0.000000
0.760584 0.738625 0.000000
0.792931 0.736956 0.000000
0.825124 0.735432 0.000000
0.857171 0.734033 0.000000
0.889078 0.732746 0.000000
0.920854 0.731557 0.000000
0.952502 0.730455 0.000000
0.984028 0.729430 0.000000
