app/src/main/assets/luts/underexposed.cube
TITLE "Underexposed"
LUT_3D_SIZE 5
DOMAIN_MIN 0.0 0.0 0.0
DOMAIN_MAX 1.0 1.0 1.0
0.000000 0.000000 0.000000
0.144957 0.000000 0.000000
0.344768 0.000000 0.000000
0.572322 0.000000 0.000000
0.820000 0.000000 0.000000
0.000000 0.144957 0.000000
0.144957 0.144957 0.000000
0.344768 0.144957 0.000000
0.572322 0.144957 0.000000
0.820000 0.144957 0.000000
0.000000 0.344768 0.000000
0.144957 0.344768 0.000000
0.344768 0.344768 0.000000
0.572322 0.344768 0.000000
0.820000 0.344768 0.000000
0.000000 0.572322 0.000000
0.144957 0.572322 0.000000
0.344768 0.572322 0.000000
0.572322 0.572322 0.000000
0.820000 0.572322 0.000000
0.000000 0.820000 0.000000
0.144957 0.820000 0.000000
0.344768 0.820000 0.000000
0.572322 0.820000 0.000000
0.820000 0.820000 0.000000
0.000000 0.000000 0.150260
0.144957 0.000000 0.150260
0.344768 0.000000 0.150260
0.572322 0.000000 0.150260
0.820000 0.000000 0.150260
0.000000 0.144957 0.150260
0.144957 0.144957 0.150260
0.344768 0.144957 0.150260
0.572322 0.144957 0.150260
0.820000 0.144957 0.150260
0.000000 0.344768 0.150260
0.144957 0.344768 0.150260
0.344768 0.344768 0.150260
0.572322 0.344768 0.150260
0.820000 0.344768 0.150260
0.000000 0.572322 0.150260
0.144957 0.572322 0.150260
0.344768 0.572322 0.150260
0.572322 0.572322 0.150260
0.820000 0.572322 0.150260
0.000000 0.820000 0.150260
0.144957 0.820000 0.150260
0.344768 0.820000 0.150260
0.572322 0.820000 0.150260
0.820000 0.820000 0.150260
0.000000 0.000000 0.357381
0.144957 0.000000 0.357381
0.344768 0.000000 0.357381
0.572322 0.000000 0.357381
0.820000 0.000000 0.357381
0.000000 0.144957 0.357381
0.144957 0.144957 0.357381
0.344768 0.144957 0.357381
0.572322 0.144957 0.357381
0.820000 0.144957 0.357381
0.000000 0.344768 0.357381
0.144957 0.344768 0.357381
0.344768 0.344768 0.357381
0.572322 0.344768 0.357381
0.820000 0.344768 0.357381
0.000000 0.572322 0.357381
0.144957 0.572322 0.357381
0.344768 0.572322 0.357381
0.572322 0.572322 0.357381
0.820000 0.572322 0.357381
0.000000 0.820000 0.357381
0.144957 0.820000 0.357381
0.344768 0.820000 0.357381
0.572322 0.820000 0.357381
0.820000 0.820000 0.357381
0.000000 0.000000 0.593261
0.144957 0.000000 0.593261
0.344768 0.000000 0.593261
0.572322 0.000000 0.593261
0.820000 0.000000 0.593261
0.000000 0.144957 0.593261
0.144957 0.144957 0.593261
0.344768 0.144957 0.593261
0.572322 0.144957 0.593261
0.820000 0.144957 0.593261
0.000000 0.344768 0.593261
0.144957 0.344768 0.593261
0.344768 0.344768 0.593261
0.572322 0.344768 0.593261
0.820000 0.344768 0.593261
0.000000 0.572322 0.593261
0.144957 0.572322 0.593261
0.344768 0.572322 0.593261
0.572322 0.572322 0.593261
0.820000 0.572322 0.593261
0.000000 0.820000 0.593261
0.144957 0.820000 0.593261
0.344768 0.820000 0.593261
0.572322 0.820000 0.593261
0.820000 0.820000 0.593261
0.000000 0.000000 0.850000
0.144957 0.000000 0.850000
0.344768 0.000000 0.850000
0.572322 0.000000 0.850000
0.820000 0.000000 0.850000
0.000000 0.144957 0.850000
0.144957 0.144957 0.850000
0.344768 0.144957 0.850000
0.572322 0.144957 0.850000
0.820000 0.144957 0.850000
0.000000 0.344768 0.850000
0.144957 0.344768 0.850000
0.344768 0.344768 0.850000
0.572322 0.344768 0.850000
0.820000 0.344768 0.850000
0.000000 0.572322 0.850000
0.144957 0.572322 0.850000
0.344768 0.572322 0.850000
0.572322 0.572322 0.850000
0.820000 0.572322 0.850000
0.000000 0.820000 0.850000
0.144957 0.820000 0.850000
0.344768 0.820000 0.850000
0.572322 0.820000 0.850000
0.820000 0.820000 0.850000
