app/src/main/assets/luts/underexposed.cube
TITLE "Underexposed"
LUT_3D_SIZE 33
DOMAIN_MIN 0.0 0.0 0.0
DOMAIN_MAX 1.0 1.0 1.0
0.000000 0.000000 0.000000
0.010774 0.000000 0.000000
0.025625 0.000000 0.000000
0.042538 0.000000 0.000000
0.060947 0.000000 0.000000
0.080554 0.000000 0.000000
0.101173 0.000000 0.000000
0.122673 0.000000 0.000000
0.144957 0.000000 0.000000
0.167950 0.000000 0.000000
0.191592 0.000000 0.000000
0.215833 0.000000 0.000000
0.240632 0.000000 0.000000
0.265953 0.000000 0.000000
0.291767 0.000000 0.000000
0.318046 0.000000 0.000000
0.344768 0.000000 0.000000
0.371910 0.000000 0.000000
0.399454 0.000000 0.000000
0.427384 0.000000 0.000000
0.455684 0.000000 0.000000
0.484340 0.000000 0.000000
0.513340 0.000000 0.000000
0.542670 0.000000 0.000000
0.572322 0.000000 0.000000
0.602284 0.000000 0.000000
0.632547 0.000000 0.000000
0.663103 0.000000 0.000000
0.693943 0.000000 0.000000
0.725060 0.000000 0.000000
0.756446 0.000000 0.000000
0.788095 0.000000 0.000000
0.820000 0.000000 0.000000
0.000000 0.010774 0.000000
0.010774 0.010774 0.000000
0.025625 0.010774 0.000000
0.042538 0.010774 0.000000
0.060947 0.010774 0.000000
0.080554 0.010774 0.000000
0.101173 0.010774 0.000000
0.122673 0.010774 0.000000
0.144957 0.010774 0.000000
0.167950 0.010774 0.000000
0.191592 0.010774 0.000000
0.215833 0.010774 0.000000
0.240632 0.010774 0.000000
0.265953 0.010774 0.000000
0.291767 0.010774 0.000000
0.318046 0.010774 0.000000
0.344768 0.010774 0.000000
0.371910 0.010774 0.000000
0.399454 0.010774 0.000000
0.427384 0.010774 0.000000
0.455684 0.010774 0.000000
0.484340 0.010774 0.000000
0.513340 0.010774 0.000000
0.542670 0.010774 0.000000
0.572322 0.010774 0.000000
0.602284 0.010774 0.000000
0.632547 0.010774 0.000000
0.663103 0.010774 0.000000
0.693943 0.010774 0.000000
0.725060 0.010774 0.000000
0.756446 0.010774 0.000000
0.788095 0.010774 0.000000
0.820000 0.010774 0.000000
0.000000 0.025625 0.000000
0.010774 0.025625 0.000000
0.025625 0.025625 0.000000
0.042538 0.025625 0.000000
0.060947 0.025625 0.000000
0.080554 0.025625 0.000000
0.101173 0.025625 0.000000
0.122673 0.025625 0.000000
0.144957 0.025625 0.000000
0.167950 0.025625 0.000000
0.191592 0.025625 0.000000
0.215833 0.025625 0.000000
0.240632 0.025625 0.000000
0.265953 0.025625 0.000000
0.291767 0.025625 0.000000
0.318046 0.025625 0.000000
0.344768 0.025625 0.000000
0.371910 0.025625 0.000000
0.399454 0.025625 0.000000
0.427384 0.025625 0.000000
0.455684 0.025625 0.000000
0.484340 0.025625 0.000000
0.513340 0.025625 0.000000
0.542670 0.025625 0.000000
0.572322 0.025625 0.000000
0.602284 0.025625 0.000000
0.632547 0.025625 0.000000
0.663103 0.025625 0.000000
0.693943 0.025625 0.000000
0.725060 0.025625 0.000000
0.756446 0.025625 0.000000
0.788095 0.025625 0.000000
0.820000 0.025625 0.000000
0.000000 0.042538 0.000000
0.010774 0.042538 0.000000
0.025625 0.042538 0.000000
0.042538 0.042538 0.000000
0.060947 0.042538 0.000000
0.080554 0.042538 0.000000
0.101173 0.042538 0.000000
0.122673 0.042538 0.000000
0.144957 0.042538 0.000000
0.167950 0.042538 0.000000
0.191592 0.042538 0.000000
0.215833 0.042538 0.000000
0.240632 0.042538 0.000000
0.265953 0.042538 0.000000
0.291767 0.042538 0.000000
0.318046 0.042538 0.000000
0.344768 0.042538 0.000000
0.371910 0.042538 0.000000
0.399454 0.042538 0.000000
0.427384 0.042538 0.000000
0.455684 0.042538 0.000000
0.484340 0.042538 0.000000
0.513340 0.042538 0.000000
0.542670 0.042538 0.000000
0.572322 0.042538 0.000000
0.602284 0.042538 0.000000
0.632547 0.042538 0.000000
0.663103 0.042538 0.000000
0.693943 0.042538 0.000000
0.725060 0.042538 0.000000
0.756446 0.042538 0.000000
0.788095 0.042538 0.000000
0.820000 0.042538 0.000000
0.000000 0.060947 0.000000
0.010774 0.060947 0.000000
0.025625 0.060947 0.000000
0.042538 0.060947 0.000000
0.060947 0.060947 0.000000
0.080554 0.060947 0.000000
0.101173 0.060947 0.000000
0.122673 0.060947 0.000000
0.144957 0.060947 0.000000
0.167950 0.060947 0.000000
0.191592 0.060947 0.000000
0.215833 0.060947 0.000000
0.240632 0.060947 0.000000
0.265953 0.060947 0.000000
0.291767 0.060947 0.000000
0.318046 0.060947 0.000000
0.344768 0.060947 0.000000
0.371910 0.060947 0.000000
0.399454 0.060947 0.000000
0.427384 0.060947 0.000000
0.455684 0.060947 0.000000
0.484340 0.060947 0.000000
0.513340 0.060947 0.000000
0.542670 0.060947 0.000000
0.572322 0.060947 0.000000
0.602284 0.060947 0.000000
0.632547 0.060947 0.000000
0.663103 0.060947 0.000000
0.693943 0.060947 0.000000
0.725060 0.060947 0.000000
0.756446 0.060947 0.000000
0.788095 0.060947 0.000000
0.820000 0.060947 0.000000
0.000000 0.080554 0.000000
0.010774 0.080554 0.000000
0.025625 0.080554 0.000000
0.042538 0.080554 0.000000
0.060947 0.080554 0.000000
0.080554 0.080554 0.000000
0.101173 0.080554 0.000000
0.122673 0.080554 0.000000
0.144957 0.080554 0.000000
0.167950 0.080554 0.000000
0.191592 0.080554 0.000000
0.215833 0.080554 0.000000
0.240632 0.080554 0.000000
0.265953 0.080554 0.000000
0.291767 0.080554 0.000000
0.318046 0.080554 0.000000
0.344768 0.080554 0.000000
0.371910 0.080554 0.000000
0.399454 0.080554 0.000000
0.427384 0.080554 0.000000
0.455684 0.080554 0.000000
0.484340 0.080554 0.000000
0.513340 0.080554 0.000000
0.542670 0.080554 0.000000
0.572322 0.080554 0.000000
0.602284 0.080554 0.000000
0.632547 0.080554 0.000000
0.663103 0.080554 0.000000
0.693943 0.080554 0.000000
0.725060 0.080554 0.000000
0.756446 0.080554 0.000000
0.788095 0.080554 0.000000
0.820000 0.080554 0.000000
0.000000 0.101173 0.000000
0.010774 0.101173 0.000000
0.025625 0.101173 0.000000
0.042538 0.101173 0.000000
0.060947 0.101173 0.000000
0.080554 0.101173 0.000000
0.101173 0.101173 0.000000
0.122673 0.101173 0.000000
0.144957 0.101173 0.000000
0.167950 0.101173 0.000000
0.191592 0.101173 0.000000
0.215833 0.101173 0.000000
0.240632 0.101173 0.000000
0.265953 0.101173 0.000000
0.291767 0.101173 0.000000
0.318046 0.101173 0.000000
0.344768 0.101173 0.000000
0.371910 0.101173 0.000000
0.399454 0.101173 0.000000
0.427384 0.101173 0.000000
0.455684 0.101173 0.000000
0.484340 0.101173 0.000000
0.513340 0.101173 0.000000
0.542670 0.101173 0.000000
0.572322 0.101173 0.000000
0.602284 0.101173 0.000000
0.632547 0.101173 0.000000
0.663103 0.101173 0.000000
0.693943 0.101173 0.000000
0.725060 0.101173 0.000000
0.756446 0.101173 0.000000
0.788095 0.101173 0.000000
0.820000 0.101173 0.000000
0.000000 0.122673 0.000000
0.010774 0.122673 0.000000
0.025625 0.122673 0.000000
0.042538 0.122673 0.000000
0.060947 0.122673 0.000000
0.080554 0.122673 0.000000
0.101173 0.122673 0.000000
0.122673 0.122673 0.000000
0.144957 0.122673 0.000000
0.167950 0.122673 0.000000
0.191592 0.122673 0.000000
0.215833 0.122673 0.000000
0.240632 0.122673 0.000000
0.265953 0.122673 0.000000
0.291767 0.122673 0.000000
0.318046 0.122673 0.000000
0.344768 0.122673 0.000000
0.371910 0.122673 0.000000
0.399454 0.122673 0.000000
0.427384 0.122673 0.000000
0.455684 0.122673 0.000000
0.484340 0.122673 0.000000
0.513340 0.122673 0.000000
0.542670 0.122673 0.000000
0.572322 0.122673 0.000000
0.602284 0.122673 0.000000
0.632547 0.122673 0.000000
0.663103 0.122673 0.000000
0.693943 0.122673 0.000000
0.725060 0.122673 0.000000
0.756446 0.122673 0.000000
0.788095 0.122673 0.000000
0.820000 0.122673 0.000000
0.000000 0.144957 0.000000
0.010774 0.144957 0.000000
0.025625 0.144957 0.000000
0.042538 0.144957 0.000000
0.060947 0.144957 0.000000
0.080554 0.144957 0.000000
0.101173 0.144957 0.000000
0.122673 0.144957 0.000000
0.144957 0.144957 0.000000
0.167950 0.144957 0.000000
0.191592 0.144957 0.000000
0.215833 0.144957 0.000000
0.240632 0.144957 0.000000
0.265953 0.144957 0.000000
0.291767 0.144957 0.000000
0.318046 0.144957 0.000000
0.344768 0.144957 0.000000
0.371910 0.144957 0.000000
0.399454 0.144957 0.000000
0.427384 0.144957 0.000000
0.455684 0.144957 0.000000
0.484340 0.144957 0.000000
0.513340 0.144957 0.000000
0.542670 0.144957 0.000000
0.572322 0.144957 0.000000
0.602284 0.144957 0.000000
0.632547 0.144957 0.000000
0.663103 0.144957 0.000000
0.693943 0.144957 0.000000
0.725060 0.144957 0.000000
0.756446 0.144957 0.000000
0.788095 0.144957 0.000000
0.820000 0.144957 0.000000
0.000000 0.167950 0.000000
0.010774 0.167950 0.000000
0.025625 0.167950 0.000000
0.042538 0.167950 0.000000
0.060947 0.167950 0.000000
0.080554 0.167950 0.000000
0.101173 0.167950 0.000000
0.122673 0.167950 0.000000
0.144957 0.167950 0.000000
0.167950 0.167950 0.000000
0.191592 0.167950 0.000000
0.215833 0.167950 0.000000
0.240632 0.167950 0.000000
0.265953 0.167950 0.000000
0.291767 0.167950 0.000000
0.318046 0.167950 0.000000
0.344768 0.167950 0.000000
0.371910 0.167950 0.000000
0.399454 0.167950 0.000000
0.427384 0.167950 0.000000
0.455684 0.167950 0.000000
0.484340 0.167950 0.000000
0.513340 0.167950 0.000000
0.542670 0.167950 0.000000
0.572322 0.167950 0.000000
0.602284 0.167950 0.000000
0.632547 0.167950 0.000000
0.663103 0.167950 0.000000
0.693943 0.167950 0.000000
0.725060 0.167950 0.000000
0.756446 0.167950 0.000000
0.788095 0.167950 0.000000
0.820000 0.167950 0.000000
0.000000 0.191592 0.000000
0.010774 0.191592 0.000000
0.025625 0.191592 0.000000
0.042538 0.191592 0.000000
0.060947 0.191592 0.000000
0.080554 0.191592 0.000000
0.101173 0.191592 0.000000
0.122673 0.191592 0.000000
0.144957 0.191592 0.000000
0.167950 0.191592 0.000000
0.191592 0.191592 0.000000
0.215833 0.191592 0.000000
0.240632 0.191592 0.000000
0.265953 0.191592 0.000000
0.291767 0.191592 0.000000
0.318046 0.191592 0.000000
0.344768 0.191592 0.000000
0.371910 0.191592 0.000000
0.399454 0.191592 0.000000
0.427384 0.191592 0.000000
0.455684 0.191592 0.000000
0.484340 0.191592 0.000000
0.513340 0.191592 0.000000
0.542670 0.191592 0.000000
0.572322 0.191592 0.000000
0.602284 0.191592 0.000000
0.632547 0.191592 0.000000
0.663103 0.191592 0.000000
0.693943 0.191592 0.000000
0.725060 0.191592 0.000000
0.756446 0.191592 0.000000
0.788095 0.191592 0.000000
0.820000 0.191592 0.000000
0.000000 0.215833 0.000000
0.010774 0.215833 0.000000
0.025625 0.215833 0.000000
0.042538 0.215833 0.000000
0.060947 0.215833 0.000000
0.080554 0.215833 0.000000
0.101173 0.215833 0.000000
0.122673 0.215833 0.000000
0.144957 0.215833 0.000000
0.167950 0.215833 0.000000
0.191592 0.215833 0.000000
0.215833 0.215833 0.000000
0.240632 0.215833 0.000000
0.265953 0.215833 0.000000
0.291767 0.215833 0.000000
0.318046 0.215833 0.000000
0.344768 0.215833 0.000000
0.371910 0.215833 0.000000
0.399454 0.215833 0.000000
0.427384 0.215833 0.000000
0.455684 0.215833 0.000000
0.484340 0.215833 0.000000
0.513340 0.215833 0.000000
0.542670 0.215833 0.000000
0.572322 0.215833 0.000000
0.602284 0.215833 0.000000
0.632547 0.215833 0.000000
0.663103 0.215833 0.000000
0.693943 0.215833 0.000000
0.725060 0.215833 0.000000
0.756446 0.215833 0.000000
0.788095 0.215833 0.000000
0.820000 0.215833 0.000000
0.000000 0.240632 0.000000
0.010774 0.240632 0.000000
0.025625 0.240632 0.000000
0.042538 0.240632 0.000000
0.060947 0.240632 0.000000
0.080554 0.240632 0.000000
0.101173 0.240632 0.000000
0.122673 0.240632 0.000000
0.144957 0.240632 0.000000
0.167950 0.240632 0.000000
0.191592 0.240632 0.000000
0.215833 0.240632 0.000000
0.240632 0.240632 0.000000
0.265953 0.240632 0.000000
0.291767 0.240632 0.000000
0.318046 0.240632 0.000000
0.344768 0.240632 0.000000
0.371910 0.240632 0.000000
0.399454 0.240632 0.000000
0.427384 0.240632 0.000000
0.455684 0.240632 0.000000
0.484340 0.240632 0.000000
0.513340 0.240632 0.000000
0.542670 0.240632 0.000000
0.572322 0.240632 0.000000
0.602284 0.240632 0.000000
0.632547 0.240632 0.000000
0.663103 0.240632 0.000000
0.693943 0.240632 0.000000
0.725060 0.240632 0.000000
0.756446 0.240632 0.000000
0.788095 0.240632 0.000000
0.820000 0.240632 0.000000
0.000000 0.265953 0.000000
0.010774 0.265953 0.000000
0.025625 0.265953 0.000000
0.042538 0.265953 0.000000
0.060947 0.265953 0.000000
0.080554 0.265953 0.000000
0.101173 0.265953 0.000000
0.122673 0.265953 0.000000
0.144957 0.265953 0.000000
0.167950 0.265953 0.000000
0.191592 0.265953 0.000000
0.215833 0.265953 0.000000
0.240632 0.265953 0.000000
0.265953 0.265953 0.000000
0.291767 0.265953 0.000000
0.318046 0.265953 0.000000
0.344768 0.265953 0.000000
0.371910 0.265953 0.000000
0.399454 0.265953 0.000000
0.427384 0.265953 0.000000
0.455684 0.265953 0.000000
0.484340 0.265953 0.000000
0.513340 0.265953 0.000000
0.542670 0.265953 0.000000
0.572322 0.265953 0.000000
0.602284 0.265953 0.000000
0.632547 0.265953 0.000000
0.663103 0.265953 0.000000
0.693943 0.265953 0.000000
0.725060 0.265953 0.000000
0.756446 0.265953 0.000000
0.788095 0.265953 0.000000
0.820000 0.265953 0.000000
0.000000 0.291767 0.000000
0.010774 0.291767 0.000000
0.025625 0.291767 0.000000
0.042538 0.291767 0.000000
0.060947 0.291767 0.000000
0.080554 0.291767 0.000000
0.101173 0.291767 0.000000
0.122673 0.291767 0.000000
0.144957 0.291767 0.000000
0.167950 0.291767 0.000000
0.191592 0.291767 0.000000
0.215833 0.291767 0.000000
0.240632 0.291767 0.000000
0.265953 0.291767 0.000000
0.291767 0.291767 0.000000
0.318046 0.291767 0.000000
0.344768 0.291767 0.000000
0.371910 0.291767 0.000000
0.399454 0.291767 0.000000
0.427384 0.291767 0.000000
0.455684 0.291767 0.000000
0.484340 0.291767 0.000000
0.513340 0.291767 0.000000
0.542670 0.291767 0.000000
0.572322 0.291767 0.000000
0.602284 0.291767 0.000000
0.632547 0.291767 0.000000
0.663103 0.291767 0.000000
0.693943 0.291767 0.000000
0.725060 0.291767 0.000000
0.756446 0.291767 0.000000
0.788095 0.291767 0.000000
0.820000 0.291767 0.000000
0.000000 0.318046 0.000000
0.010774 0.318046 0.000000
0.025625 0.318046 0.000000
0.042538 0.318046 0.000000
0.060947 0.318046 0.000000
0.080554 0.318046 0.000000
0.101173 0.318046 0.000000
0.122673 0.318046 0.000000
0.144957 0.318046 0.000000
0.167950 0.318046 0.000000
0.191592 0.318046 0.000000
0.215833 0.318046 0.000000
0.240632 0.318046 0.000000
0.265953 0.318046 0.000000
0.291767 0.318046 0.000000
0.318046 0.318046 0.000000
0.344768 0.318046 0.000000
0.371910 0.318046 0.000000
0.399454 0.318046 0.000000
0.427384 0.318046 0.000000
0.455684 0.318046 0.000000
0.484340 0.318046 0.000000
0.513340 0.318046 0.000000
0.542670 0.318046 0.000000
0.572322 0.318046 0.000000
0.602284 0.318046 0.000000
0.632547 0.318046 0.000000
0.663103 0.318046 0.000000
0.693943 0.318046 0.000000
0.725060 0.318046 0.000000
0.756446 0.318046 0.000000
0.788095 0.318046 0.000000
0.820000 0.318046 0.000000
0.000000 0.344768 0.000000
0.010774 0.344768 0.000000
0.025625 0.344768 0.000000
0.042538 0.344768 0.000000
0.060947 0.344768 0.000000
0.080554 0.344768 0.000000
0.101173 0.344768 0.000000
0.122673 0.344768 0.000000
0.144957 0.344768 0.000000
0.167950 0.344768 0.000000
0.191592 0.344768 0.000000
0.215833 0.344768 0.000000
0.240632 0.344768 0.000000
0.265953 0.344768 0.000000
0.291767 0.344768 0.000000
0.318046 0.344768 0.000000
0.344768 0.344768 0.000000
0.371910 0.344768 0.000000
0.399454 0.344768 0.000000
0.427384 0.344768 0.000000
0.455684 0.344768 0.000000
0.484340 0.344768 0.000000
0.513340 0.344768 0.000000
0.542670 0.344768 0.000000
0.572322 0.344768 0.000000
0.602284 0.344768 0.000000
0.632547 0.344768 0.000000
0.663103 0.344768 0.000000
0.693943 0.344768 0.000000
0.725060 0.344768 0.000000
0.756446 0.344768 0.000000
0.788095 0.344768 0.000000
0.820000 0.344768 0.000000
0.000000 0.371910 0.000000
0.010774 0.371910 0.000000
0.025625 0.371910 0.000000
0.042538 0.371910 0.000000
0.060947 0.371910 0.000000
0.080554 0.371910 0.000000
0.101173 0.371910 0.000000
0.122673 0.371910 0.000000
0.144957 0.371910 0.000000
0.167950 0.371910 0.000000
0.191592 0.371910 0.000000
0.215833 0.371910 0.000000
0.240632 0.371910 0.000000
0.265953 0.371910 0.000000
0.291767 0.371910 0.000000
0.318046 0.371910 0.000000
0.344768 0.371910 0.000000
0.371910 0.371910 0.000000
0.399454 0.371910 0.000000
0.427384 0.371910 0.000000
0.455684 0.371910 0.000000
0.484340 0.371910 0.000000
0.513340 0.371910 0.000000
0.542670 0.371910 0.000000
0.572322 0.371910 0.000000
0.602284 0.371910 0.000000
0.632547 0.371910 0.000000
0.663103 0.371910 0.000000
0.693943 0.371910 0.000000
0.725060 0.371910 0.000000
0.756446 0.371910 0.000000
0.788095 0.371910 0.000000
0.820000 0.371910 0.000000
0.000000 0.399454 0.000000
0.010774 0.399454 0.000000
0.025625 0.399454 0.000000
0.042538 0.399454 0.000000
0.060947 0.399454 0.000000
0.080554 0.399454 0.000000
0.101173 0.399454 0.000000
0.122673 0.399454 0.000000
0.144957 0.399454 0.000000
0.167950 0.399454 0.000000
0.191592 0.399454 0.000000
0.215833 0.399454 0.000000
0.240632 0.399454 0.000000
0.265953 0.399454 0.000000
0.291767 0.399454 0.000000
0.318046 0.399454 0.000000
0.344768 0.399454 0.000000
0.371910 0.399454 0.000000
0.399454 0.399454 0.000000
0.427384 0.399454 0.000000
0.455684 0.399454 0.000000
0.484340 0.399454 0.000000
0.513340 0.399454 0.000000
0.542670 0.399454 0.000000
0.572322 0.399454 0.000000
0.602284 0.399454 0.000000
0.632547 0.399454 0.000000
0.663103 0.399454 0.000000
0.693943 0.399454 0.000000
0.725060 0.399454 0.000000
0.756446 0.399454 0.000000
0.788095 0.399454 0.000000
0.820000 0.399454 0.000000
0.000000 0.427384 0.000000
0.010774 0.427384 0.000000
0.025625 0.427384 0.000000
0.042538 0.427384 0.000000
0.060947 0.427384 0.000000
0.080554 0.427384 0.000000
0.101173 0.427384 0.000000
0.122673 0.427384 0.000000
0.144957 0.427384 0.000000
0.167950 0.427384 0.000000
0.191592 0.427384 0.000000
0.215833 0.427384 0.000000
0.240632 0.427384 0.000000
0.265953 0.427384 0.000000
0.291767 0.427384 0.000000
0.318046 0.427384 0.000000
0.344768 0.427384 0.000000
0.371910 0.427384 0.000000
0.399454 0.427384 0.000000
0.427384 0.427384 0.000000
0.455684 0.427384 0.000000
0.484340 0.427384 0.000000
0.513340 0.427384 0.000000
0.542670 0.427384 0.000000
0.572322 0.427384 0.000000
0.602284 0.427384 0.000000
0.632547 0.427384 0.000000
0.663103 0.427384 0.000000
0.693943 0.427384 0.000000
0.725060 0.427384 0.000000
0.756446 0.427384 0.000000
0.788095 0.427384 0.000000
0.820000 0.427384 0.000000
0.000000 0.455684 0.000000
0.010774 0.455684 0.000000
0.025625 0.455684 0.000000
0.042538 0.455684 0.000000
0.060947 0.455684 0.000000
0.080554 0.455684 0.000000
0.101173 0.455684 0.000000
0.122673 0.455684 0.000000
0.144957 0.455684 0.000000
0.167950 0.455684 0.000000
0.191592 0.455684 0.000000
0.215833 0.455684 0.000000
0.240632 0.455684 0.000000
0.265953 0.455684 0.000000
0.291767 0.455684 0.000000
0.318046 0.455684 0.000000
0.344768 0.455684 0.000000
0.371910 0.455684 0.000000
0.399454 0.455684 0.000000
0.427384 0.455684 0.000000
0.455684 0.455684 0.000000
0.484340 0.455684 0.000000
0.513340 0.455684 0.000000
0.542670 0.455684 0.000000
0.572322 0.455684 0.000000
0.602284 0.455684 0.000000
0.632547 0.455684 0.000000
0.663103 0.455684 0.000000
0.693943 0.455684 0.000000
0.725060 0.455684 0.000000
0.756446 0.455684 0.000000
0.788095 0.455684 0.000000
0.820000 0.455684 0.000000
0.000000 0.484340 0.000000
0.010774 0.484340 0.000000
0.025625 0.484340 0.000000
0.042538 0.484340 0.000000
0.060947 0.484340 0.000000
0.080554 0.484340 0.000000
0.101173 0.484340 0.000000
0.122673 0.484340 0.000000
0.144957 0.484340 0.000000
0.167950 0.484340 0.000000
0.191592 0.484340 0.000000
0.215833 0.484340 0.000000
0.240632 0.484340 0.000000
0.265953 0.484340 0.000000
0.291767 0.484340 0.000000
0.318046 0.484340 0.000000
0.344768 0.484340 0.000000
0.371910 0.484340 0.000000
0.399454 0.484340 0.000000
0.427384 0.484340 0.000000
0.455684 0.484340 0.000000
0.484340 0.484340 0.000000
0.513340 0.484340 0.000000
0.542670 0.484340 0.000000
0.572322 0.484340 0.000000
0.602284 0.484340 0.000000
0.632547 0.484340 0.000000
0.663103 0.484340 0.000000
0.693943 0.484340 0.000000
0.725060 0.484340 0.000000
0.756446 0.484340 0.000000
0.788095 0.484340 0.000000
0.820000 0.484340 0.000000
0.000000 0.513340 0.000000
0.010774 0.513340 0.000000
0.025625 0.513340 0.000000
0.042538 0.513340 0.000000
0.060947 0.513340 0.000000
0.080554 0.513340 0.000000
0.101173 0.513340 0.000000
0.122673 0.513340 0.000000
0.144957 0.513340 0.000000
0.167950 0.513340 0.000000
0.191592 0.513340 0.000000
0.215833 0.513340 0.000000
0.240632 0.513340 0.000000
0.265953 0.513340 0.000000
0.291767 0.513340 0.000000
0.318046 0.513340 0.000000
0.344768 0.513340 0.000000
0.371910 0.513340 0.000000
0.399454 0.513340 0.000000
0.427384 0.513340 0.000000
0.455684 0.513340 0.000000
0.484340 0.513340 0.000000
0.513340 0.513340 0.000000
0.542670 0.513340 0.000000
0.572322 0.513340 0.000000
0.602284 0.513340 0.000000
0.632547 0.513340 0.000000
0.663103 0.513340 0.000000
0.693943 0.513340 0.000000
0.725060 0.513340 0.000000
0.756446 0.513340 0.000000
0.788095 0.513340 0.000000
0.820000 0.513340 0.000000
0.000000 0.542670 0.000000
0.010774 0.542670 0.000000
0.025625 0.542670 0.000000
0.042538 0.542670 0.000000
0.060947 0.542670 0.000000
0.080554 0.542670 0.000000
0.101173 0.542670 0.000000
0.122673 0.542670 0.000000
0.144957 0.542670 0.000000
0.167950 0.542670 0.000000
0.191592 0.542670 0.000000
0.215833 0.542670 0.000000
0.240632 0.542670 0.000000
0.265953 0.542670 0.000000
0.291767 0.542670 0.000000
0.318046 0.542670 0.000000
0.344768 0.542670 0.000000
0.371910 0.542670 0.000000
0.399454 0.542670 0.000000
0.427384 0.542670 0.000000
0.455684 0.542670 0.000000
0.484340 0.542670 0.000000
0.513340 0.542670 0.000000
0.542670 0.542670 0.000000
0.572322 0.542670 0.000000
0.602284 0.542670 0.000000
0.632547 0.542670 0.000000
0.663103 0.542670 0.000000
0.693943 0.542670 0.000000
0.725060 0.542670 0.000000
0.756446 0.542670 0.000000
0.788095 0.542670 0.000000
0.820000 0.542670 0.000000
0.000000 0.572322 0.000000
0.010774 0.572322 0.000000
0.025625 0.572322 0.000000
0.042538 0.572322 0.000000
0.060947 0.572322 0.000000
0.080554 0.572322 0.000000
0.101173 0.572322 0.000000
0.122673 0.572322 0.000000
0.144957 0.572322 0.000000
0.167950 0.572322 0.000000
0.191592 0.572322 0.000000
0.215833 0.572322 0.000000
0.240632 0.572322 0.000000
0.265953 0.572322 0.000000
0.291767 0.572322 0.000000
0.318046 0.572322 0.000000
0.344768 0.572322 0.000000
0.371910 0.572322 0.000000
0.399454 0.572322 0.000000
0.427384 0.572322 0.000000
0.455684 0.572322 0.000000
0.484340 0.572322 0.000000
0.513340 0.572322 0.000000
0.542670 0.572322 0.000000
0.572322 0.572322 0.000000
0.602284 0.572322 0.000000
0.632547 0.572322 0.000000
0.663103 0.572322 0.000000
0.693943 0.572322 0.000000
0.725060 0.572322 0.000000
0.756446 0.572322 0.000000
0.788095 0.572322 0.000000
0.820000 0.572322 0.000000
0.000000 0.602284 0.000000
0.010774 0.602284 0.000000
0.025625 0.602284 0.000000
0.042538 0.602284 0.000000
0.060947 0.602284 0.000000
0.080554 0.602284 0.000000
0.101173 0.602284 0.000000
0.122673 0.602284 0.000000
0.144957 0.602284 0.000000
0.167950 0.602284 0.000000
0.191592 0.602284 0.000000
0.215833 0.602284 0.000000
0.240632 0.602284 0.000000
0.265953 0.602284 0.000000
0.291767 0.602284 0.000000
0.318046 0.602284 0.000000
0.344768 0.602284 0.000000
0.371910 0.602284 0.000000
0.399454 0.602284 0.000000
0.427384 0.602284 0.000000
0.455684 0.602284 0.000000
0.484340 0.602284 0.000000
0.513340 0.602284 0.000000
0.542670 0.602284 0.000000
0.572322 0.602284 0.000000
0.602284 0.602284 0.000000
0.632547 0.602284 0.000000
0.663103 0.602284 0.000000
0.693943 0.602284 0.000000
0.725060 0.602284 0.000000
0.756446 0.602284 0.000000
0.788095 0.602284 0.000000
0.820000 0.602284 0.000000
0.000000 0.632547 0.000000
0.010774 0.632547 0.000000
0.025625 0.632547 0.000000
0.042538 0.632547 0.000000
0.060947 0.632547 0.000000
0.080554 0.632547 0.000000
0.101173 0.632547 0.000000
0.122673 0.632547 0.000000
0.144957 0.632547 0.000000
0.167950 0.632547 0.000000
0.191592 0.632547 0.000000
0.215833 0.632547 0.000000
0.240632 0.632547 0.000000
0.265953 0.632547 0.000000
0.291767 0.632547 0.000000
0.318046 0.632547 0.000000
0.344768 0.632547 0.000000
0.371910 0.632547 0.000000
0.399454 0.632547 0.000000
0.427384 0.632547 0.000000
0.455684 0.632547 0.000000
0.484340 0.632547 0.000000
0.513340 0.632547 0.000000
0.542670 0.632547 0.000000
0.572322 0.632547 0.000000
0.602284 0.632547 0.000000
0.632547 0.632547 0.000000
