app/src/main/assets/luts/underexposed.cube
TITLE "Underexposed"
LUT_3D_SIZE 9
DOMAIN_MIN 0.0 0.0 0.0
DOMAIN_MAX 1.0 1.0 1.0
0.000000 0.000000 0.000000
0.060947 0.000000 0.000000
0.144957 0.000000 0.000000
0.240632 0.000000 0.000000
0.344768 0.000000 0.000000
0.455684 0.000000 0.000000
0.572322 0.000000 0.000000
0.693943 0.000000 0.000000
0.820000 0.000000 0.000000
0.000000 0.060947 0.000000
0.060947 0.060947 0.000000
0.144957 0.060947 0.000000
0.240632 0.060947 0.000000
0.344768 0.060947 0.000000
0.455684 0.060947 0.000000
0.572322 0.060947 0.000000
0.693943 0.060947 0.000000
0.820000 0.060947 0.000000
0.000000 0.144957 0.000000
0.060947 0.144957 0.000000
0.144957 0.144957 0.000000
0.240632 0.144957 0.000000
0.344768 0.144957 0.000000
0.455684 0.144957 0.000000
0.572322 0.144957 0.000000
0.693943 0.144957 0.000000
0.820000 0.144957 0.000000
0.000000 0.240632 0.000000
0.060947 0.240632 0.000000
0.144957 0.240632 0.000000
0.240632 0.240632 0.000000
0.344768 0.240632 0.000000
0.455684 0.240632 0.000000
0.572322 0.240632 0.000000
0.693943 0.240632 0.000000
0.820000 0.240632 0.000000
0.000000 0.344768 0.000000
0.060947 0.344768 0.000000
0.144957 0.344768 0.000000
0.240632 0.344768 0.000000
0.344768 0.344768 0.000000
0.455684 0.344768 0.000000
0.572322 0.344768 0.000000
0.693943 0.344768 0.000000
0.820000 0.344768 0.000000
0.000000 0.455684 0.000000
0.060947 0.455684 0.000000
0.144957 0.455684 0.000000
0.240632 0.455684 0.000000
0.344768 0.455684 0.000000
0.455684 0.455684 0.000000
0.572322 0.455684 0.000000
0.693943 0.455684 0.000000
0.820000 0.455684 0.000000
0.000000 0.572322 0.000000
0.060947 0.572322 0.000000
0.144957 0.572322 0.000000
0.240632 0.572322 0.000000
0.344768 0.572322 0.000000
0.455684 0.572322 0.000000
0.572322 0.572322 0.000000
0.693943 0.572322 0.000000
0.820000 0.572322 0.000000
0.000000 0.693943 0.000000
0.060947 0.693943 0.000000
0.144957 0.693943 0.000000
0.240632 0.693943 0.000000
0.344768 0.693943 0.000000
0.455684 0.693943 0.000000
0.572322 0.693943 0.000000
0.693943 0.693943 0.000000
0.820000 0.693943 0.000000
0.000000 0.820000 0.000000
0.060947 0.820000 0.000000
0.144957 0.820000 0.000000
0.240632 0.820000 0.000000
0.344768 0.820000 0.000000
0.455684 0.820000 0.000000
0.572322 0.820000 0.000000
0.693943 0.820000 0.000000
0.820000 0.820000 0.000000
0.000000 0.000000 0.063177
0.060947 0.000000 0.063177
0.144957 0.000000 0.063177
0.240632 0.000000 0.063177
0.344768 0.000000 0.063177
0.455684 0.000000 0.063177
0.572322 0.000000 0.063177
0.693943 0.000000 0.063177
0.820000 0.000000 0.063177
0.000000 0.060947 0.063177
0.060947 0.060947 0.063177
0.144957 0.060947 0.063177
0.240632 0.060947 0.063177
0.344768 0.060947 0.063177
0.455684 0.060947 0.063177
0.572322 0.060947 0.063177
0.693943 0.060947 0.063177
0.820000 0.060947 0.063177
0.000000 0.144957 0.063177
0.060947 0.144957 0.063177
0.144957 0.144957 0.063177
0.240632 0.144957 0.063177
0.344768 0.144957 0.063177
0.455684 0.144957 0.063177
0.572322 0.144957 0.063177
0.693943 0.144957 0.063177
0.820000 0.144957 0.063177
0.000000 0.240632 0.063177
0.060947 0.240632 0.063177
0.144957 0.240632 0.063177
0.240632 0.240632 0.063177
0.344768 0.240632 0.063177
0.455684 0.240632 0.063177
0.572322 0.240632 0.063177
0.693943 0.240632 0.063177
0.820000 0.240632 0.063177
0.000000 0.344768 0.063177
0.060947 0.344768 0.063177
0.144957 0.344768 0.063177
0.240632 0.344768 0.063177
0.344768 0.344768 0.063177
0.455684 0.344768 0.063177
0.572322 0.344768 0.063177
0.693943 0.344768 0.063177
0.820000 0.344768 0.063177
0.000000 0.455684 0.063177
0.060947 0.455684 0.063177
0.144957 0.455684 0.063177
0.240632 0.455684 0.063177
0.344768 0.455684 0.063177
0.455684 0.455684 0.063177
0.572322 0.455684 0.063177
0.693943 0.455684 0.063177
0.820000 0.455684 0.063177
0.000000 0.572322 0.063177
0.060947 0.572322 0.063177
0.144957 0.572322 0.063177
0.240632 0.572322 0.063177
0.344768 0.572322 0.063177
0.455684 0.572322 0.063177
0.572322 0.572322 0.063177
0.693943 0.572322 0.063177
0.820000 0.572322 0.063177
0.000000 0.693943 0.063177
0.060947 0.693943 0.063177
0.144957 0.693943 0.063177
0.240632 0.693943 0.063177
0.344768 0.693943 0.063177
0.455684 0.693943 0.063177
0.572322 0.693943 0.063177
0.693943 0.693943 0.063177
0.820000 0.693943 0.063177
0.000000 0.820000 0.063177
0.060947 0.820000 0.063177
0.144957 0.820000 0.063177
0.240632 0.820000 0.063177
0.344768 0.820000 0.063177
0.455684 0.820000 0.063177
0.572322 0.820000 0.063177
0.693943 0.820000 0.063177
0.820000 0.820000 0.063177
0.000000 0.000000 0.150260
0.060947 0.000000 0.150260
0.144957 0.000000 0.150260
0.240632 0.000000 0.150260
0.344768 0.000000 0.150260
0.455684 0.000000 0.150260
0.572322 0.000000 0.150260
0.693943 0.000000 0.150260
0.820000 0.000000 0.150260
0.000000 0.060947 0.150260
0.060947 0.060947 0.150260
0.144957 0.060947 0.150260
0.240632 0.060947 0.150260
0.344768 0.060947 0.150260
0.455684 0.060947 0.150260
0.572322 0.060947 0.150260
0.693943 0.060947 0.150260
0.820000 0.060947 0.150260
0.000000 0.144957 0.150260
0.060947 0.144957 0.150260
0.144957 0.144957 0.150260
0.240632 0.144957 0.150260
0.344768 0.144957 0.150260
0.455684 0.144957 0.150260
0.572322 0.144957 0.150260
0.693943 0.144957 0.150260
0.820000 0.144957 0.150260
0.000000 0.240632 0.150260
0.060947 0.240632 0.150260
0.144957 0.240632 0.150260
0.240632 0.240632 0.150260
0.344768 0.240632 0.150260
0.455684 0.240632 0.150260
0.572322 0.240632 0.150260
0.693943 0.240632 0.150260
0.820000 0.240632 0.150260
0.000000 0.344768 0.150260
0.060947 0.344768 0.150260
0.144957 0.344768 0.150260
0.240632 0.344768 0.150260
0.344768 0.344768 0.150260
0.455684 0.344768 0.150260
0.572322 0.344768 0.150260
0.693943 0.344768 0.150260
0.820000 0.344768 0.150260
0.000000 0.455684 0.150260
0.060947 0.455684 0.150260
0.144957 0.455684 0.150260
0.240632 0.455684 0.150260
0.344768 0.455684 0.150260
0.455684 0.455684 0.150260
0.572322 0.455684 0.150260
0.693943 0.455684 0.150260
0.820000 0.455684 0.150260
0.000000 0.572322 0.150260
0.060947 0.572322 0.150260
0.144957 0.572322 0.150260
0.240632 0.572322 0.150260
0.344768 0.572322 0.150260
0.455684 0.572322 0.150260
0.572322 0.572322 0.150260
0.693943 0.572322 0.150260
0.820000 0.572322 0.150260
0.000000 0.693943 0.150260
0.060947 0.693943 0.150260
0.144957 0.693943 0.150260
0.240632 0.693943 0.150260
0.344768 0.693943 0.150260
0.455684 0.693943 0.150260
0.572322 0.693943 0.150260
0.693943 0.693943 0.150260
0.820000 0.693943 0.150260
0.000000 0.820000 0.150260
0.060947 0.820000 0.150260
0.144957 0.820000 0.150260
0.240632 0.820000 0.150260
0.344768 0.820000 0.150260
0.455684 0.820000 0.150260
0.572322 0.820000 0.150260
0.693943 0.820000 0.150260
0.820000 0.820000 0.150260
0.000000 0.000000 0.249435
0.060947 0.000000 0.249435
0.144957 0.000000 0.249435
0.240632 0.000000 0.249435
0.344768 0.000000 0.249435
0.455684 0.000000 0.249435
0.572322 0.000000 0.249435
0.693943 0.000000 0.249435
0.820000 0.000000 0.249435
0.000000 0.060947 0.249435
0.060947 0.060947 0.249435
0.144957 0.060947 0.249435
0.240632 0.060947 0.249435
0.344768 0.060947 0.249435
0.455684 0.060947 0.249435
0.572322 0.060947 0.249435
0.693943 0.060947 0.249435
0.820000 0.060947 0.249435
0.000000 0.144957 0.249435
0.060947 0.144957 0.249435
0.144957 0.144957 0.249435
0.240632 0.144957 0.249435
0.344768 0.144957 0.249435
0.455684 0.144957 0.249435
0.572322 0.144957 0.249435
0.693943 0.144957 0.249435
0.820000 0.144957 0.249435
0.000000 0.240632 0.249435
0.060947 0.240632 0.249435
0.144957 0.240632 0.249435
0.240632 0.240632 0.249435
0.344768 0.240632 0.249435
0.455684 0.240632 0.249435
0.572322 0.240632 0.249435
0.693943 0.240632 0.249435
0.820000 0.240632 0.249435
0.000000 0.344768 0.249435
0.060947 0.344768 0.249435
0.144957 0.344768 0.249435
0.240632 0.344768 0.249435
0.344768 0.344768 0.249435
0.455684 0.344768 0.249435
0.572322 0.344768 0.249435
0.693943 0.344768 0.249435
0.820000 0.344768 0.249435
0.000000 0.455684 0.249435
0.060947 0.455684 0.249435
0.144957 0.455684 0.249435
0.240632 0.455684 0.249435
0.344768 0.455684 0.249435
0.455684 0.455684 0.249435
0.572322 0.455684 0.249435
0.693943 0.455684 0.249435
0.820000 0.455684 0.249435
0.000000 0.572322 0.249435
0.060947 0.572322 0.249435
0.144957 0.572322 0.249435
0.240632 0.572322 0.249435
0.344768 0.572322 0.249435
0.455684 0.572322 0.249435
0.572322 0.572322 0.249435
0.693943 0.572322 0.249435
0.820000 0.572322 0.249435
0.000000 0.693943 0.249435
0.060947 0.693943 0.249435
0.144957 0.693943 0.249435
0.240632 0.693943 0.249435
0.344768 0.693943 0.249435
0.455684 0.693943 0.249435
0.572322 0.693943 0.249435
0.693943 0.693943 0.249435
0.820000 0.693943 0.249435
0.000000 0.820000 0.249435
0.060947 0.820000 0.249435
0.144957 0.820000 0.249435
0.240632 0.820000 0.249435
0.344768 0.820000 0.249435
0.455684 0.820000 0.249435
0.572322 0.820000 0.249435
0.693943 0.820000 0.249435
0.820000 0.820000 0.249435
0.000000 0.000000 0.357381
0.060947 0.000000 0.357381
0.144957 0.000000 0.357381
0.240632 0.000000 0.357381
0.344768 0.000000 0.357381
0.455684 0.000000 0.357381
0.572322 0.000000 0.357381
0.693943 0.000000 0.357381
0.820000 0.000000 0.357381
0.000000 0.060947 0.357381
0.060947 0.060947 0.357381
0.144957 0.060947 0.357381
0.240632 0.060947 0.357381
0.344768 0.060947 0.357381
0.455684 0.060947 0.357381
0.572322 0.060947 0.357381
0.693943 0.060947 0.357381
0.820000 0.060947 0.357381
0.000000 0.144957 0.357381
0.060947 0.144957 0.357381
0.144957 0.144957 0.357381
0.240632 0.144957 0.357381
0.344768 0.144957 0.357381
0.455684 0.144957 0.357381
0.572322 0.144957 0.357381
0.693943 0.144957 0.357381
0.820000 0.144957 0.357381
0.000000 0.240632 0.357381
0.060947 0.240632 0.357381
0.144957 0.240632 0.357381
0.240632 0.240632 0.357381
0.344768 0.240632 0.357381
0.455684 0.240632 0.357381
0.572322 0.240632 0.357381
0.693943 0.240632 0.357381
0.820000 0.240632 0.357381
0.000000 0.344768 0.357381
0.060947 0.344768 0.357381
0.144957 0.344768 0.357381
0.240632 0.344768 0.357381
0.344768 0.344768 0.357381
0.455684 0.344768 0.357381
0.572322 0.344768 0.357381
0.693943 0.344768 0.357381
0.820000 0.344768 0.357381
0.000000 0.455684 0.357381
0.060947 0.455684 0.357381
0.144957 0.455684 0.357381
0.240632 0.455684 0.357381
0.344768 0.455684 0.357381
0.455684 0.455684 0.357381
0.572322 0.455684 0.357381
0.693943 0.455684 0.357381
0.820000 0.455684 0.357381
0.000000 0.572322 0.357381
0.060947 0.572322 0.357381
0.144957 0.572322 0.357381
0.240632 0.572322 0.357381
0.344768 0.572322 0.357381
0.455684 0.572322 0.357381
0.572322 0.572322 0.357381
0.693943 0.572322 0.357381
0.820000 0.572322 0.357381
0.000000 0.693943 0.357381
0.060947 0.693943 0.357381
0.144957 0.693943 0.357381
0.240632 0.693943 0.357381
0.344768 0.693943 0.357381
0.455684 0.693943 0.357381
0.572322 0.693943 0.357381
0.693943 0.693943 0.357381
0.820000 0.693943 0.357381
0.000000 0.820000 0.357381
0.060947 0.820000 0.357381
0.144957 0.820000 0.357381
0.240632 0.820000 0.357381
0.344768 0.820000 0.357381
0.455684 0.820000 0.357381
0.572322 0.820000 0.357381
0.693943 0.820000 0.357381
0.820000 0.820000 0.357381
0.000000 0.000000 0.472355
0.060947 0.000000 0.472355
0.144957 0.000000 0.472355
0.240632 0.000000 0.472355
0.344768 0.000000 0.472355
0.455684 0.000000 0.472355
0.572322 0.000000 0.472355
0.693943 0.000000 0.472355
0.820000 0.000000 0.472355
0.000000 0.060947 0.472355
0.060947 0.060947 0.472355
0.144957 0.060947 0.472355
0.240632 0.060947 0.472355
0.344768 0.060947 0.472355
0.455684 0.060947 0.472355
0.572322 0.060947 0.472355
0.693943 0.060947 0.472355
0.820000 0.060947 0.472355
0.000000 0.144957 0.472355
0.060947 0.144957 0.472355
0.144957 0.144957 0.472355
0.240632 0.144957 0.472355
0.344768 0.144957 0.472355
0.455684 0.144957 0.472355
0.572322 0.144957 0.472355
0.693943 0.144957 0.472355
0.820000 0.144957 0.472355
0.000000 0.240632 0.472355
0.060947 0.240632 0.472355
0.144957 0.240632 0.472355
0.240632 0.240632 0.472355
0.344768 0.240632 0.472355
0.455684 0.240632 0.472355
0.572322 0.240632 0.472355
0.693943 0.240632 0.472355
0.820000 0.240632 0.472355
0.000000 0.344768 0.472355
0.060947 0.344768 0.472355
0.144957 0.344768 0.472355
0.240632 0.344768 0.472355
0.344768 0.344768 0.472355
0.455684 0.344768 0.472355
0.572322 0.344768 0.472355
0.693943 0.344768 0.472355
0.820000 0.344768 0.472355
0.000000 0.455684 0.472355
0.060947 0.455684 0.472355
0.144957 0.455684 0.472355
0.240632 0.455684 0.472355
0.344768 0.455684 0.472355
0.455684 0.455684 0.472355
0.572322 0.455684 0.472355
0.693943 0.455684 0.472355
0.820000 0.455684 0.472355
0.000000 0.572322 0.472355
0.060947 0.572322 0.472355
0.144957 0.572322 0.472355
0.240632 0.572322 0.472355
0.344768 0.572322 0.472355
0.455684 0.572322 0.472355
0.572322 0.572322 0.472355
0.693943 0.572322 0.472355
0.820000 0.572322 0.472355
0.000000 0.693943 0.472355
0.060947 0.693943 0.472355
0.144957 0.693943 0.472355
0.240632 0.693943 0.472355
0.344768 0.693943 0.472355
0.455684 0.693943 0.472355
0.572322 0.693943 0.472355
0.693943 0.693943 0.472355
0.820000 0.693943 0.472355
0.000000 0.820000 0.472355
0.060947 0.820000 0.472355
0.144957 0.820000 0.472355
0.240632 0.820000 0.472355
0.344768 0.820000 0.472355
0.455684 0.820000 0.472355
0.572322 0.820000 0.472355
0.693943 0.820000 0.472355
0.820000 0.820000 0.472355
0.000000 0.000000 0.593261
0.060947 0.000000 0.593261
0.144957 0.000000 0.593261
0.240632 0.000000 0.593261
0.344768 0.000000 0.593261
0.455684 0.000000 0.593261
0.572322 0.000000 0.593261
0.693943 0.000000 0.593261
0.820000 0.000000 0.593261
0.000000 0.060947 0.593261
0.060947 0.060947 0.593261
0.144957 0.060947 0.593261
0.240632 0.060947 0.593261
0.344768 0.060947 0.593261
0.455684 0.060947 0.593261
0.572322 0.060947 0.593261
0.693943 0.060947 0.593261
0.820000 0.060947 0.593261
0.000000 0.144957 0.593261
0.060947 0.144957 0.593261
0.144957 0.144957 0.593261
0.240632 0.144957 0.593261
0.344768 0.144957 0.593261
0.455684 0.144957 0.593261
0.572322 0.144957 0.593261
0.693943 0.144957 0.593261
0.820000 0.144957 0.593261
0.000000 0.240632 0.593261
0.060947 0.240632 0.593261
0.144957 0.240632 0.593261
0.240632 0.240632 0.593261
0.344768 0.240632 0.593261
0.455684 0.240632 0.593261
0.572322 0.240632 0.593261
0.693943 0.240632 0.593261
0.820000 0.240632 0.593261
0.000000 0.344768 0.593261
0.060947 0.344768 0.593261
0.144957 0.344768 0.593261
0.240632 0.344768 0.593261
0.344768 0.344768 0.593261
0.455684 0.344768 0.593261
0.572322 0.344768 0.593261
0.693943 0.344768 0.593261
0.820000 0.344768 0.593261
0.000000 0.455684 0.593261
0.060947 0.455684 0.593261
0.144957 0.455684 0.593261
0.240632 0.455684 0.593261
0.344768 0.455684 0.593261
0.455684 0.455684 0.593261
0.572322 0.455684 0.593261
0.693943 0.455684 0.593261
0.820000 0.455684 0.593261
0.000000 0.572322 0.593261
0.060947 0.572322 0.593261
0.144957 0.572322 0.593261
0.240632 0.572322 0.593261
0.344768 0.572322 0.593261
0.455684 0.572322 0.593261
0.572322 0.572322 0.593261
0.693943 0.572322 0.593261
0.820000 0.572322 0.593261
0.000000 0.693943 0.593261
0.060947 0.693943 0.593261
0.144957 0.693943 0.593261
0.240632 0.693943 0.593261
0.344768 0.693943 0.593261
0.455684 0.693943 0.593261
0.572322 0.693943 0.593261
0.693943 0.693943 0.593261
0.820000 0.693943 0.593261
0.000000 0.820000 0.593261
0.060947 0.820000 0.593261
0.144957 0.820000 0.593261
0.240632 0.820000 0.593261
0.344768 0.820000 0.593261
0.455684 0.820000 0.593261
0.572322 0.820000 0.593261
0.693943 0.820000 0.593261
0.820000 0.820000 0.593261
0.000000 0.000000 0.719331
0.060947 0.000000 0.719331
0.144957 0.000000 0.719331
0.240632 0.000000 0.719331
0.344768 0.000000 0.719331
0.455684 0.000000 0.719331
0.572322 0.000000 0.719331
0.693943 0.000000 0.719331
0.820000 0.000000 0.719331
0.000000 0.060947 0.719331
0.060947 0.060947 0.719331
0.144957 0.060947 0.719331
0.240632 0.060947 0.719331
0.344768 0.060947 0.719331
0.455684 0.060947 0.719331
0.572322 0.060947 0.719331
0.693943 0.060947 0.719331
0.820000 0.060947 0.719331
0.000000 0.144957 0.719331
0.060947 0.144957 0.719331
0.144957 0.144957 0.719331
0.240632 0.144957 0.719331
0.344768 0.144957 0.719331
0.455684 0.144957 0.719331
0.572322 0.144957 0.719331
0.693943 0.144957 0.719331
0.820000 0.144957 0.719331
0.000000 0.240632 0.719331
0.060947 0.240632 0.719331
0.144957 0.240632 0.719331
0.240632 0.240632 0.719331
0.344768 0.240632 0.719331
0.455684 0.240632 0.719331
0.572322 0.240632 0.719331
0.693943 0.240632 0.719331
0.820000 0.240632 0.719331
0.000000 0.344768 0.719331
0.060947 0.344768 0.719331
0.144957 0.344768 0.719331
0.240632 0.344768 0.719331
0.344768 0.344768 0.719331
0.455684 0.344768 0.719331
0.572322 0.344768 0.719331
0.693943 0.344768 0.719331
0.820000 0.344768 0.719331
0.000000 0.455684 0.719331
0.060947 0.455684 0.719331
0.144957 0.455684 0.719331
0.240632 0.455684 0.719331
0.344768 0.455684 0.719331
0.455684 0.455684 0.719331
0.572322 0.455684 0.719331
0.693943 0.455684 0.719331
0.820000 0.455684 0.719331
0.000000 0.572322 0.719331
0.060947 0.572322 0.719331
0.144957 0.572322 0.719331
0.240632 0.572322 0.719331
0.344768 0.572322 0.719331
0.455684 0.572322 0.719331
0.572322 0.572322 0.719331
0.693943 0.572322 0.719331
0.820000 0.572322 0.719331
0.000000 0.693943 0.719331
0.060947 0.693943 0.719331
0.144957 0.693943 0.719331
0.240632 0.693943 0.719331
0.344768 0.693943 0.719331
0.455684 0.693943 0.719331
0.572322 0.693943 0.719331
0.693943 0.693943 0.719331
0.820000 0.693943 0.719331
0.000000 0.820000 0.719331
0.060947 0.820000 0.719331
0.144957 0.820000 0.719331
0.240632 0.820000 0.719331
0.344768 0.820000 0.719331
0.455684 0.820000 0.719331
0.572322 0.820000 0.719331
0.693943 0.820000 0.719331
0.820000 0.820000 0.719331
0.000000 0.000000 0.850000
0.060947 0.000000 0.850000
0.144957 0.000000 0.850000
0.240632 0.000000 0.850000
0.344768 0.000000 0.850000
0.455684 0.000000 0.850000
0.572322 0.000000 0.850000
0.693943 0.000000 0.850000
0.820000 0.000000 0.850000
0.000000 0.060947 0.850000
0.060947 0.060947 0.850000
0.144957 0.060947 0.850000
0.240632 0.060947 0.850000
0.344768 0.060947 0.850000
0.455684 0.060947 0.850000
0.572322 0.060947 0.850000
0.693943 0.060947 0.850000
0.820000 0.060947 0.850000
0.000000 0.144957 0.850000
0.060947 0.144957 0.850000
0.144957 0.144957 0.850000
0.240632 0.144957 0.850000
0.344768 0.144957 0.850000
0.455684 0.144957 0.850000
0.572322 0.144957 0.850000
0.693943 0.144957 0.850000
0.820000 0.144957 0.850000
0.000000 0.240632 0.850000
0.060947 0.240632 0.850000
0.144957 0.240632 0.850000
0.240632 0.240632 0.850000
0.344768 0.240632 0.850000
0.455684 0.240632 0.850000
0.572322 0.240632 0.850000
0.693943 0.240632 0.850000
0.820000 0.240632 0.850000
0.000000 0.344768 0.850000
0.060947 0.344768 0.850000
0.144957 0.344768 0.850000
0.240632 0.344768 0.850000
0.344768 0.344768 0.850000
0.455684 0.344768 0.850000
0.572322 0.344768 0.850000
0.693943 0.344768 0.850000
0.820000 0.344768 0.850000
0.000000 0.455684 0.850000
0.060947 0.455684 0.850000
0.144957 0.455684 0.850000
0.240632 0.455684 0.850000
0.344768 0.455684 0.850000
0.455684 0.455684 0.850000
0.572322 0.455684 0.850000
0.693943 0.455684 0.850000
0.820000 0.455684 0.850000
0.000000 0.572322 0.850000
0.060947 0.572322 0.850000
0.144957 0.572322 0.850000
0.240632 0.572322 0.850000
0.344768 0.572322 0.850000
0.455684 0.572322 0.850000
0.572322 0.572322 0.850000
0.693943 0.572322 0.850000
0.820000 0.572322 0.850000
0.000000 0.693943 0.850000
0.060947 0.693943 0.850000
0.144957 0.693943 0.850000
0.240632 0.693943 0.850000
0.344768 0.693943 0.850000
0.455684 0.693943 0.850000
0.572322 0.693943 0.850000
0.693943 0.693943 0.850000
0.820000 0.693943 0.850000
0.000000 0.820000 0.850000
0.060947 0.820000 0.850000
0.144957 0.820000 0.850000
0.240632 0.820000 0.850000
0.344768 0.820000 0.850000
0.455684 0.820000 0.850000
0.572322 0.820000 0.850000
0.693943 0.820000 0.850000
0.820000 0.820000 0.850000
