app/src/main/assets/luts/velvia_pop.cube
TITLE "Velvia Pop"
LUT_3D_SIZE 9
DOMAIN_MIN 0.0 0.0 0.0
DOMAIN_MAX 1.0 1.0 1.0
0.000000 0.000000 0.000000
0.111135 0.000000 0.000000
0.234944 0.000000 0.000000
0.364035 0.000000 0.000000
0.496680 0.000000 0.000000
0.632033 0.000000 0.000000
0.769583 0.000000 0.000000
0.908988 0.000000 0.000000
1.000000 0.000000 0.000000
0.000000 0.120775 0.000000
0.111135 0.120775 0.000000
0.234944 0.120775 0.000000
0.364035 0.120775 0.000000
0.496680 0.120775 0.000000
0.632033 0.120775 0.000000
0.769583 0.120775 0.000000
0.908988 0.120775 0.000000
1.000000 0.120775 0.000000
0.000000 0.248340 0.000000
0.111135 0.248340 0.000000
0.234944 0.248340 0.000000
0.364035 0.248340 0.000000
0.496680 0.248340 0.000000
0.632033 0.248340 0.000000
0.769583 0.248340 0.000000
0.908988 0.248340 0.000000
1.000000 0.248340 0.000000
0.000000 0.378601 0.000000
0.111135 0.378601 0.000000
0.234944 0.378601 0.000000
0.364035 0.378601 0.000000
0.496680 0.378601 0.000000
0.632033 0.378601 0.000000
0.769583 0.378601 0.000000
0.908988 0.378601 0.000000
1.000000 0.378601 0.000000
0.000000 0.510644 0.000000
0.111135 0.510644 0.000000
0.234944 0.510644 0.000000
0.364035 0.510644 0.000000
0.496680 0.510644 0.000000
0.632033 0.510644 0.000000
0.769583 0.510644 0.000000
0.908988 0.510644 0.000000
1.000000 0.510644 0.000000
0.000000 0.644028 0.000000
0.111135 0.644028 0.000000
0.234944 0.644028 0.000000
0.364035 0.644028 0.000000
0.496680 0.644028 0.000000
0.632033 0.644028 0.000000
0.769583 0.644028 0.000000
0.908988 0.644028 0.000000
1.000000 0.644028 0.000000
0.000000 0.778490 0.000000
0.111135 0.778490 0.000000
0.234944 0.778490 0.000000
0.364035 0.778490 0.000000
0.496680 0.778490 0.000000
0.632033 0.778490 0.000000
0.769583 0.778490 0.000000
0.908988 0.778490 0.000000
1.000000 0.778490 0.000000
0.000000 0.913856 0.000000
0.111135 0.913856 0.000000
0.234944 0.913856 0.000000
0.364035 0.913856 0.000000
0.496680 0.913856 0.000000
0.632033 0.913856 0.000000
0.769583 0.913856 0.000000
0.908988 0.913856 0.000000
1.000000 0.913856 0.000000
0.000000 1.000000 0.000000
0.111135 1.000000 0.000000
0.234944 1.000000 0.000000
0.364035 1.000000 0.000000
0.496680 1.000000 0.000000
0.632033 1.000000 0.000000
0.769583 1.000000 0.000000
0.908988 1.000000 0.000000
1.000000 1.000000 0.000000
0.000000 0.000000 0.119165
0.111135 0.000000 0.119165
0.234944 0.000000 0.119165
0.364035 0.000000 0.119165
0.496680 0.000000 0.119165
0.632033 0.000000 0.119165
0.769583 0.000000 0.119165
0.908988 0.000000 0.119165
1.000000 0.000000 0.119165
0.000000 0.120775 0.119165
0.106798 0.120775 0.118441
0.234944 0.069398 0.067064
0.364035 0.011307 0.008973
0.496680 0.002118 0.000000
0.632033 0.001984 0.000000
0.769583 0.001905 0.000000
0.908988 0.001853 0.000000
1.000000 0.001827 0.000000
0.000000 0.248340 0.119165
0.049393 0.248340 0.061036
0.228916 0.248340 0.061036
0.364035 0.196277 0.008973
0.496680 0.169950 0.000000
0.632033 0.159189 0.000000
0.769583 0.152842 0.000000
0.908988 0.148665 0.000000
1.000000 0.146651 0.000000
0.000000 0.378601 0.119165
0.000000 0.378601 0.011366
0.170298 0.378601 0.002419
0.357480 0.378601 0.002419
0.496680 0.341329 0.000000
0.632033 0.319716 0.000000
0.769583 0.306968 0.000000
0.908988 0.298579 0.000000
1.000000 0.294534 0.000000
0.000000 0.510644 0.119165
0.000000 0.510644 0.010263
0.151022 0.510644 0.000000
0.319408 0.510644 0.000000
0.492430 0.510644 0.000000
0.632033 0.482439 0.000000
0.769583 0.463203 0.000000
0.908988 0.450544 0.000000
1.000000 0.444441 0.000000
0.000000 0.644028 0.119165
0.000000 0.644028 0.009704
0.142066 0.644028 0.000000
0.300465 0.644028 0.000000
0.463226 0.644028 0.000000
0.629310 0.644028 0.000000
0.769583 0.621024 0.000000
0.908988 0.604052 0.000000
1.000000 0.595869 0.000000
0.000000 0.778490 0.119165
0.000000 0.778490 0.009367
0.136705 0.778490 0.000000
0.289127 0.778490 0.000000
0.445747 0.778490 0.000000
0.605563 0.778490 0.000000
0.767973 0.778490 0.000000
0.908988 0.758801 0.000000
1.000000 0.748523 0.000000
0.000000 0.913856 0.119165
0.000000 0.913856 0.009141
0.133140 0.913856 0.000000
0.281589 0.913856 0.000000
0.434124 0.913856 0.000000
0.589773 0.913856 0.000000
0.747949 0.913856 0.000000
0.908258 0.913856 0.000000
1.000000 0.902202 0.000000
0.000000 1.000000 0.119165
0.000000 1.000000 0.009034
0.131443 1.000000 0.000000
0.277998 1.000000 0.000000
0.428588 1.000000 0.000000
0.582252 1.000000 0.000000
0.738411 1.000000 0.000000
0.896675 1.000000 0.000000
1.000000 1.000000 0.000000
0.000000 0.000000 0.248451
0.111135 0.000000 0.248451
0.234944 0.000000 0.248451
0.364035 0.000000 0.248451
0.496680 0.000000 0.248451
0.632033 0.000000 0.248451
0.769583 0.000000 0.248451
0.908988 0.000000 0.248451
1.000000 0.000000 0.248451
0.000000 0.120775 0.248451
0.049343 0.063320 0.248451
0.228866 0.063320 0.248451
0.364035 0.011307 0.196438
0.496680 0.000000 0.168697
0.632033 0.000000 0.157837
0.769583 0.000000 0.151443
0.908988 0.000000 0.147239
1.000000 0.000000 0.145214
0.000000 0.248340 0.248451
0.049343 0.248290 0.248451
0.228866 0.248290 0.248451
0.364035 0.196277 0.196438
0.496680 0.136587 0.136747
0.632033 0.075678 0.075839
0.769583 0.013781 0.013941
0.908988 0.000000 0.000152
1.000000 0.000000 0.000147
0.000000 0.378601 0.248451
0.000000 0.378601 0.194372
0.170298 0.378601 0.189883
0.357480 0.378601 0.189883
0.496680 0.325465 0.136747
0.632033 0.264557 0.075839
0.769583 0.202659 0.013941
0.908988 0.179104 0.000000
1.000000 0.173176 0.000000
0.000000 0.510644 0.248451
0.000000 0.510644 0.175514
0.110879 0.510644 0.130464
0.298061 0.510644 0.130464
0.490397 0.510644 0.130464
0.632033 0.456019 0.075839
0.769583 0.394121 0.013941
0.908988 0.360813 0.000000
1.000000 0.348870 0.000000
0.000000 0.644028 0.248451
0.000000 0.644028 0.165953
0.050856 0.644028 0.070441
0.238038 0.644028 0.070441
0.430374 0.644028 0.070441
0.626635 0.644028 0.070441
0.769583 0.587528 0.013941
0.908988 0.544367 0.000000
1.000000 0.526349 0.000000
0.000000 0.778490 0.248451
0.000000 0.778490 0.160183
0.000000 0.778490 0.019345
0.177530 0.778490 0.009933
0.369866 0.778490 0.009933
0.566127 0.778490 0.009933
0.765575 0.778490 0.009933
0.908988 0.729405 0.000000
1.000000 0.705262 0.000000
0.000000 0.913856 0.248451
0.000000 0.913856 0.156326
0.000000 0.913856 0.018181
0.158741 0.913856 0.000000
0.340914 0.913856 0.000000
0.526805 0.913856 0.000000
0.715714 0.913856 0.000000
0.907170 0.913856 0.000000
1.000000 0.885378 0.000000
0.000000 1.000000 0.248451
0.000000 1.000000 0.154484
0.000000 1.000000 0.017654
0.153795 1.000000 0.000000
0.330290 1.000000 0.000000
0.510389 1.000000 0.000000
0.693411 1.000000 0.000000
0.878900 1.000000 0.000000
1.000000 1.000000 0.000000
0.000000 0.000000 0.381854
0.111135 0.000000 0.381854
0.234944 0.000000 0.381854
0.364035 0.000000 0.381854
0.496680 0.000000 0.381854
0.632033 0.000000 0.381854
0.769583 0.000000 0.381854
0.908988 0.000000 0.381854
1.000000 0.000000 0.381854
0.000000 0.120775 0.381854
0.000000 0.013596 0.381854
0.168835 0.003289 0.381854
0.356017 0.003289 0.381854
0.496680 0.000000 0.344961
0.632033 0.000000 0.322754
0.769583 0.000000 0.309678
0.908988 0.000000 0.301083
1.000000 0.000000 0.296942
0.000000 0.248340 0.381854
0.000000 0.193530 0.381854
0.168835 0.188259 0.381854
0.356017 0.188259 0.381854
0.496680 0.136587 0.330182
0.632033 0.075678 0.269273
0.769583 0.013781 0.207375
0.908988 0.000000 0.183702
1.000000 0.000000 0.177625
0.000000 0.378601 0.381854
0.000000 0.377266 0.381854
0.168835 0.377137 0.381854
0.356017 0.377137 0.381854
0.496680 0.325465 0.330182
0.632033 0.264557 0.269273
0.769583 0.202659 0.207375
0.908988 0.139927 0.144643
1.000000 0.098972 0.103688
0.000000 0.510644 0.381854
0.000000 0.510644 0.346027
0.110879 0.510644 0.323898
0.298061 0.510644 0.323898
0.490397 0.510644 0.323898
0.632033 0.456019 0.269273
0.769583 0.394121 0.207375
0.908988 0.331389 0.144643
1.000000 0.290434 0.103688
0.000000 0.644028 0.381854
0.000000 0.644028 0.327177
0.050856 0.644028 0.263875
0.238038 0.644028 0.263875
0.430374 0.644028 0.263875
0.626635 0.644028 0.263875
0.769583 0.587528 0.207375
0.908988 0.524796 0.144643
1.000000 0.483840 0.103688
0.000000 0.778490 0.381854
0.000000 0.778490 0.315801
0.000000 0.778490 0.210410
0.177530 0.778490 0.203367
0.369866 0.778490 0.203367
0.566127 0.778490 0.203367
0.765575 0.778490 0.203367
0.908988 0.719766 0.144643
1.000000 0.678810 0.103688
0.000000 0.913856 0.381854
0.000000 0.913856 0.308199
0.000000 0.913856 0.197749
0.116616 0.913856 0.142453
0.308951 0.913856 0.142453
0.505213 0.913856 0.142453
0.704660 0.913856 0.142453
0.906797 0.913856 0.142453
1.000000 0.875091 0.103688
0.000000 1.000000 0.381854
0.000000 1.000000 0.304566
0.000000 1.000000 0.192025
0.077851 1.000000 0.103688
0.270186 1.000000 0.103688
0.466448 1.000000 0.103688
0.665895 1.000000 0.103688
0.868032 1.000000 0.103688
1.000000 1.000000 0.103688
0.000000 0.000000 0.518003
0.111135 0.000000 0.518003
0.234944 0.000000 0.518003
0.364035 0.000000 0.518003
0.496680 0.000000 0.518003
0.632033 0.000000 0.518003
0.769583 0.000000 0.518003
0.908988 0.000000 0.518003
1.000000 0.000000 0.518003
0.000000 0.120775 0.518003
0.000000 0.012272 0.518003
0.148882 0.000000 0.518003
0.317222 0.000000 0.518003
0.490197 0.000000 0.518003
0.632033 0.000000 0.491065
0.769583 0.000000 0.471171
0.908988 0.000000 0.458094
1.000000 0.000000 0.451793
0.000000 0.248340 0.518003
0.000000 0.174682 0.518003
0.107568 0.126992 0.518003
0.294749 0.126992 0.518003
0.487085 0.126992 0.518003
0.632033 0.075678 0.466689
0.769583 0.013781 0.404791
0.908988 0.000000 0.371030
1.000000 0.000000 0.358756
0.000000 0.378601 0.518003
0.000000 0.340524 0.518003
0.107568 0.315870 0.518003
0.294749 0.315870 0.518003
0.487085 0.315870 0.518003
0.632033 0.264557 0.466689
0.769583 0.202659 0.404791
0.908988 0.139927 0.342059
1.000000 0.098972 0.301104
0.000000 0.510644 0.518003
0.000000 0.508634 0.518003
0.107568 0.507332 0.518003
0.294749 0.507332 0.518003
0.487085 0.507332 0.518003
0.632033 0.456019 0.466689
0.769583 0.394121 0.404791
0.908988 0.331389 0.342059
1.000000 0.290434 0.301104
0.000000 0.644028 0.518003
0.000000 0.644028 0.491720
0.050856 0.644028 0.461291
0.238038 0.644028 0.461291
0.430374 0.644028 0.461291
0.626635 0.644028 0.461291
0.769583 0.587528 0.404791
0.908988 0.524796 0.342059
1.000000 0.483840 0.301104
0.000000 0.778490 0.518003
0.000000 0.778490 0.474623
0.000000 0.778490 0.405409
0.177530 0.778490 0.400783
0.369866 0.778490 0.400783
0.566127 0.778490 0.400783
0.765575 0.778490 0.400783
0.908988 0.719766 0.342059
1.000000 0.678810 0.301104
0.000000 0.913856 0.518003
0.000000 0.913856 0.463197
0.000000 0.913856 0.381014
0.116616 0.913856 0.339869
0.308951 0.913856 0.339869
0.505213 0.913856 0.339869
0.704660 0.913856 0.339869
0.906797 0.913856 0.339869
1.000000 0.875091 0.301104
0.000000 1.000000 0.518003
0.000000 1.000000 0.457738
0.000000 1.000000 0.369984
0.077851 1.000000 0.301104
0.270186 1.000000 0.301104
0.466448 1.000000 0.301104
0.665895 1.000000 0.301104
0.868032 1.000000 0.301104
1.000000 1.000000 0.301104
0.000000 0.000000 0.656231
0.111135 0.000000 0.656231
0.234944 0.000000 0.656231
0.364035 0.000000 0.656231
0.496680 0.000000 0.656231
0.632033 0.000000 0.656231
0.769583 0.000000 0.656231
0.908988 0.000000 0.656231
1.000000 0.000000 0.656231
0.000000 0.120775 0.656231
0.000000 0.011605 0.656231
0.139921 0.000000 0.656231
0.298129 0.000000 0.656231
0.460693 0.000000 0.656231
0.626575 0.000000 0.656231
0.769583 0.000000 0.635130
0.908988 0.000000 0.617502
1.000000 0.000000 0.609009
0.000000 0.248340 0.656231
0.000000 0.165178 0.656231
0.045365 0.064789 0.656231
0.232547 0.064789 0.656231
0.424883 0.064789 0.656231
0.621144 0.064789 0.656231
0.769583 0.013781 0.605222
0.908988 0.000000 0.561218
1.000000 0.000000 0.542653
0.000000 0.378601 0.656231
0.000000 0.321997 0.656231
0.045365 0.253668 0.656231
0.232547 0.253668 0.656231
0.424883 0.253668 0.656231
0.621144 0.253668 0.656231
0.769583 0.202659 0.605222
0.908988 0.139927 0.542490
1.000000 0.098972 0.501535
0.000000 0.510644 0.656231
0.000000 0.480961 0.656231
0.045365 0.445130 0.656231
0.232547 0.445130 0.656231
0.424883 0.445130 0.656231
0.621144 0.445130 0.656231
0.769583 0.394121 0.605222
0.908988 0.331389 0.542490
1.000000 0.290434 0.501535
0.000000 0.644028 0.656231
0.000000 0.641540 0.656231
0.045365 0.638536 0.656231
0.232547 0.638536 0.656231
0.424883 0.638536 0.656231
0.621144 0.638536 0.656231
0.769583 0.587528 0.605222
0.908988 0.524796 0.542490
1.000000 0.483840 0.501535
0.000000 0.778490 0.656231
0.000000 0.778490 0.635871
0.000000 0.778490 0.603385
0.177530 0.778490 0.601214
0.369866 0.778490 0.601214
0.566127 0.778490 0.601214
0.765575 0.778490 0.601214
0.908988 0.719766 0.542490
1.000000 0.678810 0.501535
0.000000 0.913856 0.656231
0.000000 0.913856 0.620563
0.000000 0.913856 0.567077
0.116616 0.913856 0.540299
0.308951 0.913856 0.540299
0.505213 0.913856 0.540299
0.704660 0.913856 0.540299
0.906797 0.913856 0.540299
1.000000 0.875091 0.501535
0.000000 1.000000 0.656231
0.000000 1.000000 0.613249
0.000000 1.000000 0.550661
0.077851 1.000000 0.501535
0.270186 1.000000 0.501535
0.466448 1.000000 0.501535
0.665895 1.000000 0.501535
0.868032 1.000000 0.501535
1.000000 1.000000 0.501535
0.000000 0.000000 0.796139
0.111135 0.000000 0.796139
0.234944 0.000000 0.796139
0.364035 0.000000 0.796139
0.496680 0.000000 0.796139
0.632033 0.000000 0.796139
0.769583 0.000000 0.796139
0.908988 0.000000 0.796139
1.000000 0.000000 0.796139
0.000000 0.120775 0.796139
0.000000 0.011203 0.796139
0.134586 0.000000 0.796139
0.286762 0.000000 0.796139
0.443128 0.000000 0.796139
0.602686 0.000000 0.796139
0.764834 0.000000 0.796139
0.908988 0.000000 0.778847
1.000000 0.000000 0.768135
0.000000 0.248340 0.796139
0.000000 0.159465 0.796139
0.000000 0.019004 0.796139
0.169588 0.001831 0.796139
0.361924 0.001831 0.796139
0.558185 0.001831 0.796139
0.757633 0.001831 0.796139
0.908988 0.000000 0.753718
1.000000 0.000000 0.728785
0.000000 0.378601 0.796139
0.000000 0.310860 0.796139
0.000000 0.203799 0.796139
0.169588 0.190709 0.796139
0.361924 0.190709 0.796139
0.558185 0.190709 0.796139
0.757633 0.190709 0.796139
0.908988 0.139927 0.745357
1.000000 0.098972 0.704401
0.000000 0.510644 0.796139
0.000000 0.464325 0.796139
0.000000 0.391121 0.796139
0.169588 0.382171 0.796139
0.361924 0.382171 0.796139
0.558185 0.382171 0.796139
0.757633 0.382171 0.796139
0.908988 0.331389 0.745357
1.000000 0.290434 0.704401
0.000000 0.644028 0.796139
0.000000 0.619349 0.796139
0.000000 0.580346 0.796139
0.169588 0.575578 0.796139
0.361924 0.575578 0.796139
0.558185 0.575578 0.796139
0.757633 0.575578 0.796139
0.908988 0.524796 0.745357
1.000000 0.483840 0.704401
0.000000 0.778490 0.796139
0.000000 0.775627 0.796139
0.000000 0.771101 0.796139
0.169588 0.770548 0.796139
0.361924 0.770548 0.796139
0.558185 0.770548 0.796139
0.757633 0.770548 0.796139
0.908988 0.719766 0.745357
1.000000 0.678810 0.704401
0.000000 0.913856 0.796139
0.000000 0.913856 0.779841
0.000000 0.913856 0.755401
0.116616 0.913856 0.743166
0.308951 0.913856 0.743166
0.505213 0.913856 0.743166
0.704660 0.913856 0.743166
0.906797 0.913856 0.743166
1.000000 0.875091 0.704401
0.000000 1.000000 0.796139
0.000000 1.000000 0.770650
0.000000 1.000000 0.733534
0.077851 1.000000 0.704401
0.270186 1.000000 0.704401
0.466448 1.000000 0.704401
0.665895 1.000000 0.704401
0.868032 1.000000 0.704401
1.000000 1.000000 0.704401
0.000000 0.000000 0.937459
0.111135 0.000000 0.937459
0.234944 0.000000 0.937459
0.364035 0.000000 0.937459
0.496680 0.000000 0.937459
0.632033 0.000000 0.937459
0.769583 0.000000 0.937459
0.908988 0.000000 0.937459
1.000000 0.000000 0.937459
0.000000 0.120775 0.937459
0.000000 0.010936 0.937459
0.131053 0.000000 0.937459
0.279235 0.000000 0.937459
0.431496 0.000000 0.937459
0.586865 0.000000 0.937459
0.744757 0.000000 0.937459
0.904777 0.000000 0.937459
1.000000 0.000000 0.928868
0.000000 0.248340 0.937459
0.000000 0.155658 0.937459
0.000000 0.017876 0.937459
0.157388 0.000000 0.937459
0.337835 0.000000 0.937459
0.521966 0.000000 0.937459
0.709085 0.000000 0.937459
0.898727 0.000000 0.937459
1.000000 0.000000 0.916796
0.000000 0.378601 0.937459
0.000000 0.303438 0.937459
0.000000 0.191701 0.937459
0.105994 0.127115 0.937459
0.298330 0.127115 0.937459
0.494591 0.127115 0.937459
0.694039 0.127115 0.937459
0.896176 0.127115 0.937459
1.000000 0.098972 0.909316
0.000000 0.510644 0.937459
0.000000 0.453240 0.937459
0.000000 0.367903 0.937459
0.105994 0.318577 0.937459
0.298330 0.318577 0.937459
0.494591 0.318577 0.937459
0.694039 0.318577 0.937459
0.896176 0.318577 0.937459
1.000000 0.290434 0.909316
0.000000 0.644028 0.937459
0.000000 0.604563 0.937459
0.000000 0.545895 0.937459
0.105994 0.511984 0.937459
0.298330 0.511984 0.937459
0.494591 0.511984 0.937459
0.694039 0.511984 0.937459
0.896176 0.511984 0.937459
1.000000 0.483840 0.909316
0.000000 0.778490 0.937459
0.000000 0.757110 0.937459
0.000000 0.725325 0.937459
0.105994 0.706954 0.937459
0.298330 0.706954 0.937459
0.494591 0.706954 0.937459
0.694039 0.706954 0.937459
0.896176 0.706954 0.937459
1.000000 0.678810 0.909316
0.000000 0.913856 0.937459
0.000000 0.910681 0.937459
0.000000 0.905962 0.937459
0.105994 0.903234 0.937459
0.298330 0.903234 0.937459
0.494591 0.903234 0.937459
0.694039 0.903234 0.937459
0.896176 0.903234 0.937459
1.000000 0.875091 0.909316
0.000000 1.000000 0.937459
0.000000 1.000000 0.929639
0.000000 1.000000 0.918253
0.077851 1.000000 0.909316
0.270186 1.000000 0.909316
0.466448 1.000000 0.909316
0.665895 1.000000 0.909316
0.868032 1.000000 0.909316
1.000000 1.000000 0.909316
0.000000 0.000000 1.000000
0.111135 0.000000 1.000000
0.234944 0.000000 1.000000
0.364035 0.000000 1.000000
0.496680 0.000000 1.000000
0.632033 0.000000 1.000000
0.769583 0.000000 1.000000
0.908988 0.000000 1.000000
1.000000 0.000000 1.000000
0.000000 0.120775 1.000000
0.000000 0.010845 1.000000
0.129852 0.000000 1.000000
0.276676 0.000000 1.000000
0.427542 0.000000 1.000000
0.581487 0.000000 1.000000
0.737932 0.000000 1.000000
0.896486 0.000000 1.000000
1.000000 0.000000 1.000000
0.000000 0.248340 1.000000
0.000000 0.154360 1.000000
0.000000 0.017510 1.000000
0.153919 0.000000 1.000000
0.330389 0.000000 1.000000
0.510461 0.000000 1.000000
0.693456 0.000000 1.000000
0.878918 0.000000 1.000000
1.000000 0.000000 1.000000
0.000000 0.378601 1.000000
0.000000 0.300907 1.000000
0.000000 0.187773 1.000000
0.077851 0.098972 1.000000
0.270186 0.098972 1.000000
0.466448 0.098972 1.000000
0.665895 0.098972 1.000000
0.868032 0.098972 1.000000
1.000000 0.098972 1.000000
0.000000 0.510644 1.000000
0.000000 0.449459 1.000000
0.000000 0.360366 1.000000
0.077851 0.290434 1.000000
0.270186 0.290434 1.000000
0.466448 0.290434 1.000000
0.665895 0.290434 1.000000
0.868032 0.290434 1.000000
1.000000 0.290434 1.000000
0.000000 0.644028 1.000000
0.000000 0.599520 1.000000
0.000000 0.534711 1.000000
0.077851 0.483840 1.000000
0.270186 0.483840 1.000000
0.466448 0.483840 1.000000
0.665895 0.483840 1.000000
0.868032 0.483840 1.000000
1.000000 0.483840 1.000000
0.000000 0.778490 1.000000
0.000000 0.750794 1.000000
0.000000 0.710466 1.000000
0.077851 0.678810 1.000000
0.270186 0.678810 1.000000
0.466448 0.678810 1.000000
0.665895 0.678810 1.000000
0.868032 0.678810 1.000000
1.000000 0.678810 1.000000
0.000000 0.913856 1.000000
0.000000 0.903085 1.000000
0.000000 0.887401 1.000000
0.077851 0.875091 1.000000
0.270186 0.875091 1.000000
0.466448 0.875091 1.000000
0.665895 0.875091 1.000000
0.868032 0.875091 1.000000
1.000000 0.875091 1.000000
0.000000 1.000000 1.000000
0.000000 1.000000 1.000000
0.000000 1.000000 1.000000
0.077851 1.000000 1.000000
0.270186 1.000000 1.000000
0.466448 1.000000 1.000000
0.665895 1.000000 1.000000
0.868032 1.000000 1.000000
1.000000 1.000000 1.000000
