app/src/main/assets/luts/velvia_pop.cube
TITLE "Velvia Pop"
LUT_3D_SIZE 5
DOMAIN_MIN 0.0 0.0 0.0
DOMAIN_MAX 1.0 1.0 1.0
0.000000 0.000000 0.000000
0.234944 0.000000 0.000000
0.496680 0.000000 0.000000
0.769583 0.000000 0.000000
1.000000 0.000000 0.000000
0.000000 0.248340 0.000000
0.234944 0.248340 0.000000
0.496680 0.248340 0.000000
0.769583 0.248340 0.000000
1.000000 0.248340 0.000000
0.000000 0.510644 0.000000
0.234944 0.510644 0.000000
0.496680 0.510644 0.000000
0.769583 0.510644 0.000000
1.000000 0.510644 0.000000
0.000000 0.778490 0.000000
0.234944 0.778490 0.000000
0.496680 0.778490 0.000000
0.769583 0.778490 0.000000
1.000000 0.778490 0.000000
0.000000 1.000000 0.000000
0.234944 1.000000 0.000000
0.496680 1.000000 0.000000
0.769583 1.000000 0.000000
1.000000 1.000000 0.000000
0.000000 0.000000 0.248451
0.234944 0.000000 0.248451
0.496680 0.000000 0.248451
0.769583 0.000000 0.248451
1.000000 0.000000 0.248451
0.000000 0.248340 0.248451
0.228866 0.248290 0.248451
0.496680 0.136587 0.136747
0.769583 0.013781 0.013941
1.000000 0.000000 0.000147
0.000000 0.510644 0.248451
0.110879 0.510644 0.130464
0.490397 0.510644 0.130464
0.769583 0.394121 0.013941
1.000000 0.348870 0.000000
0.000000 0.778490 0.248451
0.000000 0.778490 0.019345
0.369866 0.778490 0.009933
0.765575 0.778490 0.009933
1.000000 0.705262 0.000000
0.000000 1.000000 0.248451
0.000000 1.000000 0.017654
0.330290 1.000000 0.000000
0.693411 1.000000 0.000000
1.000000 1.000000 0.000000
0.000000 0.000000 0.518003
0.234944 0.000000 0.518003
0.496680 0.000000 0.518003
0.769583 0.000000 0.518003
1.000000 0.000000 0.518003
0.000000 0.248340 0.518003
0.107568 0.126992 0.518003
0.487085 0.126992 0.518003
0.769583 0.013781 0.404791
1.000000 0.000000 0.358756
0.000000 0.510644 0.518003
0.107568 0.507332 0.518003
0.487085 0.507332 0.518003
0.769583 0.394121 0.404791
1.000000 0.290434 0.301104
0.000000 0.778490 0.518003
0.000000 0.778490 0.405409
0.369866 0.778490 0.400783
0.765575 0.778490 0.400783
1.000000 0.678810 0.301104
0.000000 1.000000 0.518003
0.000000 1.000000 0.369984
0.270186 1.000000 0.301104
0.665895 1.000000 0.301104
1.000000 1.000000 0.301104
0.000000 0.000000 0.796139
0.234944 0.000000 0.796139
0.496680 0.000000 0.796139
0.769583 0.000000 0.796139
1.000000 0.000000 0.796139
0.000000 0.248340 0.796139
0.000000 0.019004 0.796139
0.361924 0.001831 0.796139
0.757633 0.001831 0.796139
1.000000 0.000000 0.728785
0.000000 0.510644 0.796139
0.000000 0.391121 0.796139
0.361924 0.382171 0.796139
0.757633 0.382171 0.796139
1.000000 0.290434 0.704401
0.000000 0.778490 0.796139
0.000000 0.771101 0.796139
0.361924 0.770548 0.796139
0.757633 0.770548 0.796139
1.000000 0.678810 0.704401
0.000000 1.000000 0.796139
0.000000 1.000000 0.733534
0.270186 1.000000 0.704401
0.665895 1.000000 0.704401
1.000000 1.000000 0.704401
0.000000 0.000000 1.000000
0.234944 0.000000 1.000000
0.496680 0.000000 1.000000
0.769583 0.000000 1.000000
1.000000 0.000000 1.000000
0.000000 0.248340 1.000000
0.000000 0.017510 1.000000
0.330389 0.000000 1.000000
0.693456 0.000000 1.000000
1.000000 0.000000 1.000000
0.000000 0.510644 1.000000
0.000000 0.360366 1.000000
0.270186 0.290434 1.000000
0.665895 0.290434 1.000000
1.000000 0.290434 1.000000
0.000000 0.778490 1.000000
0.000000 0.710466 1.000000
0.270186 0.678810 1.000000
0.665895 0.678810 1.000000
1.000000 0.678810 1.000000
0.000000 1.000000 1.000000
0.000000 1.000000 1.000000
0.270186 1.000000 1.000000
0.665895 1.000000 1.000000
1.000000 1.000000 1.000000
