app/src/main/assets/luts/velvia_pop.cube
TITLE "Velvia Pop"
LUT_3D_SIZE 33
DOMAIN_MIN 0.0 0.0 0.0
DOMAIN_MAX 1.0 1.0 1.0
0.000000 0.000000 0.000000
0.024867 0.000000 0.000000
0.052570 0.000000 0.000000
0.081455 0.000000 0.000000
0.111135 0.000000 0.000000
0.141421 0.000000 0.000000
0.172199 0.000000 0.000000
0.203392 0.000000 0.000000
0.234944 0.000000 0.000000
0.266814 0.000000 0.000000
0.298970 0.000000 0.000000
0.331384 0.000000 0.000000
0.364035 0.000000 0.000000
0.396905 0.000000 0.000000
0.429977 0.000000 0.000000
0.463240 0.000000 0.000000
0.496680 0.000000 0.000000
0.530288 0.000000 0.000000
0.564055 0.000000 0.000000
0.597972 0.000000 0.000000
0.632033 0.000000 0.000000
0.666230 0.000000 0.000000
0.700558 0.000000 0.000000
0.735010 0.000000 0.000000
0.769583 0.000000 0.000000
0.804271 0.000000 0.000000
0.839071 0.000000 0.000000
0.873977 0.000000 0.000000
0.908988 0.000000 0.000000
0.944098 0.000000 0.000000
0.979306 0.000000 0.000000
1.000000 0.000000 0.000000
1.000000 0.000000 0.000000
0.000000 0.028565 0.000000
0.024867 0.028565 0.000000
0.052570 0.028565 0.000000
0.081455 0.028565 0.000000
0.111135 0.028565 0.000000
0.141421 0.028565 0.000000
0.172199 0.028565 0.000000
0.203392 0.028565 0.000000
0.234944 0.028565 0.000000
0.266814 0.028565 0.000000
0.298970 0.028565 0.000000
0.331384 0.028565 0.000000
0.364035 0.028565 0.000000
0.396905 0.028565 0.000000
0.429977 0.028565 0.000000
0.463240 0.028565 0.000000
0.496680 0.028565 0.000000
0.530288 0.028565 0.000000
0.564055 0.028565 0.000000
0.597972 0.028565 0.000000
0.632033 0.028565 0.000000
0.666230 0.028565 0.000000
0.700558 0.028565 0.000000
0.735010 0.028565 0.000000
0.769583 0.028565 0.000000
0.804271 0.028565 0.000000
0.839071 0.028565 0.000000
0.873977 0.028565 0.000000
0.908988 0.028565 0.000000
0.944098 0.028565 0.000000
0.979306 0.028565 0.000000
1.000000 0.028565 0.000000
1.000000 0.028565 0.000000
0.000000 0.058736 0.000000
0.024867 0.058736 0.000000
0.052570 0.058736 0.000000
0.081455 0.058736 0.000000
0.111135 0.058736 0.000000
0.141421 0.058736 0.000000
0.172199 0.058736 0.000000
0.203392 0.058736 0.000000
0.234944 0.058736 0.000000
0.266814 0.058736 0.000000
0.298970 0.058736 0.000000
0.331384 0.058736 0.000000
0.364035 0.058736 0.000000
0.396905 0.058736 0.000000
0.429977 0.058736 0.000000
0.463240 0.058736 0.000000
0.496680 0.058736 0.000000
0.530288 0.058736 0.000000
0.564055 0.058736 0.000000
0.597972 0.058736 0.000000
0.632033 0.058736 0.000000
0.666230 0.058736 0.000000
0.700558 0.058736 0.000000
0.735010 0.058736 0.000000
0.769583 0.058736 0.000000
0.804271 0.058736 0.000000
0.839071 0.058736 0.000000
0.873977 0.058736 0.000000
0.908988 0.058736 0.000000
0.944098 0.058736 0.000000
0.979306 0.058736 0.000000
1.000000 0.058736 0.000000
1.000000 0.058736 0.000000
0.000000 0.089545 0.000000
0.024867 0.089545 0.000000
0.052570 0.089545 0.000000
0.081455 0.089545 0.000000
0.111135 0.089545 0.000000
0.141421 0.089545 0.000000
0.172199 0.089545 0.000000
0.203392 0.089545 0.000000
0.234944 0.089545 0.000000
0.266814 0.089545 0.000000
0.298970 0.089545 0.000000
0.331384 0.089545 0.000000
0.364035 0.089545 0.000000
0.396905 0.089545 0.000000
0.429977 0.089545 0.000000
0.463240 0.089545 0.000000
0.496680 0.089545 0.000000
0.530288 0.089545 0.000000
0.564055 0.089545 0.000000
0.597972 0.089545 0.000000
0.632033 0.089545 0.000000
0.666230 0.089545 0.000000
0.700558 0.089545 0.000000
0.735010 0.089545 0.000000
0.769583 0.089545 0.000000
0.804271 0.089545 0.000000
0.839071 0.089545 0.000000
0.873977 0.089545 0.000000
0.908988 0.089545 0.000000
0.944098 0.089545 0.000000
0.979306 0.089545 0.000000
1.000000 0.089545 0.000000
1.000000 0.089545 0.000000
0.000000 0.120775 0.000000
0.024867 0.120775 0.000000
0.052570 0.120775 0.000000
0.081455 0.120775 0.000000
0.111135 0.120775 0.000000
0.141421 0.120775 0.000000
0.172199 0.120775 0.000000
0.203392 0.120775 0.000000
0.234944 0.120775 0.000000
0.266814 0.120775 0.000000
0.298970 0.120775 0.000000
0.331384 0.120775 0.000000
0.364035 0.120775 0.000000
0.396905 0.120775 0.000000
0.429977 0.120775 0.000000
0.463240 0.120775 0.000000
0.496680 0.120775 0.000000
0.530288 0.120775 0.000000
0.564055 0.120775 0.000000
0.597972 0.120775 0.000000
0.632033 0.120775 0.000000
0.666230 0.120775 0.000000
0.700558 0.120775 0.000000
0.735010 0.120775 0.000000
0.769583 0.120775 0.000000
0.804271 0.120775 0.000000
0.839071 0.120775 0.000000
0.873977 0.120775 0.000000
0.908988 0.120775 0.000000
0.944098 0.120775 0.000000
0.979306 0.120775 0.000000
1.000000 0.120775 0.000000
1.000000 0.120775 0.000000
0.000000 0.152322 0.000000
0.024867 0.152322 0.000000
0.052570 0.152322 0.000000
0.081455 0.152322 0.000000
0.111135 0.152322 0.000000
0.141421 0.152322 0.000000
0.172199 0.152322 0.000000
0.203392 0.152322 0.000000
0.234944 0.152322 0.000000
0.266814 0.152322 0.000000
0.298970 0.152322 0.000000
0.331384 0.152322 0.000000
0.364035 0.152322 0.000000
0.396905 0.152322 0.000000
0.429977 0.152322 0.000000
0.463240 0.152322 0.000000
0.496680 0.152322 0.000000
0.530288 0.152322 0.000000
0.564055 0.152322 0.000000
0.597972 0.152322 0.000000
0.632033 0.152322 0.000000
0.666230 0.152322 0.000000
0.700558 0.152322 0.000000
0.735010 0.152322 0.000000
0.769583 0.152322 0.000000
0.804271 0.152322 0.000000
0.839071 0.152322 0.000000
0.873977 0.152322 0.000000
0.908988 0.152322 0.000000
0.944098 0.152322 0.000000
0.979306 0.152322 0.000000
1.000000 0.152322 0.000000
1.000000 0.152322 0.000000
0.000000 0.184124 0.000000
0.024867 0.184124 0.000000
0.052570 0.184124 0.000000
0.081455 0.184124 0.000000
0.111135 0.184124 0.000000
0.141421 0.184124 0.000000
0.172199 0.184124 0.000000
0.203392 0.184124 0.000000
0.234944 0.184124 0.000000
0.266814 0.184124 0.000000
0.298970 0.184124 0.000000
0.331384 0.184124 0.000000
0.364035 0.184124 0.000000
0.396905 0.184124 0.000000
0.429977 0.184124 0.000000
0.463240 0.184124 0.000000
0.496680 0.184124 0.000000
0.530288 0.184124 0.000000
0.564055 0.184124 0.000000
0.597972 0.184124 0.000000
0.632033 0.184124 0.000000
0.666230 0.184124 0.000000
0.700558 0.184124 0.000000
0.735010 0.184124 0.000000
0.769583 0.184124 0.000000
0.804271 0.184124 0.000000
0.839071 0.184124 0.000000
0.873977 0.184124 0.000000
0.908988 0.184124 0.000000
0.944098 0.184124 0.000000
0.979306 0.184124 0.000000
1.000000 0.184124 0.000000
1.000000 0.184124 0.000000
0.000000 0.216140 0.000000
0.024867 0.216140 0.000000
0.052570 0.216140 0.000000
0.081455 0.216140 0.000000
0.111135 0.216140 0.000000
0.141421 0.216140 0.000000
0.172199 0.216140 0.000000
0.203392 0.216140 0.000000
0.234944 0.216140 0.000000
0.266814 0.216140 0.000000
0.298970 0.216140 0.000000
0.331384 0.216140 0.000000
0.364035 0.216140 0.000000
0.396905 0.216140 0.000000
0.429977 0.216140 0.000000
0.463240 0.216140 0.000000
0.496680 0.216140 0.000000
0.530288 0.216140 0.000000
0.564055 0.216140 0.000000
0.597972 0.216140 0.000000
0.632033 0.216140 0.000000
0.666230 0.216140 0.000000
0.700558 0.216140 0.000000
0.735010 0.216140 0.000000
0.769583 0.216140 0.000000
0.804271 0.216140 0.000000
0.839071 0.216140 0.000000
0.873977 0.216140 0.000000
0.908988 0.216140 0.000000
0.944098 0.216140 0.000000
0.979306 0.216140 0.000000
1.000000 0.216140 0.000000
1.000000 0.216140 0.000000
0.000000 0.248340 0.000000
0.024867 0.248340 0.000000
0.052570 0.248340 0.000000
0.081455 0.248340 0.000000
0.111135 0.248340 0.000000
0.141421 0.248340 0.000000
0.172199 0.248340 0.000000
0.203392 0.248340 0.000000
0.234944 0.248340 0.000000
0.266814 0.248340 0.000000
0.298970 0.248340 0.000000
0.331384 0.248340 0.000000
0.364035 0.248340 0.000000
0.396905 0.248340 0.000000
0.429977 0.248340 0.000000
0.463240 0.248340 0.000000
0.496680 0.248340 0.000000
0.530288 0.248340 0.000000
0.564055 0.248340 0.000000
0.597972 0.248340 0.000000
0.632033 0.248340 0.000000
0.666230 0.248340 0.000000
0.700558 0.248340 0.000000
0.735010 0.248340 0.000000
0.769583 0.248340 0.000000
0.804271 0.248340 0.000000
0.839071 0.248340 0.000000
0.873977 0.248340 0.000000
0.908988 0.248340 0.000000
0.944098 0.248340 0.000000
0.979306 0.248340 0.000000
1.000000 0.248340 0.000000
1.000000 0.248340 0.000000
0.000000 0.280702 0.000000
0.024867 0.280702 0.000000
0.052570 0.280702 0.000000
0.081455 0.280702 0.000000
0.111135 0.280702 0.000000
0.141421 0.280702 0.000000
0.172199 0.280702 0.000000
0.203392 0.280702 0.000000
0.234944 0.280702 0.000000
0.266814 0.280702 0.000000
0.298970 0.280702 0.000000
0.331384 0.280702 0.000000
0.364035 0.280702 0.000000
0.396905 0.280702 0.000000
0.429977 0.280702 0.000000
0.463240 0.280702 0.000000
0.496680 0.280702 0.000000
0.530288 0.280702 0.000000
0.564055 0.280702 0.000000
0.597972 0.280702 0.000000
0.632033 0.280702 0.000000
0.666230 0.280702 0.000000
0.700558 0.280702 0.000000
0.735010 0.280702 0.000000
0.769583 0.280702 0.000000
0.804271 0.280702 0.000000
0.839071 0.280702 0.000000
0.873977 0.280702 0.000000
0.908988 0.280702 0.000000
0.944098 0.280702 0.000000
0.979306 0.280702 0.000000
1.000000 0.280702 0.000000
1.000000 0.280702 0.000000
0.000000 0.313208 0.000000
0.024867 0.313208 0.000000
0.052570 0.313208 0.000000
0.081455 0.313208 0.000000
0.111135 0.313208 0.000000
0.141421 0.313208 0.000000
0.172199 0.313208 0.000000
0.203392 0.313208 0.000000
0.234944 0.313208 0.000000
0.266814 0.313208 0.000000
0.298970 0.313208 0.000000
0.331384 0.313208 0.000000
0.364035 0.313208 0.000000
0.396905 0.313208 0.000000
0.429977 0.313208 0.000000
0.463240 0.313208 0.000000
0.496680 0.313208 0.000000
0.530288 0.313208 0.000000
0.564055 0.313208 0.000000
0.597972 0.313208 0.000000
0.632033 0.313208 0.000000
0.666230 0.313208 0.000000
0.700558 0.313208 0.000000
0.735010 0.313208 0.000000
0.769583 0.313208 0.000000
0.804271 0.313208 0.000000
0.839071 0.313208 0.000000
0.873977 0.313208 0.000000
0.908988 0.313208 0.000000
0.944098 0.313208 0.000000
0.979306 0.313208 0.000000
1.000000 0.313208 0.000000
1.000000 0.313208 0.000000
0.000000 0.345845 0.000000
0.024867 0.345845 0.000000
0.052570 0.345845 0.000000
0.081455 0.345845 0.000000
0.111135 0.345845 0.000000
0.141421 0.345845 0.000000
0.172199 0.345845 0.000000
0.203392 0.345845 0.000000
0.234944 0.345845 0.000000
0.266814 0.345845 0.000000
0.298970 0.345845 0.000000
0.331384 0.345845 0.000000
0.364035 0.345845 0.000000
0.396905 0.345845 0.000000
0.429977 0.345845 0.000000
0.463240 0.345845 0.000000
0.496680 0.345845 0.000000
0.530288 0.345845 0.000000
0.564055 0.345845 0.000000
0.597972 0.345845 0.000000
0.632033 0.345845 0.000000
0.666230 0.345845 0.000000
0.700558 0.345845 0.000000
0.735010 0.345845 0.000000
0.769583 0.345845 0.000000
0.804271 0.345845 0.000000
0.839071 0.345845 0.000000
0.873977 0.345845 0.000000
0.908988 0.345845 0.000000
0.944098 0.345845 0.000000
0.979306 0.345845 0.000000
1.000000 0.345845 0.000000
1.000000 0.345845 0.000000
0.000000 0.378601 0.000000
0.024867 0.378601 0.000000
0.052570 0.378601 0.000000
0.081455 0.378601 0.000000
0.111135 0.378601 0.000000
0.141421 0.378601 0.000000
0.172199 0.378601 0.000000
0.203392 0.378601 0.000000
0.234944 0.378601 0.000000
0.266814 0.378601 0.000000
0.298970 0.378601 0.000000
0.331384 0.378601 0.000000
0.364035 0.378601 0.000000
0.396905 0.378601 0.000000
0.429977 0.378601 0.000000
0.463240 0.378601 0.000000
0.496680 0.378601 0.000000
0.530288 0.378601 0.000000
0.564055 0.378601 0.000000
0.597972 0.378601 0.000000
0.632033 0.378601 0.000000
0.666230 0.378601 0.000000
0.700558 0.378601 0.000000
0.735010 0.378601 0.000000
0.769583 0.378601 0.000000
0.804271 0.378601 0.000000
0.839071 0.378601 0.000000
0.873977 0.378601 0.000000
0.908988 0.378601 0.000000
0.944098 0.378601 0.000000
0.979306 0.378601 0.000000
1.000000 0.378601 0.000000
1.000000 0.378601 0.000000
0.000000 0.411466 0.000000
0.024867 0.411466 0.000000
0.052570 0.411466 0.000000
0.081455 0.411466 0.000000
0.111135 0.411466 0.000000
0.141421 0.411466 0.000000
0.172199 0.411466 0.000000
0.203392 0.411466 0.000000
0.234944 0.411466 0.000000
0.266814 0.411466 0.000000
0.298970 0.411466 0.000000
0.331384 0.411466 0.000000
0.364035 0.411466 0.000000
0.396905 0.411466 0.000000
0.429977 0.411466 0.000000
0.463240 0.411466 0.000000
0.496680 0.411466 0.000000
0.530288 0.411466 0.000000
0.564055 0.411466 0.000000
0.597972 0.411466 0.000000
0.632033 0.411466 0.000000
0.666230 0.411466 0.000000
0.700558 0.411466 0.000000
0.735010 0.411466 0.000000
0.769583 0.411466 0.000000
0.804271 0.411466 0.000000
0.839071 0.411466 0.000000
0.873977 0.411466 0.000000
0.908988 0.411466 0.000000
0.944098 0.411466 0.000000
0.979306 0.411466 0.000000
1.000000 0.411466 0.000000
1.000000 0.411466 0.000000
0.000000 0.444433 0.000000
0.024867 0.444433 0.000000
0.052570 0.444433 0.000000
0.081455 0.444433 0.000000
0.111135 0.444433 0.000000
0.141421 0.444433 0.000000
0.172199 0.444433 0.000000
0.203392 0.444433 0.000000
0.234944 0.444433 0.000000
0.266814 0.444433 0.000000
0.298970 0.444433 0.000000
0.331384 0.444433 0.000000
0.364035 0.444433 0.000000
0.396905 0.444433 0.000000
0.429977 0.444433 0.000000
0.463240 0.444433 0.000000
0.496680 0.444433 0.000000
0.530288 0.444433 0.000000
0.564055 0.444433 0.000000
0.597972 0.444433 0.000000
0.632033 0.444433 0.000000
0.666230 0.444433 0.000000
0.700558 0.444433 0.000000
0.735010 0.444433 0.000000
0.769583 0.444433 0.000000
0.804271 0.444433 0.000000
0.839071 0.444433 0.000000
0.873977 0.444433 0.000000
0.908988 0.444433 0.000000
0.944098 0.444433 0.000000
0.979306 0.444433 0.000000
1.000000 0.444433 0.000000
1.000000 0.444433 0.000000
0.000000 0.477494 0.000000
0.024867 0.477494 0.000000
0.052570 0.477494 0.000000
0.081455 0.477494 0.000000
0.111135 0.477494 0.000000
0.141421 0.477494 0.000000
0.172199 0.477494 0.000000
0.203392 0.477494 0.000000
0.234944 0.477494 0.000000
0.266814 0.477494 0.000000
0.298970 0.477494 0.000000
0.331384 0.477494 0.000000
0.364035 0.477494 0.000000
0.396905 0.477494 0.000000
0.429977 0.477494 0.000000
0.463240 0.477494 0.000000
0.496680 0.477494 0.000000
0.530288 0.477494 0.000000
0.564055 0.477494 0.000000
0.597972 0.477494 0.000000
0.632033 0.477494 0.000000
0.666230 0.477494 0.000000
0.700558 0.477494 0.000000
0.735010 0.477494 0.000000
0.769583 0.477494 0.000000
0.804271 0.477494 0.000000
0.839071 0.477494 0.000000
0.873977 0.477494 0.000000
0.908988 0.477494 0.000000
0.944098 0.477494 0.000000
0.979306 0.477494 0.000000
1.000000 0.477494 0.000000
1.000000 0.477494 0.000000
0.000000 0.510644 0.000000
0.024867 0.510644 0.000000
0.052570 0.510644 0.000000
0.081455 0.510644 0.000000
0.111135 0.510644 0.000000
0.141421 0.510644 0.000000
0.172199 0.510644 0.000000
0.203392 0.510644 0.000000
0.234944 0.510644 0.000000
0.266814 0.510644 0.000000
0.298970 0.510644 0.000000
0.331384 0.510644 0.000000
0.364035 0.510644 0.000000
0.396905 0.510644 0.000000
0.429977 0.510644 0.000000
0.463240 0.510644 0.000000
0.496680 0.510644 0.000000
0.530288 0.510644 0.000000
0.564055 0.510644 0.000000
0.597972 0.510644 0.000000
0.632033 0.510644 0.000000
0.666230 0.510644 0.000000
0.700558 0.510644 0.000000
0.735010 0.510644 0.000000
0.769583 0.510644 0.000000
0.804271 0.510644 0.000000
0.839071 0.510644 0.000000
0.873977 0.510644 0.000000
0.908988 0.510644 0.000000
0.944098 0.510644 0.000000
0.979306 0.510644 0.000000
1.000000 0.510644 0.000000
1.000000 0.510644 0.000000
0.000000 0.543876 0.000000
0.024867 0.543876 0.000000
0.052570 0.543876 0.000000
0.081455 0.543876 0.000000
0.111135 0.543876 0.000000
0.141421 0.543876 0.000000
0.172199 0.543876 0.000000
0.203392 0.543876 0.000000
0.234944 0.543876 0.000000
0.266814 0.543876 0.000000
0.298970 0.543876 0.000000
0.331384 0.543876 0.000000
0.364035 0.543876 0.000000
0.396905 0.543876 0.000000
0.429977 0.543876 0.000000
0.463240 0.543876 0.000000
0.496680 0.543876 0.000000
0.530288 0.543876 0.000000
0.564055 0.543876 0.000000
0.597972 0.543876 0.000000
0.632033 0.543876 0.000000
0.666230 0.543876 0.000000
0.700558 0.543876 0.000000
0.735010 0.543876 0.000000
0.769583 0.543876 0.000000
0.804271 0.543876 0.000000
0.839071 0.543876 0.000000
0.873977 0.543876 0.000000
0.908988 0.543876 0.000000
0.944098 0.543876 0.000000
0.979306 0.543876 0.000000
1.000000 0.543876 0.000000
1.000000 0.543876 0.000000
0.000000 0.577187 0.000000
0.024867 0.577187 0.000000
0.052570 0.577187 0.000000
0.081455 0.577187 0.000000
0.111135 0.577187 0.000000
0.141421 0.577187 0.000000
0.172199 0.577187 0.000000
0.203392 0.577187 0.000000
0.234944 0.577187 0.000000
0.266814 0.577187 0.000000
0.298970 0.577187 0.000000
0.331384 0.577187 0.000000
0.364035 0.577187 0.000000
0.396905 0.577187 0.000000
0.429977 0.577187 0.000000
0.463240 0.577187 0.000000
0.496680 0.577187 0.000000
0.530288 0.577187 0.000000
0.564055 0.577187 0.000000
0.597972 0.577187 0.000000
0.632033 0.577187 0.000000
0.666230 0.577187 0.000000
0.700558 0.577187 0.000000
0.735010 0.577187 0.000000
0.769583 0.577187 0.000000
0.804271 0.577187 0.000000
0.839071 0.577187 0.000000
0.873977 0.577187 0.000000
0.908988 0.577187 0.000000
0.944098 0.577187 0.000000
0.979306 0.577187 0.000000
1.000000 0.577187 0.000000
1.000000 0.577187 0.000000
0.000000 0.610572 0.000000
0.024867 0.610572 0.000000
0.052570 0.610572 0.000000
0.081455 0.610572 0.000000
0.111135 0.610572 0.000000
0.141421 0.610572 0.000000
0.172199 0.610572 0.000000
0.203392 0.610572 0.000000
0.234944 0.610572 0.000000
0.266814 0.610572 0.000000
0.298970 0.610572 0.000000
0.331384 0.610572 0.000000
0.364035 0.610572 0.000000
0.396905 0.610572 0.000000
0.429977 0.610572 0.000000
0.463240 0.610572 0.000000
0.496680 0.610572 0.000000
0.530288 0.610572 0.000000
0.564055 0.610572 0.000000
0.597972 0.610572 0.000000
0.632033 0.610572 0.000000
0.666230 0.610572 0.000000
0.700558 0.610572 0.000000
0.735010 0.610572 0.000000
0.769583 0.610572 0.000000
0.804271 0.610572 0.000000
0.839071 0.610572 0.000000
0.873977 0.610572 0.000000
0.908988 0.610572 0.000000
0.944098 0.610572 0.000000
0.979306 0.610572 0.000000
1.000000 0.610572 0.000000
1.000000 0.610572 0.000000
0.000000 0.644028 0.000000
0.024867 0.644028 0.000000
0.052570 0.644028 0.000000
0.081455 0.644028 0.000000
0.111135 0.644028 0.000000
0.141421 0.644028 0.000000
0.172199 0.644028 0.000000
0.203392 0.644028 0.000000
0.234944 0.644028 0.000000
0.266814 0.644028 0.000000
0.298970 0.644028 0.000000
0.331384 0.644028 0.000000
0.364035 0.644028 0.000000
0.396905 0.644028 0.000000
0.429977 0.644028 0.000000
0.463240 0.644028 0.000000
0.496680 0.644028 0.000000
0.530288 0.644028 0.000000
0.564055 0.644028 0.000000
0.597972 0.644028 0.000000
0.632033 0.644028 0.000000
0.666230 0.644028 0.000000
0.700558 0.644028 0.000000
0.735010 0.644028 0.000000
0.769583 0.644028 0.000000
0.804271 0.644028 0.000000
0.839071 0.644028 0.000000
0.873977 0.644028 0.000000
0.908988 0.644028 0.000000
0.944098 0.644028 0.000000
0.979306 0.644028 0.000000
1.000000 0.644028 0.000000
1.000000 0.644028 0.000000
0.000000 0.677550 0.000000
0.024867 0.677550 0.000000
0.052570 0.677550 0.000000
0.081455 0.677550 0.000000
0.111135 0.677550 0.000000
0.141421 0.677550 0.000000
0.172199 0.677550 0.000000
0.203392 0.677550 0.000000
0.234944 0.677550 0.000000
0.266814 0.677550 0.000000
0.298970 0.677550 0.000000
0.331384 0.677550 0.000000
0.364035 0.677550 0.000000
0.396905 0.677550 0.000000
0.429977 0.677550 0.000000
0.463240 0.677550 0.000000
0.496680 0.677550 0.000000
0.530288 0.677550 0.000000
0.564055 0.677550 0.000000
0.597972 0.677550 0.000000
0.632033 0.677550 0.000000
0.666230 0.677550 0.000000
0.700558 0.677550 0.000000
0.735010 0.677550 0.000000
0.769583 0.677550 0.000000
0.804271 0.677550 0.000000
0.839071 0.677550 0.000000
0.873977 0.677550 0.000000
0.908988 0.677550 0.000000
0.944098 0.677550 0.000000
0.979306 0.677550 0.000000
1.000000 0.677550 0.000000
1.000000 0.677550 0.000000
0.000000 0.711136 0.000000
0.024867 0.711136 0.000000
0.052570 0.711136 0.000000
0.081455 0.711136 0.000000
0.111135 0.711136 0.000000
0.141421 0.711136 0.000000
0.172199 0.711136 0.000000
0.203392 0.711136 0.000000
0.234944 0.711136 0.000000
0.266814 0.711136 0.000000
0.298970 0.711136 0.000000
0.331384 0.711136 0.000000
0.364035 0.711136 0.000000
0.396905 0.711136 0.000000
0.429977 0.711136 0.000000
0.463240 0.711136 0.000000
0.496680 0.711136 0.000000
0.530288 0.711136 0.000000
0.564055 0.711136 0.000000
0.597972 0.711136 0.000000
0.632033 0.711136 0.000000
0.666230 0.711136 0.000000
0.700558 0.711136 0.000000
0.735010 0.711136 0.000000
0.769583 0.711136 0.000000
0.804271 0.711136 0.000000
0.839071 0.711136 0.000000
0.873977 0.711136 0.000000
0.908988 0.711136 0.000000
0.944098 0.711136 0.000000
0.979306 0.711136 0.000000
1.000000 0.711136 0.000000
1.000000 0.711136 0.000000
0.000000 0.744784 0.000000
0.024867 0.744784 0.000000
0.052570 0.744784 0.000000
0.081455 0.744784 0.000000
0.111135 0.744784 0.000000
0.141421 0.744784 0.000000
0.172199 0.744784 0.000000
0.203392 0.744784 0.000000
0.234944 0.744784 0.000000
0.266814 0.744784 0.000000
0.298970 0.744784 0.000000
0.331384 0.744784 0.000000
0.364035 0.744784 0.000000
0.396905 0.744784 0.000000
0.429977 0.744784 0.000000
0.463240 0.744784 0.000000
0.496680 0.744784 0.000000
0.530288 0.744784 0.000000
0.564055 0.744784 0.000000
0.597972 0.744784 0.000000
0.632033 0.744784 0.000000
0.666230 0.744784 0.000000
0.700558 0.744784 0.000000
0.735010 0.744784 0.000000
0.769583 0.744784 0.000000
0.804271 0.744784 0.000000
0.839071 0.744784 0.000000
0.873977 0.744784 0.000000
0.908988 0.744784 0.000000
0.944098 0.744784 0.000000
0.979306 0.744784 0.000000
1.000000 0.744784 0.000000
1.000000 0.744784 0.000000
0.000000 0.778490 0.000000
0.024867 0.778490 0.000000
0.052570 0.778490 0.000000
0.081455 0.778490 0.000000
0.111135 0.778490 0.000000
0.141421 0.778490 0.000000
0.172199 0.778490 0.000000
0.203392 0.778490 0.000000
0.234944 0.778490 0.000000
0.266814 0.778490 0.000000
0.298970 0.778490 0.000000
0.331384 0.778490 0.000000
0.364035 0.778490 0.000000
0.396905 0.778490 0.000000
0.429977 0.778490 0.000000
0.463240 0.778490 0.000000
0.496680 0.778490 0.000000
0.530288 0.778490 0.000000
0.564055 0.778490 0.000000
0.597972 0.778490 0.000000
0.632033 0.778490 0.000000
0.666230 0.778490 0.000000
0.700558 0.778490 0.000000
0.735010 0.778490 0.000000
0.769583 0.778490 0.000000
0.804271 0.778490 0.000000
0.839071 0.778490 0.000000
0.873977 0.778490 0.000000
0.908988 0.778490 0.000000
0.944098 0.778490 0.000000
0.979306 0.778490 0.000000
1.000000 0.778490 0.000000
1.000000 0.778490 0.000000
0.000000 0.812252 0.000000
0.024867 0.812252 0.000000
0.052570 0.812252 0.000000
0.081455 0.812252 0.000000
0.111135 0.812252 0.000000
0.141421 0.812252 0.000000
0.172199 0.812252 0.000000
0.203392 0.812252 0.000000
0.234944 0.812252 0.000000
0.266814 0.812252 0.000000
0.298970 0.812252 0.000000
0.331384 0.812252 0.000000
0.364035 0.812252 0.000000
0.396905 0.812252 0.000000
0.429977 0.812252 0.000000
0.463240 0.812252 0.000000
0.496680 0.812252 0.000000
0.530288 0.812252 0.000000
0.564055 0.812252 0.000000
0.597972 0.812252 0.000000
0.632033 0.812252 0.000000
0.666230 0.812252 0.000000
0.700558 0.812252 0.000000
0.735010 0.812252 0.000000
0.769583 0.812252 0.000000
0.804271 0.812252 0.000000
0.839071 0.812252 0.000000
0.873977 0.812252 0.000000
0.908988 0.812252 0.000000
0.944098 0.812252 0.000000
0.979306 0.812252 0.000000
1.000000 0.812252 0.000000
1.000000 0.812252 0.000000
0.000000 0.846069 0.000000
0.024867 0.846069 0.000000
0.052570 0.846069 0.000000
0.081455 0.846069 0.000000
0.111135 0.846069 0.000000
0.141421 0.846069 0.000000
0.172199 0.846069 0.000000
0.203392 0.846069 0.000000
0.234944 0.846069 0.000000
0.266814 0.846069 0.000000
0.298970 0.846069 0.000000
0.331384 0.846069 0.000000
0.364035 0.846069 0.000000
0.396905 0.846069 0.000000
0.429977 0.846069 0.000000
0.463240 0.846069 0.000000
0.496680 0.846069 0.000000
0.530288 0.846069 0.000000
0.564055 0.846069 0.000000
0.597972 0.846069 0.000000
0.632033 0.846069 0.000000
0.666230 0.846069 0.000000
0.700558 0.846069 0.000000
0.735010 0.846069 0.000000
0.769583 0.846069 0.000000
0.804271 0.846069 0.000000
0.839071 0.846069 0.000000
