app/src/main/assets/luts/vintage.cube
# Generated 3D LUT
TITLE "Vintage"
LUT_3D_SIZE 8
DOMAIN_MIN 0.000000 0.000000 0.000000
DOMAIN_MAX 0.903226 0.903226 0.903226
0.035000 0.028000 0.070000
0.148244 0.039574 0.078681
0.261488 0.051148 0.087361
0.374732 0.062723 0.096042
0.487975 0.074297 0.104723
0.601219 0.085871 0.113403
0.714463 0.097445 0.122084
0.827707 0.109019 0.130765
0.062267 0.142852 0.087042
0.175511 0.154426 0.095723
0.288755 0.166000 0.104403
0.401999 0.177574 0.113084
0.515243 0.189148 0.121765
0.628486 0.200723 0.130445
0.741730 0.212297 0.139126
0.854974 0.223871 0.147806
0.089534 0.257703 0.104084
0.202778 0.269277 0.112765
0.316022 0.280852 0.121445
0.429266 0.292426 0.130126
0.542510 0.304000 0.138806
0.655754 0.315574 0.147487
0.768997 0.327148 0.156168
0.882241 0.338723 0.164848
0.116801 0.372555 0.121126
0.230045 0.384129 0.129806
0.343289 0.395703 0.138487
0.456533 0.407277 0.147168
0.569777 0.418852 0.155848
0.683021 0.430426 0.164529
0.796265 0.442000 0.173210
0.909508 0.453574 0.181890
0.144068 0.487406 0.138168
0.257312 0.498981 0.146848
0.370556 0.510555 0.155529
0.483800 0.522129 0.164210
0.597044 0.533703 0.172890
0.710288 0.545277 0.181571
0.823532 0.556852 0.190252
0.936775 0.568426 0.198932
0.171335 0.602258 0.155210
0.284579 0.613832 0.163890
0.397823 0.625406 0.172571
0.511067 0.636981 0.181252
0.624311 0.648555 0.189932
0.737555 0.660129 0.198613
0.850799 0.671703 0.207294
0.964043 0.683277 0.215974
0.198603 0.717110 0.172252
0.311846 0.728684 0.180932
0.425090 0.740258 0.189613
0.538334 0.751832 0.198294
0.651578 0.763406 0.206974
0.764822 0.774981 0.215655
0.878066 0.786555 0.224335
0.991310 0.798129 0.233016
0.225870 0.831961 0.189294
0.339114 0.843535 0.197974
0.452357 0.855110 0.206655
0.565601 0.866684 0.215335
0.678845 0.878258 0.224016
0.792089 0.889832 0.232697
0.905333 0.901406 0.241377
1.000000 0.912981 0.250058
0.040295 0.032413 0.143761
0.153539 0.043987 0.152442
0.266783 0.055561 0.161123
0.380027 0.067135 0.169803
0.493271 0.078710 0.178484
0.606515 0.090284 0.187165
0.719759 0.101858 0.195845
0.833003 0.113432 0.204526
0.067563 0.147265 0.160803
0.180806 0.158839 0.169484
0.294050 0.170413 0.178165
0.407294 0.181987 0.186845
0.520538 0.193561 0.195526
0.633782 0.205135 0.204206
0.747026 0.216710 0.212887
0.860270 0.228284 0.221568
0.094830 0.262116 0.177845
0.208074 0.273690 0.186526
0.321317 0.285265 0.195206
0.434561 0.296839 0.203887
0.547805 0.308413 0.212568
0.661049 0.319987 0.221248
0.774293 0.331561 0.229929
0.887537 0.343135 0.238610
0.122097 0.376968 0.194887
0.235341 0.388542 0.203568
0.348585 0.400116 0.212248
0.461828 0.411690 0.220929
0.575072 0.423265 0.229610
0.688316 0.434839 0.238290
0.801560 0.446413 0.246971
0.914804 0.457987 0.255652
0.149364 0.491819 0.211929
0.262608 0.503394 0.220610
0.375852 0.514968 0.229290
0.489095 0.526542 0.237971
0.602339 0.538116 0.246652
0.715583 0.549690 0.255332
0.828827 0.561265 0.264013
0.942071 0.572839 0.272694
0.176631 0.606671 0.228971
0.289875 0.618245 0.237652
0.403119 0.629819 0.246332
0.516363 0.641394 0.255013
0.629606 0.652968 0.263694
0.742850 0.664542 0.272374
0.856094 0.676116 0.281055
0.969338 0.687690 0.289735
0.203898 0.721523 0.246013
0.317142 0.733097 0.254694
0.430386 0.744671 0.263374
0.543630 0.756245 0.272055
0.656874 0.767819 0.280735
0.770117 0.779394 0.289416
0.883361 0.790968 0.298097
0.996605 0.802542 0.306777
0.231165 0.836374 0.263055
0.344409 0.847948 0.271735
0.457653 0.859523 0.280416
0.570897 0.871097 0.289097
0.684141 0.882671 0.297777
0.797385 0.894245 0.306458
0.910628 0.905819 0.315139
1.000000 0.917394 0.323819
0.045591 0.036826 0.217523
0.158835 0.048400 0.226203
0.272079 0.059974 0.234884
0.385323 0.071548 0.243565
0.498566 0.083123 0.252245
0.611810 0.094697 0.260926
0.725054 0.106271 0.269606
0.838298 0.117845 0.278287
0.072858 0.151677 0.234565
0.186102 0.163252 0.243245
0.299346 0.174826 0.251926
0.412590 0.186400 0.260606
0.525834 0.197974 0.269287
0.639077 0.209548 0.277968
0.752321 0.221123 0.286648
0.865565 0.232697 0.295329
0.100125 0.266529 0.251606
0.213369 0.278103 0.260287
0.326613 0.289677 0.268968
0.439857 0.301252 0.277648
0.553101 0.312826 0.286329
0.666345 0.324400 0.295010
0.779588 0.335974 0.303690
0.892832 0.347548 0.312371
0.127392 0.381381 0.268648
0.240636 0.392955 0.277329
0.353880 0.404529 0.286010
0.467124 0.416103 0.294690
0.580368 0.427677 0.303371
0.693612 0.439252 0.312052
0.806855 0.450826 0.320732
0.920099 0.462400 0.329413
0.154659 0.496232 0.285690
0.267903 0.507806 0.294371
0.381147 0.519381 0.303052
0.494391 0.530955 0.311732
0.607635 0.542529 0.320413
0.720879 0.554103 0.329094
0.834123 0.565677 0.337774
0.947366 0.577252 0.346455
0.181926 0.611084 0.302732
0.295170 0.622658 0.311413
0.408414 0.634232 0.320094
0.521658 0.645806 0.328774
0.634902 0.657381 0.337455
0.748146 0.668955 0.346135
0.861390 0.680529 0.354816
0.974634 0.692103 0.363497
0.209194 0.725935 0.319774
0.322437 0.737510 0.328455
0.435681 0.749084 0.337135
0.548925 0.760658 0.345816
0.662169 0.772232 0.354497
0.775413 0.783806 0.363177
0.888657 0.795381 0.371858
1.000000 0.806955 0.380539
0.236461 0.840787 0.336816
0.349705 0.852361 0.345497
0.462948 0.863935 0.354177
0.576192 0.875510 0.362858
0.689436 0.887084 0.371539
0.802680 0.898658 0.380219
0.915924 0.910232 0.388900
1.000000 0.921806 0.397581
0.050886 0.041239 0.291284
0.164130 0.052813 0.299965
0.277374 0.064387 0.308645
0.390618 0.075961 0.317326
0.503862 0.087535 0.326006
0.617106 0.099110 0.334687
0.730350 0.110684 0.343368
0.843594 0.122258 0.352048
0.078154 0.156090 0.308326
0.191397 0.167665 0.317006
0.304641 0.179239 0.325687
0.417885 0.190813 0.334368
0.531129 0.202387 0.343048
0.644373 0.213961 0.351729
0.757617 0.225535 0.360410
0.870861 0.237110 0.369090
0.105421 0.270942 0.325368
0.218665 0.282516 0.334048
0.331908 0.294090 0.342729
0.445152 0.305665 0.351410
0.558396 0.317239 0.360090
0.671640 0.328813 0.368771
0.784884 0.340387 0.377452
0.898128 0.351961 0.386132
0.132688 0.385794 0.342410
0.245932 0.397368 0.351090
0.359175 0.408942 0.359771
0.472419 0.420516 0.368452
0.585663 0.432090 0.377132
0.698907 0.443665 0.385813
0.812151 0.455239 0.394494
0.925395 0.466813 0.403174
0.159955 0.500645 0.359452
0.273199 0.512219 0.368132
0.386443 0.523794 0.376813
0.499686 0.535368 0.385494
0.612930 0.546942 0.394174
0.726174 0.558516 0.402855
0.839418 0.570090 0.411535
0.952662 0.581665 0.420216
0.187222 0.615497 0.376494
0.300466 0.627071 0.385174
0.413710 0.638645 0.393855
0.526954 0.650219 0.402535
0.640197 0.661794 0.411216
0.753441 0.673368 0.419897
0.866685 0.684942 0.428577
0.979929 0.696516 0.437258
0.214489 0.730348 0.393535
0.327733 0.741923 0.402216
0.440977 0.753497 0.410897
0.554221 0.765071 0.419577
0.667465 0.776645 0.428258
0.780708 0.788219 0.436939
0.893952 0.799794 0.445619
1.000000 0.811368 0.454300
0.241756 0.845200 0.410577
0.355000 0.856774 0.419258
0.468244 0.868348 0.427939
0.581488 0.879923 0.436619
0.694732 0.891497 0.445300
0.807975 0.903071 0.453981
0.921219 0.914645 0.462661
1.000000 0.926219 0.471342
0.056182 0.045652 0.365045
0.169426 0.057226 0.373726
0.282670 0.068800 0.382406
0.395914 0.080374 0.391087
0.509157 0.091948 0.399768
0.622401 0.103523 0.408448
0.735645 0.115097 0.417129
0.848889 0.126671 0.425810
0.083449 0.160503 0.382087
0.196693 0.172077 0.390768
0.309937 0.183652 0.399448
0.423181 0.195226 0.408129
0.536425 0.206800 0.416810
0.649668 0.218374 0.425490
0.762912 0.229948 0.434171
0.876156 0.241523 0.442852
0.110716 0.275355 0.399129
0.223960 0.286929 0.407810
0.337204 0.298503 0.416490
0.450448 0.310077 0.425171
0.563692 0.321652 0.433852
0.676935 0.333226 0.442532
0.790179 0.344800 0.451213
0.903423 0.356374 0.459894
0.137983 0.390206 0.416171
0.251227 0.401781 0.424852
0.364471 0.413355 0.433532
0.477715 0.424929 0.442213
0.590959 0.436503 0.450894
0.704203 0.448077 0.459574
0.817446 0.459652 0.468255
0.930690 0.471226 0.476935
0.165250 0.505058 0.433213
0.278494 0.516632 0.441894
0.391738 0.528206 0.450574
0.504982 0.539781 0.459255
0.618226 0.551355 0.467935
0.731470 0.562929 0.476616
0.844714 0.574503 0.485297
0.957957 0.586077 0.493977
0.192517 0.619910 0.450255
0.305761 0.631484 0.458935
0.419005 0.643058 0.467616
0.532249 0.654632 0.476297
0.645493 0.666206 0.484977
0.758737 0.677781 0.493658
0.871981 0.689355 0.502339
0.985225 0.700929 0.511019
0.219785 0.734761 0.467297
0.333028 0.746335 0.475977
0.446272 0.757910 0.484658
0.559516 0.769484 0.493339
0.672760 0.781058 0.502019
0.786004 0.792632 0.510700
0.899248 0.804206 0.519381
1.000000 0.815781 0.528061
0.247052 0.849613 0.484339
0.360295 0.861187 0.493019
0.473539 0.872761 0.501700
0.586783 0.884335 0.510381
0.700027 0.895910 0.519061
0.813271 0.907484 0.527742
0.926515 0.919058 0.536423
1.000000 0.930632 0.545103
0.061477 0.050065 0.438806
0.174721 0.061639 0.447487
0.287965 0.073213 0.456168
0.401209 0.084787 0.464848
0.514453 0.096361 0.473529
0.627697 0.107935 0.482210
0.740941 0.119510 0.490890
0.854185 0.131084 0.499571
0.088745 0.164916 0.455848
0.201988 0.176490 0.464529
0.315232 0.188065 0.473210
0.428476 0.199639 0.481890
0.541720 0.211213 0.490571
0.654964 0.222787 0.499252
0.768208 0.234361 0.507932
0.881452 0.245935 0.516613
0.116012 0.279768 0.472890
0.229255 0.291342 0.481571
0.342499 0.302916 0.490252
0.455743 0.314490 0.498932
0.568987 0.326065 0.507613
0.682231 0.337639 0.516294
0.795475 0.349213 0.524974
0.908719 0.360787 0.533655
0.143279 0.394619 0.489932
0.256523 0.406194 0.498613
0.369766 0.417768 0.507294
0.483010 0.429342 0.515974
0.596254 0.440916 0.524655
0.709498 0.452490 0.533335
0.822742 0.464065 0.542016
0.935986 0.475639 0.550697
0.170546 0.509471 0.506974
0.283790 0.521045 0.515655
0.397034 0.532619 0.524335
0.510277 0.544194 0.533016
0.623521 0.555768 0.541697
0.736765 0.567342 0.550377
0.850009 0.578916 0.559058
0.963253 0.590490 0.567739
0.197813 0.624323 0.524016
0.311057 0.635897 0.532697
0.424301 0.647471 0.541377
0.537545 0.659045 0.550058
0.650788 0.670619 0.558739
0.764032 0.682194 0.567419
0.877276 0.693768 0.576100
0.990520 0.705342 0.584781
0.225080 0.739174 0.541058
0.338324 0.750748 0.549739
0.451568 0.762323 0.558419
0.564812 0.773897 0.567100
0.678055 0.785471 0.575781
0.791299 0.797045 0.584461
0.904543 0.808619 0.593142
1.000000 0.820194 0.601823
0.252347 0.854026 0.558100
0.365591 0.865600 0.566781
0.478835 0.877174 0.575461
0.592079 0.888748 0.584142
0.705323 0.900323 0.592823
0.818566 0.911897 0.601503
0.931810 0.923471 0.610184
1.000000 0.935045 0.618865
0.066773 0.054477 0.512568
0.180017 0.066052 0.521248
0.293261 0.077626 0.529929
0.406505 0.089200 0.538610
0.519748 0.100774 0.547290
0.632992 0.112348 0.555971
0.746236 0.123923 0.564652
0.859480 0.135497 0.573332
0.094040 0.169329 0.529610
0.207284 0.180903 0.538290
0.320528 0.192477 0.546971
0.433772 0.204052 0.555652
0.547015 0.215626 0.564332
0.660259 0.227200 0.573013
0.773503 0.238774 0.581694
0.886747 0.250348 0.590374
0.121307 0.284181 0.546652
0.234551 0.295755 0.555332
0.347795 0.307329 0.564013
0.461039 0.318903 0.572694
0.574283 0.330477 0.581374
0.687526 0.342052 0.590055
0.800770 0.353626 0.598735
0.914014 0.365200 0.607416
0.148574 0.399032 0.563694
0.261818 0.410606 0.572374
0.375062 0.422181 0.581055
0.488306 0.433755 0.589735
0.601550 0.445329 0.598416
0.714794 0.456903 0.607097
0.828037 0.468477 0.615777
0.941281 0.480052 0.624458
0.175841 0.513884 0.580735
0.289085 0.525458 0.589416
0.402329 0.537032 0.598097
0.515573 0.548606 0.606777
0.628817 0.560181 0.615458
0.742061 0.571755 0.624139
0.855305 0.583329 0.632819
0.968548 0.594903 0.641500
0.203108 0.628735 0.597777
0.316352 0.640310 0.606458
0.429596 0.651884 0.615139
0.542840 0.663458 0.623819
0.656084 0.675032 0.632500
0.769328 0.686606 0.641181
0.882572 0.698181 0.649861
0.995815 0.709755 0.658542
0.230375 0.743587 0.614819
0.343619 0.755161 0.623500
0.456863 0.766735 0.632181
0.570107 0.778310 0.640861
0.683351 0.789884 0.649542
0.796595 0.801458 0.658223
0.909839 0.813032 0.666903
1.000000 0.824606 0.675584
0.257643 0.858439 0.631861
0.370886 0.870013 0.640542
0.484130 0.881587 0.649223
0.597374 0.893161 0.657903
0.710618 0.904735 0.666584
0.823862 0.916310 0.675265
0.937106 0.927884 0.683945
1.000000 0.939458 0.692626
0.072068 0.058890 0.586329
0.185312 0.070465 0.595010
0.298556 0.082039 0.603690
0.411800 0.093613 0.612371
0.525044 0.105187 0.621052
0.638288 0.116761 0.629732
0.751532 0.128335 0.638413
0.864775 0.139910 0.647094
0.099335 0.173742 0.603371
0.212579 0.185316 0.612052
0.325823 0.196890 0.620732
0.439067 0.208465 0.629413
0.552311 0.220039 0.638094
0.665555 0.231613 0.646774
0.778799 0.243187 0.655455
0.892043 0.254761 0.664135
0.126603 0.288594 0.620413
0.239846 0.300168 0.629094
0.353090 0.311742 0.637774
0.466334 0.323316 0.646455
0.579578 0.334890 0.655135
0.692822 0.346465 0.663816
0.806066 0.358039 0.672497
0.919310 0.369613 0.681177
0.153870 0.403445 0.637455
0.267114 0.415019 0.646135
0.380357 0.426594 0.654816
0.493601 0.438168 0.663497
0.606845 0.449742 0.672177
0.720089 0.461316 0.680858
0.833333 0.472890 0.689539
0.946577 0.484465 0.698219
0.181137 0.518297 0.654497
0.294381 0.529871 0.663177
0.407625 0.541445 0.671858
0.520868 0.553019 0.680539
0.634112 0.564594 0.689219
0.747356 0.576168 0.697900
0.860600 0.587742 0.706581
0.973844 0.599316 0.715261
0.208404 0.633148 0.671539
0.321648 0.644723 0.680219
0.434892 0.656297 0.688900
0.548135 0.667871 0.697581
0.661379 0.679445 0.706261
0.774623 0.691019 0.714942
0.887867 0.702594 0.723623
1.000000 0.714168 0.732303
0.235671 0.748000 0.688581
0.348915 0.759574 0.697261
0.462159 0.771148 0.705942
0.575403 0.782723 0.714623
0.688646 0.794297 0.723303
0.801890 0.805871 0.731984
0.915134 0.817445 0.740665
1.000000 0.829019 0.749345
0.262938 0.862852 0.705623
0.376182 0.874426 0.714303
0.489426 0.886000 0.722984
0.602670 0.897574 0.731665
0.715914 0.909148 0.740345
0.829157 0.920723 0.749026
0.942401 0.932297 0.757706
1.000000 0.943871 0.766387
