app/src/main/assets/luts/vintage.cube
# Generated 3D LUT
TITLE "Vintage"
LUT_3D_SIZE 32
DOMAIN_MIN 0.0 0.0 0.0
DOMAIN_MAX 1.0 1.0 1.0
0.035000 0.028000 0.070000
0.063311 0.030894 0.072170
0.091622 0.033787 0.074340
0.119933 0.036681 0.076510
0.148244 0.039574 0.078681
0.176555 0.042468 0.080851
0.204866 0.045361 0.083021
0.233177 0.048255 0.085191
0.261488 0.051148 0.087361
0.289799 0.054042 0.089531
0.318110 0.056935 0.091702
0.346421 0.059829 0.093872
0.374732 0.062723 0.096042
0.403043 0.065616 0.098212
0.431354 0.068510 0.100382
0.459665 0.071403 0.102552
0.487975 0.074297 0.104723
0.516286 0.077190 0.106893
0.544597 0.080084 0.109063
0.572908 0.082977 0.111233
0.601219 0.085871 0.113403
0.629530 0.088765 0.115573
0.657841 0.091658 0.117744
0.686152 0.094552 0.119914
0.714463 0.097445 0.122084
0.742774 0.100339 0.124254
0.771085 0.103232 0.126424
0.799396 0.106126 0.128594
0.827707 0.109019 0.130765
0.856018 0.111913 0.132935
0.884329 0.114806 0.135105
0.912640 0.117700 0.137275
0.041817 0.056713 0.074260
0.070128 0.059606 0.076431
0.098439 0.062500 0.078601
0.126750 0.065394 0.080771
0.155061 0.068287 0.082941
0.183372 0.071181 0.085111
0.211683 0.074074 0.087281
0.239994 0.076968 0.089452
0.268305 0.079861 0.091622
0.296615 0.082755 0.093792
0.324926 0.085648 0.095962
0.353237 0.088542 0.098132
0.381548 0.091435 0.100302
0.409859 0.094329 0.102473
0.438170 0.097223 0.104643
0.466481 0.100116 0.106813
0.494792 0.103010 0.108983
0.523103 0.105903 0.111153
0.551414 0.108797 0.113323
0.579725 0.111690 0.115494
0.608036 0.114584 0.117664
0.636347 0.117477 0.119834
0.664658 0.120371 0.122004
0.692969 0.123265 0.124174
0.721280 0.126158 0.126344
0.749591 0.129052 0.128515
0.777902 0.131945 0.130685
0.806213 0.134839 0.132855
0.834524 0.137732 0.135025
0.862835 0.140626 0.137195
0.891146 0.143519 0.139365
0.919457 0.146413 0.141535
0.048634 0.085426 0.078521
0.076945 0.088319 0.080691
0.105255 0.091213 0.082861
0.133566 0.094106 0.085031
0.161877 0.097000 0.087202
0.190188 0.099894 0.089372
0.218499 0.102787 0.091542
0.246810 0.105681 0.093712
0.275121 0.108574 0.095882
0.303432 0.111468 0.098052
0.331743 0.114361 0.100223
0.360054 0.117255 0.102393
0.388365 0.120148 0.104563
0.416676 0.123042 0.106733
0.444987 0.125935 0.108903
0.473298 0.128829 0.111073
0.501609 0.131723 0.113244
0.529920 0.134616 0.115414
0.558231 0.137510 0.117584
0.586542 0.140403 0.119754
0.614853 0.143297 0.121924
0.643164 0.146190 0.124094
0.671475 0.149084 0.126265
0.699786 0.151977 0.128435
0.728097 0.154871 0.130605
0.756408 0.157765 0.132775
0.784719 0.160658 0.134945
0.813030 0.163552 0.137115
0.841341 0.166445 0.139285
0.869652 0.169339 0.141456
0.897963 0.172232 0.143626
0.926274 0.175126 0.145796
0.055450 0.114139 0.082781
0.083761 0.117032 0.084952
0.112072 0.119926 0.087122
0.140383 0.122819 0.089292
0.168694 0.125713 0.091462
0.197005 0.128606 0.093632
0.225316 0.131500 0.095802
0.253627 0.134394 0.097973
0.281938 0.137287 0.100143
0.310249 0.140181 0.102313
0.338560 0.143074 0.104483
0.366871 0.145968 0.106653
0.395182 0.148861 0.108823
0.423493 0.151755 0.110994
0.451804 0.154648 0.113164
0.480115 0.157542 0.115334
0.508426 0.160435 0.117504
0.536737 0.163329 0.119674
0.565048 0.166223 0.121844
0.593359 0.169116 0.124015
0.621670 0.172010 0.126185
0.649981 0.174903 0.128355
0.678292 0.177797 0.130525
0.706603 0.180690 0.132695
0.734914 0.183584 0.134865
0.763225 0.186477 0.137035
0.791535 0.189371 0.139206
0.819846 0.192265 0.141376
0.848157 0.195158 0.143546
0.876468 0.198052 0.145716
0.904779 0.200945 0.147886
0.933090 0.203839 0.150056
0.062267 0.142852 0.087042
0.090578 0.145745 0.089212
0.118889 0.148639 0.091382
0.147200 0.151532 0.093552
0.175511 0.154426 0.095723
0.203822 0.157319 0.097893
0.232133 0.160213 0.100063
0.260444 0.163106 0.102233
0.288755 0.166000 0.104403
0.317066 0.168894 0.106573
0.345377 0.171787 0.108744
0.373688 0.174681 0.110914
0.401999 0.177574 0.113084
0.430310 0.180468 0.115254
0.458621 0.183361 0.117424
0.486932 0.186255 0.119594
0.515243 0.189148 0.121765
0.543554 0.192042 0.123935
0.571865 0.194935 0.126105
0.600175 0.197829 0.128275
0.628486 0.200723 0.130445
0.656797 0.203616 0.132615
0.685108 0.206510 0.134785
0.713419 0.209403 0.136956
0.741730 0.212297 0.139126
0.770041 0.215190 0.141296
0.798352 0.218084 0.143466
0.826663 0.220977 0.145636
0.854974 0.223871 0.147806
0.883285 0.226765 0.149977
0.911596 0.229658 0.152147
0.939907 0.232552 0.154317
0.069084 0.171565 0.091302
0.097395 0.174458 0.093473
0.125706 0.177352 0.095643
0.154017 0.180245 0.097813
0.182328 0.183139 0.099983
0.210639 0.186032 0.102153
0.238950 0.188926 0.104323
0.267261 0.191819 0.106494
0.295572 0.194713 0.108664
0.323883 0.197606 0.110834
0.352194 0.200500 0.113004
0.380505 0.203394 0.115174
0.408815 0.206287 0.117344
0.437126 0.209181 0.119515
0.465437 0.212074 0.121685
0.493748 0.214968 0.123855
0.522059 0.217861 0.126025
0.550370 0.220755 0.128195
0.578681 0.223648 0.130365
0.606992 0.226542 0.132535
0.635303 0.229435 0.134706
0.663614 0.232329 0.136876
0.691925 0.235223 0.139046
0.720236 0.238116 0.141216
0.748547 0.241010 0.143386
0.776858 0.243903 0.145556
0.805169 0.246797 0.147727
0.833480 0.249690 0.149897
0.861791 0.252584 0.152067
0.890102 0.255477 0.154237
0.918413 0.258371 0.156407
0.946724 0.261265 0.158577
0.075901 0.200277 0.095563
0.104212 0.203171 0.097733
0.132523 0.206065 0.099903
0.160834 0.208958 0.102073
0.189145 0.211852 0.104244
0.217455 0.214745 0.106414
0.245766 0.217639 0.108584
0.274077 0.220532 0.110754
0.302388 0.223426 0.112924
0.330699 0.226319 0.115094
0.359010 0.229213 0.117265
0.387321 0.232106 0.119435
0.415632 0.235000 0.121605
0.443943 0.237894 0.123775
0.472254 0.240787 0.125945
0.500565 0.243681 0.128115
0.528876 0.246574 0.130285
0.557187 0.249468 0.132456
0.585498 0.252361 0.134626
0.613809 0.255255 0.136796
0.642120 0.258148 0.138966
0.670431 0.261042 0.141136
0.698742 0.263935 0.143306
0.727053 0.266829 0.145477
0.755364 0.269723 0.147647
0.783675 0.272616 0.149817
0.811986 0.275510 0.151987
0.840297 0.278403 0.154157
0.868608 0.281297 0.156327
0.896919 0.284190 0.158498
0.925230 0.287084 0.160668
0.953541 0.289977 0.162838
0.082717 0.228990 0.099823
0.111028 0.231884 0.101994
0.139339 0.234777 0.104164
0.167650 0.237671 0.106334
0.195961 0.240565 0.108504
0.224272 0.243458 0.110674
0.252583 0.246352 0.112844
0.280894 0.249245 0.115015
0.309205 0.252139 0.117185
0.337516 0.255032 0.119355
0.365827 0.257926 0.121525
0.394138 0.260819 0.123695
0.422449 0.263713 0.125865
0.450760 0.266606 0.128035
0.479071 0.269500 0.130206
0.507382 0.272394 0.132376
0.535693 0.275287 0.134546
0.564004 0.278181 0.136716
0.592315 0.281074 0.138886
0.620626 0.283968 0.141056
0.648937 0.286861 0.143227
0.677248 0.289755 0.145397
0.705559 0.292648 0.147567
0.733870 0.295542 0.149737
0.762181 0.298435 0.151907
0.790492 0.301329 0.154077
0.818803 0.304223 0.156248
0.847114 0.307116 0.158418
0.875425 0.310010 0.160588
0.903735 0.312903 0.162758
0.932046 0.315797 0.164928
0.960357 0.318690 0.167098
0.089534 0.257703 0.104084
0.117845 0.260597 0.106254
0.146156 0.263490 0.108424
0.174467 0.266384 0.110594
0.202778 0.269277 0.112765
0.231089 0.272171 0.114935
0.259400 0.275065 0.117105
0.287711 0.277958 0.119275
0.316022 0.280852 0.121445
0.344333 0.283745 0.123615
0.372644 0.286639 0.125785
0.400955 0.289532 0.127956
0.429266 0.292426 0.130126
0.457577 0.295319 0.132296
0.485888 0.298213 0.134466
0.514199 0.301106 0.136636
0.542510 0.304000 0.138806
0.570821 0.306894 0.140977
0.599132 0.309787 0.143147
0.627443 0.312681 0.145317
0.655754 0.315574 0.147487
0.684065 0.318468 0.149657
0.712375 0.321361 0.151827
0.740686 0.324255 0.153998
0.768997 0.327148 0.156168
0.797308 0.330042 0.158338
0.825619 0.332935 0.160508
0.853930 0.335829 0.162678
0.882241 0.338723 0.164848
0.910552 0.341616 0.167019
0.938863 0.344510 0.169189
0.967174 0.347403 0.171359
0.096351 0.286416 0.108344
0.124662 0.289310 0.110515
0.152973 0.292203 0.112685
0.181284 0.295097 0.114855
0.209595 0.297990 0.117025
0.237906 0.300884 0.119195
0.266217 0.303777 0.121365
0.294528 0.306671 0.123535
0.322839 0.309565 0.125706
0.351150 0.312458 0.127876
0.379461 0.315352 0.130046
0.407772 0.318245 0.132216
0.436083 0.321139 0.134386
0.464394 0.324032 0.136556
0.492705 0.326926 0.138727
0.521015 0.329819 0.140897
0.549326 0.332713 0.143067
0.577637 0.335606 0.145237
0.605948 0.338500 0.147407
0.634259 0.341394 0.149577
0.662570 0.344287 0.151748
0.690881 0.347181 0.153918
0.719192 0.350074 0.156088
0.747503 0.352968 0.158258
0.775814 0.355861 0.160428
0.804125 0.358755 0.162598
0.832436 0.361648 0.164769
0.860747 0.364542 0.166939
0.889058 0.367435 0.169109
0.917369 0.370329 0.171279
0.945680 0.373223 0.173449
0.973991 0.376116 0.175619
0.103168 0.315129 0.112605
0.131479 0.318023 0.114775
0.159790 0.320916 0.116945
0.188101 0.323810 0.119115
0.216412 0.326703 0.121285
0.244723 0.329597 0.123456
0.273034 0.332490 0.125626
0.301345 0.335384 0.127796
0.329655 0.338277 0.129966
0.357966 0.341171 0.132136
0.386277 0.344065 0.134306
0.414588 0.346958 0.136477
0.442899 0.349852 0.138647
0.471210 0.352745 0.140817
0.499521 0.355639 0.142987
0.527832 0.358532 0.145157
0.556143 0.361426 0.147327
0.584454 0.364319 0.149498
0.612765 0.367213 0.151668
0.641076 0.370106 0.153838
0.669387 0.373000 0.156008
0.697698 0.375894 0.158178
0.726009 0.378787 0.160348
0.754320 0.381681 0.162519
0.782631 0.384574 0.164689
0.810942 0.387468 0.166859
0.839253 0.390361 0.169029
0.867564 0.393255 0.171199
0.895875 0.396148 0.173369
0.924186 0.399042 0.175540
0.952497 0.401935 0.177710
0.980808 0.404829 0.179880
0.109985 0.343842 0.116865
0.138295 0.346735 0.119035
0.166606 0.349629 0.121206
0.194917 0.352523 0.123376
0.223228 0.355416 0.125546
0.251539 0.358310 0.127716
0.279850 0.361203 0.129886
0.308161 0.364097 0.132056
0.336472 0.366990 0.134227
0.364783 0.369884 0.136397
0.393094 0.372777 0.138567
0.421405 0.375671 0.140737
0.449716 0.378565 0.142907
0.478027 0.381458 0.145077
0.506338 0.384352 0.147248
0.534649 0.387245 0.149418
0.562960 0.390139 0.151588
0.591271 0.393032 0.153758
0.619582 0.395926 0.155928
0.647893 0.398819 0.158098
0.676204 0.401713 0.160269
0.704515 0.404606 0.162439
0.732826 0.407500 0.164609
0.761137 0.410394 0.166779
0.789448 0.413287 0.168949
0.817759 0.416181 0.171119
0.846070 0.419074 0.173290
0.874381 0.421968 0.175460
0.902692 0.424861 0.177630
0.931003 0.427755 0.179800
0.959314 0.430648 0.181970
0.987625 0.433542 0.184140
0.116801 0.372555 0.121126
0.145112 0.375448 0.123296
0.173423 0.378342 0.125466
0.201734 0.381235 0.127636
0.230045 0.384129 0.129806
0.258356 0.387023 0.131977
0.286667 0.389916 0.134147
0.314978 0.392810 0.136317
0.343289 0.395703 0.138487
0.371600 0.398597 0.140657
0.399911 0.401490 0.142827
0.428222 0.404384 0.144998
0.456533 0.407277 0.147168
0.484844 0.410171 0.149338
0.513155 0.413065 0.151508
0.541466 0.415958 0.153678
0.569777 0.418852 0.155848
0.598088 0.421745 0.158019
0.626399 0.424639 0.160189
0.654710 0.427532 0.162359
0.683021 0.430426 0.164529
0.711332 0.433319 0.166699
0.739643 0.436213 0.168869
0.767954 0.439106 0.171040
0.796265 0.442000 0.173210
0.824575 0.444894 0.175380
0.852886 0.447787 0.177550
0.881197 0.450681 0.179720
0.909508 0.453574 0.181890
0.937819 0.456468 0.184060
0.966130 0.459361 0.186231
0.994441 0.462255 0.188401
0.123618 0.401268 0.125386
0.151929 0.404161 0.127556
0.180240 0.407055 0.129727
0.208551 0.409948 0.131897
0.236862 0.412842 0.134067
0.265173 0.415735 0.136237
0.293484 0.418629 0.138407
0.321795 0.421523 0.140577
0.350106 0.424416 0.142748
0.378417 0.427310 0.144918
0.406728 0.430203 0.147088
0.435039 0.433097 0.149258
0.463350 0.435990 0.151428
0.491661 0.438884 0.153598
0.519972 0.441777 0.155769
0.548283 0.444671 0.157939
0.576594 0.447565 0.160109
0.604905 0.450458 0.162279
0.633215 0.453352 0.164449
0.661526 0.456245 0.166619
0.689837 0.459139 0.168790
0.718148 0.462032 0.170960
0.746459 0.464926 0.173130
0.774770 0.467819 0.175300
0.803081 0.470713 0.177470
0.831392 0.473606 0.179640
0.859703 0.476500 0.181810
0.888014 0.479394 0.183981
0.916325 0.482287 0.186151
0.944636 0.485181 0.188321
0.972947 0.488074 0.190491
1.000000 0.490968 0.192661
0.130435 0.429981 0.129647
0.158746 0.432874 0.131817
0.187057 0.435768 0.133987
0.215368 0.438661 0.136157
0.243679 0.441555 0.138327
0.271990 0.444448 0.140498
0.300301 0.447342 0.142668
0.328612 0.450235 0.144838
0.356923 0.453129 0.147008
0.385234 0.456023 0.149178
0.413545 0.458916 0.151348
0.441855 0.461810 0.153519
0.470166 0.464703 0.155689
0.498477 0.467597 0.157859
0.526788 0.470490 0.160029
0.555099 0.473384 0.162199
0.583410 0.476277 0.164369
0.611721 0.479171 0.166540
0.640032 0.482065 0.168710
0.668343 0.484958 0.170880
0.696654 0.487852 0.173050
0.724965 0.490745 0.175220
0.753276 0.493639 0.177390
0.781587 0.496532 0.179560
0.809898 0.499426 0.181731
0.838209 0.502319 0.183901
0.866520 0.505213 0.186071
0.894831 0.508106 0.188241
0.923142 0.511000 0.190411
0.951453 0.513894 0.192581
0.979764 0.516787 0.194752
1.000000 0.519681 0.196922
0.137252 0.458694 0.133907
0.165563 0.461587 0.136077
0.193874 0.464481 0.138248
0.222185 0.467374 0.140418
0.250495 0.470268 0.142588
0.278806 0.473161 0.144758
0.307117 0.476055 0.146928
0.335428 0.478948 0.149098
0.363739 0.481842 0.151269
0.392050 0.484735 0.153439
0.420361 0.487629 0.155609
0.448672 0.490523 0.157779
0.476983 0.493416 0.159949
0.505294 0.496310 0.162119
0.533605 0.499203 0.164290
0.561916 0.502097 0.166460
0.590227 0.504990 0.168630
0.618538 0.507884 0.170800
0.646849 0.510777 0.172970
0.675160 0.513671 0.175140
0.703471 0.516565 0.177310
0.731782 0.519458 0.179481
0.760093 0.522352 0.181651
0.788404 0.525245 0.183821
0.816715 0.528139 0.185991
0.845026 0.531032 0.188161
0.873337 0.533926 0.190331
0.901648 0.536819 0.192502
0.929959 0.539713 0.194672
0.958270 0.542606 0.196842
0.986581 0.545500 0.199012
1.000000 0.548394 0.201182
0.144068 0.487406 0.138168
0.172379 0.490300 0.140338
0.200690 0.493194 0.142508
0.229001 0.496087 0.144678
0.257312 0.498981 0.146848
0.285623 0.501874 0.149019
0.313934 0.504768 0.151189
0.342245 0.507661 0.153359
0.370556 0.510555 0.155529
0.398867 0.513448 0.157699
0.427178 0.516342 0.159869
0.455489 0.519235 0.162040
0.483800 0.522129 0.164210
0.512111 0.525023 0.166380
0.540422 0.527916 0.168550
0.568733 0.530810 0.170720
0.597044 0.533703 0.172890
0.625355 0.536597 0.175060
0.653666 0.539490 0.177231
0.681977 0.542384 0.179401
0.710288 0.545277 0.181571
0.738599 0.548171 0.183741
0.766910 0.551065 0.185911
0.795221 0.553958 0.188081
0.823532 0.556852 0.190252
0.851843 0.559745 0.192422
0.880154 0.562639 0.194592
0.908465 0.565532 0.196762
0.936775 0.568426 0.198932
0.965086 0.571319 0.201102
0.993397 0.574213 0.203273
1.000000 0.577106 0.205443
0.150885 0.516119 0.142428
0.179196 0.519013 0.144598
0.207507 0.521906 0.146769
0.235818 0.524800 0.148939
0.264129 0.527694 0.151109
0.292440 0.530587 0.153279
0.320751 0.533481 0.155449
0.349062 0.536374 0.157619
0.377373 0.539268 0.159790
0.405684 0.542161 0.161960
0.433995 0.545055 0.164130
0.462306 0.547948 0.166300
0.490617 0.550842 0.168470
0.518928 0.553735 0.170640
0.547239 0.556629 0.172810
0.575550 0.559523 0.174981
0.603861 0.562416 0.177151
0.632172 0.565310 0.179321
0.660483 0.568203 0.181491
0.688794 0.571097 0.183661
0.717105 0.573990 0.185831
0.745415 0.576884 0.188002
0.773726 0.579777 0.190172
0.802037 0.582671 0.192342
0.830348 0.585565 0.194512
0.858659 0.588458 0.196682
0.886970 0.591352 0.198852
0.915281 0.594245 0.201023
0.943592 0.597139 0.203193
0.971903 0.600032 0.205363
1.000000 0.602926 0.207533
1.000000 0.605819 0.209703
0.157702 0.544832 0.146689
0.186013 0.547726 0.148859
0.214324 0.550619 0.151029
0.242635 0.553513 0.153199
0.270946 0.556406 0.155369
0.299257 0.559300 0.157540
0.327568 0.562194 0.159710
0.355879 0.565087 0.161880
0.384190 0.567981 0.164050
0.412501 0.570874 0.166220
0.440812 0.573768 0.168390
0.469123 0.576661 0.170560
0.497434 0.579555 0.172731
0.525745 0.582448 0.174901
0.554055 0.585342 0.177071
0.582366 0.588235 0.179241
0.610677 0.591129 0.181411
0.638988 0.594023 0.183581
0.667299 0.596916 0.185752
0.695610 0.599810 0.187922
0.723921 0.602703 0.190092
0.752232 0.605597 0.192262
0.780543 0.608490 0.194432
0.808854 0.611384 0.196602
0.837165 0.614277 0.198773
0.865476 0.617171 0.200943
0.893787 0.620065 0.203113
0.922098 0.622958 0.205283
0.950409 0.625852 0.207453
0.978720 0.628745 0.209623
1.000000 0.631639 0.211794
1.000000 0.634532 0.213964
0.164519 0.573545 0.150949
0.192830 0.576439 0.153119
0.221141 0.579332 0.155290
0.249452 0.582226 0.157460
0.277763 0.585119 0.159630
0.306074 0.588013 0.161800
0.334385 0.590906 0.163970
0.362695 0.593800 0.166140
0.391006 0.596694 0.168310
0.419317 0.599587 0.170481
0.447628 0.602481 0.172651
0.475939 0.605374 0.174821
0.504250 0.608268 0.176991
0.532561 0.611161 0.179161
0.560872 0.614055 0.181331
0.589183 0.616948 0.183502
0.617494 0.619842 0.185672
0.645805 0.622735 0.187842
0.674116 0.625629 0.190012
0.702427 0.628523 0.192182
0.730738 0.631416 0.194352
0.759049 0.634310 0.196523
0.787360 0.637203 0.198693
0.815671 0.640097 0.200863
0.843982 0.642990 0.203033
0.872293 0.645884 0.205203
0.900604 0.648777 0.207373
0.928915 0.651671 0.209544
0.957226 0.654565 0.211714
0.985537 0.657458 0.213884
1.000000 0.660352 0.216054
1.000000 0.663245 0.218224
0.171335 0.602258 0.155210
0.199646 0.605152 0.157380
0.227957 0.608045 0.159550
0.256268 0.610939 0.161720
0.284579 0.613832 0.163890
0.312890 0.616726 0.166060
0.341201 0.619619 0.168231
0.369512 0.622513 0.170401
0.397823 0.625406 0.172571
0.426134 0.628300 0.174741
0.454445 0.631194 0.176911
0.482756 0.634087 0.179081
0.511067 0.636981 0.181252
0.539378 0.639874 0.183422
0.567689 0.642768 0.185592
0.596000 0.645661 0.187762
0.624311 0.648555 0.189932
0.652622 0.651448 0.192102
0.680933 0.654342 0.194273
0.709244 0.657235 0.196443
0.737555 0.660129 0.198613
0.765866 0.663023 0.200783
0.794177 0.665916 0.202953
0.822488 0.668810 0.205123
0.850799 0.671703 0.207294
0.879110 0.674597 0.209464
0.907421 0.677490 0.211634
0.935732 0.680384 0.213804
0.964043 0.683277 0.215974
0.992354 0.686171 0.218144
1.000000 0.689065 0.220315
1.000000 0.691958 0.222485
0.178152 0.630971 0.159470
0.206463 0.633865 0.161640
0.234774 0.636758 0.163810
0.263085 0.639652 0.165981
0.291396 0.642545 0.168151
0.319707 0.645439 0.170321
0.348018 0.648332 0.172491
0.376329 0.651226 0.174661
0.404640 0.654119 0.176831
0.432951 0.657013 0.179002
0.461262 0.659906 0.181172
0.489573 0.662800 0.183342
0.517884 0.665694 0.185512
0.546195 0.668587 0.187682
0.574506 0.671481 0.189852
0.602817 0.674374 0.192023
0.631128 0.677268 0.194193
0.659439 0.680161 0.196363
0.687750 0.683055 0.198533
0.716061 0.685948 0.200703
0.744372 0.688842 0.202873
0.772683 0.691735 0.205044
0.800994 0.694629 0.207214
0.829305 0.697523 0.209384
0.857615 0.700416 0.211554
0.885926 0.703310 0.213724
0.914237 0.706203 0.215894
0.942548 0.709097 0.218065
0.970859 0.711990 0.220235
0.999170 0.714884 0.222405
1.000000 0.717777 0.224575
1.000000 0.720671 0.226745
0.184969 0.659684 0.163731
0.213280 0.662577 0.165901
0.241591 0.665471 0.168071
0.269902 0.668365 0.170241
0.298213 0.671258 0.172411
0.326524 0.674152 0.174581
0.354835 0.677045 0.176752
0.383146 0.679939 0.178922
0.411457 0.682832 0.181092
0.439768 0.685726 0.183262
0.468079 0.688619 0.185432
0.496390 0.691513 0.187602
0.524701 0.694406 0.189773
0.553012 0.697300 0.191943
0.581323 0.700194 0.194113
0.609634 0.703087 0.196283
0.637945 0.705981 0.198453
0.666255 0.708874 0.200623
0.694566 0.711768 0.202794
0.722877 0.714661 0.204964
0.751188 0.717555 0.207134
0.779499 0.720448 0.209304
0.807810 0.723342 0.211474
0.836121 0.726235 0.213644
0.864432 0.729129 0.215815
0.892743 0.732023 0.217985
0.921054 0.734916 0.220155
0.949365 0.737810 0.222325
0.977676 0.740703 0.224495
1.000000 0.743597 0.226665
1.000000 0.746490 0.228835
1.000000 0.749384 0.231006
0.191786 0.688397 0.167991
0.220097 0.691290 0.170161
0.248408 0.694184 0.172331
0.276719 0.697077 0.174502
0.305030 0.699971 0.176672
0.333341 0.702865 0.178842
0.361652 0.705758 0.181012
0.389963 0.708652 0.183182
0.418274 0.711545 0.185352
0.446585 0.714439 0.187523
0.474895 0.717332 0.189693
0.503206 0.720226 0.191863
0.531517 0.723119 0.194033
0.559828 0.726013 0.196203
0.588139 0.728906 0.198373
0.616450 0.731800 0.200544
0.644761 0.734694 0.202714
0.673072 0.737587 0.204884
0.701383 0.740481 0.207054
0.729694 0.743374 0.209224
0.758005 0.746268 0.211394
0.786316 0.749161 0.213565
0.814627 0.752055 0.215735
0.842938 0.754948 0.217905
0.871249 0.757842 0.220075
0.899560 0.760735 0.222245
0.927871 0.763629 0.224415
0.956182 0.766523 0.226585
0.984493 0.769416 0.228756
1.000000 0.772310 0.230926
1.000000 0.775203 0.233096
1.000000 0.778097 0.235266
0.198603 0.717110 0.172252
0.226914 0.720003 0.174422
0.255225 0.722897 0.176592
0.283535 0.725790 0.178762
0.311846 0.728684 0.180932
0.340157 0.731577 0.183102
0.368468 0.734471 0.185273
0.396779 0.737365 0.187443
0.425090 0.740258 0.189613
0.453401 0.743152 0.191783
0.481712 0.746045 0.193953
0.510023 0.748939 0.196123
0.538334 0.751832 0.198294
0.566645 0.754726 0.200464
0.594956 0.757619 0.202634
0.623267 0.760513 0.204804
0.651578 0.763406 0.206974
0.679889 0.766300 0.209144
0.708200 0.769194 0.211315
0.736511 0.772087 0.213485
0.764822 0.774981 0.215655
0.793133 0.777874 0.217825
0.821444 0.780768 0.219995
0.849755 0.783661 0.222165
0.878066 0.786555 0.224335
0.906377 0.789448 0.226506
0.934688 0.792342 0.228676
0.962999 0.795235 0.230846
0.991310 0.798129 0.233016
1.000000 0.801023 0.235186
1.000000 0.803916 0.237356
1.000000 0.806810 0.239527
0.205419 0.745823 0.176512
0.233730 0.748716 0.178682
0.262041 0.751610 0.180852
0.290352 0.754503 0.183023
0.318663 0.757397 0.185193
0.346974 0.760290 0.187363
0.375285 0.763184 0.189533
0.403596 0.766077 0.191703
0.431907 0.768971 0.193873
0.460218 0.771865 0.196044
0.488529 0.774758 0.198214
0.516840 0.777652 0.200384
0.545151 0.780545 0.202554
0.573462 0.783439 0.204724
0.601773 0.786332 0.206894
0.630084 0.789226 0.209065
0.658395 0.792119 0.211235
0.686706 0.795013 0.213405
0.715017 0.797906 0.215575
0.743328 0.800800 0.217745
0.771639 0.803694 0.219915
0.799950 0.806587 0.222085
0.828261 0.809481 0.224256
0.856572 0.812374 0.226426
0.884883 0.815268 0.228596
0.913194 0.818161 0.230766
0.941505 0.821055 0.232936
0.969815 0.823948 0.235106
0.998126 0.826842 0.237277
1.000000 0.829735 0.239447
1.000000 0.832629 0.241617
1.000000 0.835523 0.243787
0.212236 0.774535 0.180773
0.240547 0.777429 0.182943
0.268858 0.780323 0.185113
0.297169 0.783216 0.187283
0.325480 0.786110 0.189453
0.353791 0.789003 0.191623
0.382102 0.791897 0.193794
0.410413 0.794790 0.195964
0.438724 0.797684 0.198134
0.467035 0.800577 0.200304
0.495346 0.803471 0.202474
0.523657 0.806365 0.204644
0.551968 0.809258 0.206815
0.580279 0.812152 0.208985
0.608590 0.815045 0.211155
0.636901 0.817939 0.213325
0.665212 0.820832 0.215495
0.693523 0.823726 0.217665
0.721834 0.826619 0.219835
0.750145 0.829513 0.222006
0.778455 0.832406 0.224176
0.806766 0.835300 0.226346
0.835077 0.838194 0.228516
0.863388 0.841087 0.230686
0.891699 0.843981 0.232856
0.920010 0.846874 0.235027
0.948321 0.849768 0.237197
0.976632 0.852661 0.239367
1.000000 0.855555 0.241537
1.000000 0.858448 0.243707
1.000000 0.861342 0.245877
1.000000 0.864235 0.248048
0.219053 0.803248 0.185033
0.247364 0.806142 0.187203
0.275675 0.809035 0.189373
0.303986 0.811929 0.191544
0.332297 0.814823 0.193714
0.360608 0.817716 0.195884
0.388919 0.820610 0.198054
0.417230 0.823503 0.200224
0.445541 0.826397 0.202394
0.473852 0.829290 0.204565
0.502163 0.832184 0.206735
0.530474 0.835077 0.208905
0.558785 0.837971 0.211075
0.587095 0.840865 0.213245
0.615406 0.843758 0.215415
0.643717 0.846652 0.217585
0.672028 0.849545 0.219756
0.700339 0.852439 0.221926
0.728650 0.855332 0.224096
0.756961 0.858226 0.226266
0.785272 0.861119 0.228436
