app/src/main/assets/luts/vintage.cube
# Generated 3D LUT
TITLE "Vintage"
LUT_3D_SIZE 5
DOMAIN_MIN 0.000000 0.000000 0.000000
DOMAIN_MAX 0.903226 0.903226 0.903226
0.035000 0.028000 0.070000
0.233177 0.048255 0.085191
0.431354 0.068510 0.100382
0.629530 0.088765 0.115573
0.827707 0.109019 0.130765
0.082717 0.228990 0.099823
0.280894 0.249245 0.115015
0.479071 0.269500 0.130206
0.677248 0.289755 0.145397
0.875425 0.310010 0.160588
0.130435 0.429981 0.129647
0.328612 0.450235 0.144838
0.526788 0.470490 0.160029
0.724965 0.490745 0.175220
0.923142 0.511000 0.190411
0.178152 0.630971 0.159470
0.376329 0.651226 0.174661
0.574506 0.671481 0.189852
0.772683 0.691735 0.205044
0.970859 0.711990 0.220235
0.225870 0.831961 0.189294
0.424046 0.852216 0.204485
0.622223 0.872471 0.219676
0.820400 0.892726 0.234867
1.000000 0.912981 0.250058
0.044267 0.035723 0.199082
0.242444 0.055977 0.214273
0.440621 0.076232 0.229465
0.638797 0.096487 0.244656
0.836974 0.116742 0.259847
0.091985 0.236713 0.228906
0.290161 0.256968 0.244097
0.488338 0.277223 0.259288
0.686515 0.297477 0.274479
0.884692 0.317732 0.289670
0.139702 0.437703 0.258729
0.337879 0.457958 0.273920
0.536055 0.478213 0.289111
0.734232 0.498468 0.304302
0.932409 0.518723 0.319494
0.187419 0.638694 0.288552
0.385596 0.658948 0.303744
0.583773 0.679203 0.318935
0.781950 0.699458 0.334126
0.980126 0.719713 0.349317
0.235137 0.839684 0.318376
0.433314 0.859939 0.333567
0.631490 0.880194 0.348758
0.829667 0.900448 0.363949
1.000000 0.920703 0.379140
0.053534 0.043445 0.328165
0.251711 0.063700 0.343356
0.449888 0.083955 0.358547
0.648065 0.104210 0.373738
0.846241 0.124465 0.388929
0.101252 0.244435 0.357988
0.299428 0.264690 0.373179
0.497605 0.284945 0.388370
0.695782 0.305200 0.403561
0.893959 0.325455 0.418752
0.148969 0.445426 0.387811
0.347146 0.465681 0.403002
0.545323 0.485935 0.418194
0.743499 0.506190 0.433385
0.941676 0.526445 0.448576
0.196686 0.646416 0.417635
0.394863 0.666671 0.432826
0.593040 0.686926 0.448017
0.791217 0.707181 0.463208
0.989394 0.727435 0.478399
0.244404 0.847406 0.447458
0.442581 0.867661 0.462649
0.640757 0.887916 0.477840
0.838934 0.908171 0.493031
1.000000 0.928426 0.508223
0.062801 0.051168 0.457247
0.260978 0.071423 0.472438
0.459155 0.091677 0.487629
0.657332 0.111932 0.502820
0.855508 0.132187 0.518011
0.110519 0.252158 0.487070
0.308695 0.272413 0.502261
0.506872 0.292668 0.517452
0.705049 0.312923 0.532644
0.903226 0.333177 0.547835
0.158236 0.453148 0.516894
0.356413 0.473403 0.532085
0.554590 0.493658 0.547276
0.752766 0.513913 0.562467
0.950943 0.534168 0.577658
0.205954 0.654139 0.546717
0.404130 0.674394 0.561908
0.602307 0.694648 0.577099
0.800484 0.714903 0.592290
0.998661 0.735158 0.607481
0.253671 0.855129 0.576540
0.451848 0.875384 0.591731
0.650025 0.895639 0.606923
0.848201 0.915894 0.622114
1.000000 0.936148 0.637305
0.072068 0.058890 0.586329
0.270245 0.079145 0.601520
0.468422 0.099400 0.616711
0.666599 0.119655 0.631902
0.864775 0.139910 0.647094
0.119786 0.259881 0.616152
0.317963 0.280135 0.631344
0.516139 0.300390 0.646535
0.714316 0.320645 0.661726
0.912493 0.340900 0.676917
0.167503 0.460871 0.645976
0.365680 0.481126 0.661167
0.563857 0.501381 0.676358
0.762034 0.521635 0.691549
0.960210 0.541890 0.706740
0.215221 0.661861 0.675799
0.413397 0.682116 0.690990
0.611574 0.702371 0.706181
0.809751 0.722626 0.721373
1.000000 0.742881 0.736564
0.262938 0.862852 0.705623
0.461115 0.883106 0.720814
0.659292 0.903361 0.736005
0.857468 0.923616 0.751196
1.000000 0.943871 0.766387
