app/src/main/assets/luts/vivid.cube
TITLE "Vivid"
LUT_3D_SIZE 33
DOMAIN_MIN 0.0 0.0 0.0
DOMAIN_MAX 1.0 1.0 1.0
0.000000 0.000000 0.000000
0.030907 0.000000 0.000000
0.062676 0.000000 0.000000
0.094780 0.000000 0.000000
0.127102 0.000000 0.000000
0.159589 0.000000 0.000000
0.192206 0.000000 0.000000
0.224933 0.000000 0.000000
0.257754 0.000000 0.000000
0.290657 0.000000 0.000000
0.323633 0.000000 0.000000
0.356676 0.000000 0.000000
0.389778 0.000000 0.000000
0.422936 0.000000 0.000000
0.456146 0.000000 0.000000
0.489402 0.000000 0.000000
0.522703 0.000000 0.000000
0.556046 0.000000 0.000000
0.589428 0.000000 0.000000
0.622847 0.000000 0.000000
0.656302 0.000000 0.000000
0.689789 0.000000 0.000000
0.723309 0.000000 0.000000
0.756860 0.000000 0.000000
0.790439 0.000000 0.000000
0.824046 0.000000 0.000000
0.857681 0.000000 0.000000
0.891341 0.000000 0.000000
0.925026 0.000000 0.000000
0.958736 0.000000 0.000000
0.992468 0.000000 0.000000
1.000000 0.000000 0.000000
1.000000 0.000000 0.000000
0.000000 0.030907 0.000000
0.030907 0.030907 0.000000
0.062676 0.030907 0.000000
0.094780 0.030907 0.000000
0.127102 0.030907 0.000000
0.159589 0.030907 0.000000
0.192206 0.030907 0.000000
0.224933 0.030907 0.000000
0.257754 0.030907 0.000000
0.290657 0.030907 0.000000
0.323633 0.030907 0.000000
0.356676 0.030907 0.000000
0.389778 0.030907 0.000000
0.422936 0.030907 0.000000
0.456146 0.030907 0.000000
0.489402 0.030907 0.000000
0.522703 0.030907 0.000000
0.556046 0.030907 0.000000
0.589428 0.030907 0.000000
0.622847 0.030907 0.000000
0.656302 0.030907 0.000000
0.689789 0.030907 0.000000
0.723309 0.030907 0.000000
0.756860 0.030907 0.000000
0.790439 0.030907 0.000000
0.824046 0.030907 0.000000
0.857681 0.030907 0.000000
0.891341 0.030907 0.000000
0.925026 0.030907 0.000000
0.958736 0.030907 0.000000
0.992468 0.030907 0.000000
1.000000 0.030907 0.000000
1.000000 0.030907 0.000000
0.000000 0.062676 0.000000
0.030907 0.062676 0.000000
0.062676 0.062676 0.000000
0.094780 0.062676 0.000000
0.127102 0.062676 0.000000
0.159589 0.062676 0.000000
0.192206 0.062676 0.000000
0.224933 0.062676 0.000000
0.257754 0.062676 0.000000
0.290657 0.062676 0.000000
0.323633 0.062676 0.000000
0.356676 0.062676 0.000000
0.389778 0.062676 0.000000
0.422936 0.062676 0.000000
0.456146 0.062676 0.000000
0.489402 0.062676 0.000000
0.522703 0.062676 0.000000
0.556046 0.062676 0.000000
0.589428 0.062676 0.000000
0.622847 0.062676 0.000000
0.656302 0.062676 0.000000
0.689789 0.062676 0.000000
0.723309 0.062676 0.000000
0.756860 0.062676 0.000000
0.790439 0.062676 0.000000
0.824046 0.062676 0.000000
0.857681 0.062676 0.000000
0.891341 0.062676 0.000000
0.925026 0.062676 0.000000
0.958736 0.062676 0.000000
0.992468 0.062676 0.000000
1.000000 0.062676 0.000000
1.000000 0.062676 0.000000
0.000000 0.094780 0.000000
0.030907 0.094780 0.000000
0.062676 0.094780 0.000000
0.094780 0.094780 0.000000
0.127102 0.094780 0.000000
0.159589 0.094780 0.000000
0.192206 0.094780 0.000000
0.224933 0.094780 0.000000
0.257754 0.094780 0.000000
0.290657 0.094780 0.000000
0.323633 0.094780 0.000000
0.356676 0.094780 0.000000
0.389778 0.094780 0.000000
0.422936 0.094780 0.000000
0.456146 0.094780 0.000000
0.489402 0.094780 0.000000
0.522703 0.094780 0.000000
0.556046 0.094780 0.000000
0.589428 0.094780 0.000000
0.622847 0.094780 0.000000
0.656302 0.094780 0.000000
0.689789 0.094780 0.000000
0.723309 0.094780 0.000000
0.756860 0.094780 0.000000
0.790439 0.094780 0.000000
0.824046 0.094780 0.000000
0.857681 0.094780 0.000000
0.891341 0.094780 0.000000
0.925026 0.094780 0.000000
0.958736 0.094780 0.000000
0.992468 0.094780 0.000000
1.000000 0.094780 0.000000
1.000000 0.094780 0.000000
0.000000 0.127102 0.000000
0.030907 0.127102 0.000000
0.062676 0.127102 0.000000
0.094780 0.127102 0.000000
0.127102 0.127102 0.000000
0.159589 0.127102 0.000000
0.192206 0.127102 0.000000
0.224933 0.127102 0.000000
0.257754 0.127102 0.000000
0.290657 0.127102 0.000000
0.323633 0.127102 0.000000
0.356676 0.127102 0.000000
0.389778 0.127102 0.000000
0.422936 0.127102 0.000000
0.456146 0.127102 0.000000
0.489402 0.127102 0.000000
0.522703 0.127102 0.000000
0.556046 0.127102 0.000000
0.589428 0.127102 0.000000
0.622847 0.127102 0.000000
0.656302 0.127102 0.000000
0.689789 0.127102 0.000000
0.723309 0.127102 0.000000
0.756860 0.127102 0.000000
0.790439 0.127102 0.000000
0.824046 0.127102 0.000000
0.857681 0.127102 0.000000
0.891341 0.127102 0.000000
0.925026 0.127102 0.000000
0.958736 0.127102 0.000000
0.992468 0.127102 0.000000
1.000000 0.127102 0.000000
1.000000 0.127102 0.000000
0.000000 0.159589 0.000000
0.030907 0.159589 0.000000
0.062676 0.159589 0.000000
0.094780 0.159589 0.000000
0.127102 0.159589 0.000000
0.159589 0.159589 0.000000
0.192206 0.159589 0.000000
0.224933 0.159589 0.000000
0.257754 0.159589 0.000000
0.290657 0.159589 0.000000
0.323633 0.159589 0.000000
0.356676 0.159589 0.000000
0.389778 0.159589 0.000000
0.422936 0.159589 0.000000
0.456146 0.159589 0.000000
0.489402 0.159589 0.000000
0.522703 0.159589 0.000000
0.556046 0.159589 0.000000
0.589428 0.159589 0.000000
0.622847 0.159589 0.000000
0.656302 0.159589 0.000000
0.689789 0.159589 0.000000
0.723309 0.159589 0.000000
0.756860 0.159589 0.000000
0.790439 0.159589 0.000000
0.824046 0.159589 0.000000
0.857681 0.159589 0.000000
0.891341 0.159589 0.000000
0.925026 0.159589 0.000000
0.958736 0.159589 0.000000
0.992468 0.159589 0.000000
1.000000 0.159589 0.000000
1.000000 0.159589 0.000000
0.000000 0.192206 0.000000
0.030907 0.192206 0.000000
0.062676 0.192206 0.000000
0.094780 0.192206 0.000000
0.127102 0.192206 0.000000
0.159589 0.192206 0.000000
0.192206 0.192206 0.000000
0.224933 0.192206 0.000000
0.257754 0.192206 0.000000
0.290657 0.192206 0.000000
0.323633 0.192206 0.000000
0.356676 0.192206 0.000000
0.389778 0.192206 0.000000
0.422936 0.192206 0.000000
0.456146 0.192206 0.000000
0.489402 0.192206 0.000000
0.522703 0.192206 0.000000
0.556046 0.192206 0.000000
0.589428 0.192206 0.000000
0.622847 0.192206 0.000000
0.656302 0.192206 0.000000
0.689789 0.192206 0.000000
0.723309 0.192206 0.000000
0.756860 0.192206 0.000000
0.790439 0.192206 0.000000
0.824046 0.192206 0.000000
0.857681 0.192206 0.000000
0.891341 0.192206 0.000000
0.925026 0.192206 0.000000
0.958736 0.192206 0.000000
0.992468 0.192206 0.000000
1.000000 0.192206 0.000000
1.000000 0.192206 0.000000
0.000000 0.224933 0.000000
0.030907 0.224933 0.000000
0.062676 0.224933 0.000000
0.094780 0.224933 0.000000
0.127102 0.224933 0.000000
0.159589 0.224933 0.000000
0.192206 0.224933 0.000000
0.224933 0.224933 0.000000
0.257754 0.224933 0.000000
0.290657 0.224933 0.000000
0.323633 0.224933 0.000000
0.356676 0.224933 0.000000
0.389778 0.224933 0.000000
0.422936 0.224933 0.000000
0.456146 0.224933 0.000000
0.489402 0.224933 0.000000
0.522703 0.224933 0.000000
0.556046 0.224933 0.000000
0.589428 0.224933 0.000000
0.622847 0.224933 0.000000
0.656302 0.224933 0.000000
0.689789 0.224933 0.000000
0.723309 0.224933 0.000000
0.756860 0.224933 0.000000
0.790439 0.224933 0.000000
0.824046 0.224933 0.000000
0.857681 0.224933 0.000000
0.891341 0.224933 0.000000
0.925026 0.224933 0.000000
0.958736 0.224933 0.000000
0.992468 0.224933 0.000000
1.000000 0.224933 0.000000
1.000000 0.224933 0.000000
0.000000 0.257754 0.000000
0.030907 0.257754 0.000000
0.062676 0.257754 0.000000
0.094780 0.257754 0.000000
0.127102 0.257754 0.000000
0.159589 0.257754 0.000000
0.192206 0.257754 0.000000
0.224933 0.257754 0.000000
0.257754 0.257754 0.000000
0.290657 0.257754 0.000000
0.323633 0.257754 0.000000
0.356676 0.257754 0.000000
0.389778 0.257754 0.000000
0.422936 0.257754 0.000000
0.456146 0.257754 0.000000
0.489402 0.257754 0.000000
0.522703 0.257754 0.000000
0.556046 0.257754 0.000000
0.589428 0.257754 0.000000
0.622847 0.257754 0.000000
0.656302 0.257754 0.000000
0.689789 0.257754 0.000000
0.723309 0.257754 0.000000
0.756860 0.257754 0.000000
0.790439 0.257754 0.000000
0.824046 0.257754 0.000000
0.857681 0.257754 0.000000
0.891341 0.257754 0.000000
0.925026 0.257754 0.000000
0.958736 0.257754 0.000000
0.992468 0.257754 0.000000
1.000000 0.257754 0.000000
1.000000 0.257754 0.000000
0.000000 0.290657 0.000000
0.030907 0.290657 0.000000
0.062676 0.290657 0.000000
0.094780 0.290657 0.000000
0.127102 0.290657 0.000000
0.159589 0.290657 0.000000
0.192206 0.290657 0.000000
0.224933 0.290657 0.000000
0.257754 0.290657 0.000000
0.290657 0.290657 0.000000
0.323633 0.290657 0.000000
0.356676 0.290657 0.000000
0.389778 0.290657 0.000000
0.422936 0.290657 0.000000
0.456146 0.290657 0.000000
0.489402 0.290657 0.000000
0.522703 0.290657 0.000000
0.556046 0.290657 0.000000
0.589428 0.290657 0.000000
0.622847 0.290657 0.000000
0.656302 0.290657 0.000000
0.689789 0.290657 0.000000
0.723309 0.290657 0.000000
0.756860 0.290657 0.000000
0.790439 0.290657 0.000000
0.824046 0.290657 0.000000
0.857681 0.290657 0.000000
0.891341 0.290657 0.000000
0.925026 0.290657 0.000000
0.958736 0.290657 0.000000
0.992468 0.290657 0.000000
1.000000 0.290657 0.000000
1.000000 0.290657 0.000000
0.000000 0.323633 0.000000
0.030907 0.323633 0.000000
0.062676 0.323633 0.000000
0.094780 0.323633 0.000000
0.127102 0.323633 0.000000
0.159589 0.323633 0.000000
0.192206 0.323633 0.000000
0.224933 0.323633 0.000000
0.257754 0.323633 0.000000
0.290657 0.323633 0.000000
0.323633 0.323633 0.000000
0.356676 0.323633 0.000000
0.389778 0.323633 0.000000
0.422936 0.323633 0.000000
0.456146 0.323633 0.000000
0.489402 0.323633 0.000000
0.522703 0.323633 0.000000
0.556046 0.323633 0.000000
0.589428 0.323633 0.000000
0.622847 0.323633 0.000000
0.656302 0.323633 0.000000
0.689789 0.323633 0.000000
0.723309 0.323633 0.000000
0.756860 0.323633 0.000000
0.790439 0.323633 0.000000
0.824046 0.323633 0.000000
0.857681 0.323633 0.000000
0.891341 0.323633 0.000000
0.925026 0.323633 0.000000
0.958736 0.323633 0.000000
0.992468 0.323633 0.000000
1.000000 0.323633 0.000000
1.000000 0.323633 0.000000
0.000000 0.356676 0.000000
0.030907 0.356676 0.000000
0.062676 0.356676 0.000000
0.094780 0.356676 0.000000
0.127102 0.356676 0.000000
0.159589 0.356676 0.000000
0.192206 0.356676 0.000000
0.224933 0.356676 0.000000
0.257754 0.356676 0.000000
0.290657 0.356676 0.000000
0.323633 0.356676 0.000000
0.356676 0.356676 0.000000
0.389778 0.356676 0.000000
0.422936 0.356676 0.000000
0.456146 0.356676 0.000000
0.489402 0.356676 0.000000
0.522703 0.356676 0.000000
0.556046 0.356676 0.000000
0.589428 0.356676 0.000000
0.622847 0.356676 0.000000
0.656302 0.356676 0.000000
0.689789 0.356676 0.000000
0.723309 0.356676 0.000000
0.756860 0.356676 0.000000
0.790439 0.356676 0.000000
0.824046 0.356676 0.000000
0.857681 0.356676 0.000000
0.891341 0.356676 0.000000
0.925026 0.356676 0.000000
0.958736 0.356676 0.000000
0.992468 0.356676 0.000000
1.000000 0.356676 0.000000
1.000000 0.356676 0.000000
0.000000 0.389778 0.000000
0.030907 0.389778 0.000000
0.062676 0.389778 0.000000
0.094780 0.389778 0.000000
0.127102 0.389778 0.000000
0.159589 0.389778 0.000000
0.192206 0.389778 0.000000
0.224933 0.389778 0.000000
0.257754 0.389778 0.000000
0.290657 0.389778 0.000000
0.323633 0.389778 0.000000
0.356676 0.389778 0.000000
0.389778 0.389778 0.000000
0.422936 0.389778 0.000000
0.456146 0.389778 0.000000
0.489402 0.389778 0.000000
0.522703 0.389778 0.000000
0.556046 0.389778 0.000000
0.589428 0.389778 0.000000
0.622847 0.389778 0.000000
0.656302 0.389778 0.000000
0.689789 0.389778 0.000000
0.723309 0.389778 0.000000
0.756860 0.389778 0.000000
0.790439 0.389778 0.000000
0.824046 0.389778 0.000000
0.857681 0.389778 0.000000
0.891341 0.389778 0.000000
0.925026 0.389778 0.000000
0.958736 0.389778 0.000000
0.992468 0.389778 0.000000
1.000000 0.389778 0.000000
1.000000 0.389778 0.000000
0.000000 0.422936 0.000000
0.030907 0.422936 0.000000
0.062676 0.422936 0.000000
0.094780 0.422936 0.000000
0.127102 0.422936 0.000000
0.159589 0.422936 0.000000
0.192206 0.422936 0.000000
0.224933 0.422936 0.000000
0.257754 0.422936 0.000000
0.290657 0.422936 0.000000
0.323633 0.422936 0.000000
0.356676 0.422936 0.000000
0.389778 0.422936 0.000000
0.422936 0.422936 0.000000
0.456146 0.422936 0.000000
0.489402 0.422936 0.000000
0.522703 0.422936 0.000000
0.556046 0.422936 0.000000
0.589428 0.422936 0.000000
0.622847 0.422936 0.000000
0.656302 0.422936 0.000000
0.689789 0.422936 0.000000
0.723309 0.422936 0.000000
0.756860 0.422936 0.000000
0.790439 0.422936 0.000000
0.824046 0.422936 0.000000
0.857681 0.422936 0.000000
0.891341 0.422936 0.000000
0.925026 0.422936 0.000000
0.958736 0.422936 0.000000
0.992468 0.422936 0.000000
1.000000 0.422936 0.000000
1.000000 0.422936 0.000000
0.000000 0.456146 0.000000
0.030907 0.456146 0.000000
0.062676 0.456146 0.000000
0.094780 0.456146 0.000000
0.127102 0.456146 0.000000
0.159589 0.456146 0.000000
0.192206 0.456146 0.000000
0.224933 0.456146 0.000000
0.257754 0.456146 0.000000
0.290657 0.456146 0.000000
0.323633 0.456146 0.000000
0.356676 0.456146 0.000000
0.389778 0.456146 0.000000
0.422936 0.456146 0.000000
0.456146 0.456146 0.000000
0.489402 0.456146 0.000000
0.522703 0.456146 0.000000
0.556046 0.456146 0.000000
0.589428 0.456146 0.000000
0.622847 0.456146 0.000000
0.656302 0.456146 0.000000
0.689789 0.456146 0.000000
0.723309 0.456146 0.000000
0.756860 0.456146 0.000000
0.790439 0.456146 0.000000
0.824046 0.456146 0.000000
0.857681 0.456146 0.000000
0.891341 0.456146 0.000000
0.925026 0.456146 0.000000
0.958736 0.456146 0.000000
0.992468 0.456146 0.000000
1.000000 0.456146 0.000000
1.000000 0.456146 0.000000
0.000000 0.489402 0.000000
0.030907 0.489402 0.000000
0.062676 0.489402 0.000000
0.094780 0.489402 0.000000
0.127102 0.489402 0.000000
0.159589 0.489402 0.000000
0.192206 0.489402 0.000000
0.224933 0.489402 0.000000
0.257754 0.489402 0.000000
0.290657 0.489402 0.000000
0.323633 0.489402 0.000000
0.356676 0.489402 0.000000
0.389778 0.489402 0.000000
0.422936 0.489402 0.000000
0.456146 0.489402 0.000000
0.489402 0.489402 0.000000
0.522703 0.489402 0.000000
0.556046 0.489402 0.000000
0.589428 0.489402 0.000000
0.622847 0.489402 0.000000
0.656302 0.489402 0.000000
0.689789 0.489402 0.000000
0.723309 0.489402 0.000000
0.756860 0.489402 0.000000
0.790439 0.489402 0.000000
0.824046 0.489402 0.000000
0.857681 0.489402 0.000000
0.891341 0.489402 0.000000
0.925026 0.489402 0.000000
0.958736 0.489402 0.000000
0.992468 0.489402 0.000000
1.000000 0.489402 0.000000
1.000000 0.489402 0.000000
0.000000 0.522703 0.000000
0.030907 0.522703 0.000000
0.062676 0.522703 0.000000
0.094780 0.522703 0.000000
0.127102 0.522703 0.000000
0.159589 0.522703 0.000000
0.192206 0.522703 0.000000
0.224933 0.522703 0.000000
0.257754 0.522703 0.000000
0.290657 0.522703 0.000000
0.323633 0.522703 0.000000
0.356676 0.522703 0.000000
0.389778 0.522703 0.000000
0.422936 0.522703 0.000000
0.456146 0.522703 0.000000
0.489402 0.522703 0.000000
0.522703 0.522703 0.000000
0.556046 0.522703 0.000000
0.589428 0.522703 0.000000
0.622847 0.522703 0.000000
0.656302 0.522703 0.000000
0.689789 0.522703 0.000000
0.723309 0.522703 0.000000
0.756860 0.522703 0.000000
0.790439 0.522703 0.000000
0.824046 0.522703 0.000000
0.857681 0.522703 0.000000
0.891341 0.522703 0.000000
0.925026 0.522703 0.000000
0.958736 0.522703 0.000000
0.992468 0.522703 0.000000
1.000000 0.522703 0.000000
1.000000 0.522703 0.000000
0.000000 0.556046 0.000000
0.030907 0.556046 0.000000
0.062676 0.556046 0.000000
0.094780 0.556046 0.000000
0.127102 0.556046 0.000000
0.159589 0.556046 0.000000
0.192206 0.556046 0.000000
0.224933 0.556046 0.000000
0.257754 0.556046 0.000000
0.290657 0.556046 0.000000
0.323633 0.556046 0.000000
0.356676 0.556046 0.000000
0.389778 0.556046 0.000000
0.422936 0.556046 0.000000
0.456146 0.556046 0.000000
0.489402 0.556046 0.000000
0.522703 0.556046 0.000000
0.556046 0.556046 0.000000
0.589428 0.556046 0.000000
0.622847 0.556046 0.000000
0.656302 0.556046 0.000000
0.689789 0.556046 0.000000
0.723309 0.556046 0.000000
0.756860 0.556046 0.000000
0.790439 0.556046 0.000000
0.824046 0.556046 0.000000
0.857681 0.556046 0.000000
0.891341 0.556046 0.000000
0.925026 0.556046 0.000000
0.958736 0.556046 0.000000
0.992468 0.556046 0.000000
1.000000 0.556046 0.000000
1.000000 0.556046 0.000000
0.000000 0.589428 0.000000
0.030907 0.589428 0.000000
0.062676 0.589428 0.000000
0.094780 0.589428 0.000000
0.127102 0.589428 0.000000
0.159589 0.589428 0.000000
0.192206 0.589428 0.000000
0.224933 0.589428 0.000000
0.257754 0.589428 0.000000
0.290657 0.589428 0.000000
0.323633 0.589428 0.000000
0.356676 0.589428 0.000000
0.389778 0.589428 0.000000
0.422936 0.589428 0.000000
0.456146 0.589428 0.000000
0.489402 0.589428 0.000000
0.522703 0.589428 0.000000
0.556046 0.589428 0.000000
0.589428 0.589428 0.000000
0.622847 0.589428 0.000000
0.656302 0.589428 0.000000
0.689789 0.589428 0.000000
0.723309 0.589428 0.000000
0.756860 0.589428 0.000000
0.790439 0.589428 0.000000
0.824046 0.589428 0.000000
0.857681 0.589428 0.000000
0.891341 0.589428 0.000000
0.925026 0.589428 0.000000
0.958736 0.589428 0.000000
0.992468 0.589428 0.000000
1.000000 0.589428 0.000000
1.000000 0.589428 0.000000
0.000000 0.622847 0.000000
0.030907 0.622847 0.000000
0.062676 0.622847 0.000000
0.094780 0.622847 0.000000
0.127102 0.622847 0.000000
0.159589 0.622847 0.000000
0.192206 0.622847 0.000000
0.224933 0.622847 0.000000
0.257754 0.622847 0.000000
0.290657 0.622847 0.000000
0.323633 0.622847 0.000000
0.356676 0.622847 0.000000
0.389778 0.622847 0.000000
0.422936 0.622847 0.000000
0.456146 0.622847 0.000000
0.489402 0.622847 0.000000
0.522703 0.622847 0.000000
0.556046 0.622847 0.000000
0.589428 0.622847 0.000000
0.622847 0.622847 0.000000
0.656302 0.622847 0.000000
0.689789 0.622847 0.000000
0.723309 0.622847 0.000000
0.756860 0.622847 0.000000
0.790439 0.622847 0.000000
0.824046 0.622847 0.000000
0.857681 0.622847 0.000000
0.891341 0.622847 0.000000
0.925026 0.622847 0.000000
0.958736 0.622847 0.000000
0.992468 0.622847 0.000000
1.000000 0.622847 0.000000
1.000000 0.622847 0.000000
0.000000 0.656302 0.000000
0.030907 0.656302 0.000000
0.062676 0.656302 0.000000
0.094780 0.656302 0.000000
0.127102 0.656302 0.000000
0.159589 0.656302 0.000000
0.192206 0.656302 0.000000
0.224933 0.656302 0.000000
0.257754 0.656302 0.000000
0.290657 0.656302 0.000000
0.323633 0.656302 0.000000
0.356676 0.656302 0.000000
0.389778 0.656302 0.000000
0.422936 0.656302 0.000000
0.456146 0.656302 0.000000
0.489402 0.656302 0.000000
0.522703 0.656302 0.000000
0.556046 0.656302 0.000000
0.589428 0.656302 0.000000
0.622847 0.656302 0.000000
0.656302 0.656302 0.000000
0.689789 0.656302 0.000000
0.723309 0.656302 0.000000
0.756860 0.656302 0.000000
0.790439 0.656302 0.000000
0.824046 0.656302 0.000000
0.857681 0.656302 0.000000
0.891341 0.656302 0.000000
0.925026 0.656302 0.000000
0.958736 0.656302 0.000000
0.992468 0.656302 0.000000
1.000000 0.656302 0.000000
1.000000 0.656302 0.000000
0.000000 0.689789 0.000000
0.030907 0.689789 0.000000
0.062676 0.689789 0.000000
0.094780 0.689789 0.000000
0.127102 0.689789 0.000000
0.159589 0.689789 0.000000
0.192206 0.689789 0.000000
0.224933 0.689789 0.000000
0.257754 0.689789 0.000000
0.290657 0.689789 0.000000
0.323633 0.689789 0.000000
0.356676 0.689789 0.000000
0.389778 0.689789 0.000000
0.422936 0.689789 0.000000
0.456146 0.689789 0.000000
0.489402 0.689789 0.000000
0.522703 0.689789 0.000000
0.556046 0.689789 0.000000
0.589428 0.689789 0.000000
0.622847 0.689789 0.000000
0.656302 0.689789 0.000000
0.689789 0.689789 0.000000
0.723309 0.689789 0.000000
0.756860 0.689789 0.000000
0.790439 0.689789 0.000000
0.824046 0.689789 0.000000
0.857681 0.689789 0.000000
0.891341 0.689789 0.000000
0.925026 0.689789 0.000000
0.958736 0.689789 0.000000
0.992468 0.689789 0.000000
1.000000 0.689789 0.000000
1.000000 0.689789 0.000000
0.000000 0.723309 0.000000
0.030907 0.723309 0.000000
0.062676 0.723309 0.000000
0.094780 0.723309 0.000000
0.127102 0.723309 0.000000
0.159589 0.723309 0.000000
0.192206 0.723309 0.000000
0.224933 0.723309 0.000000
0.257754 0.723309 0.000000
0.290657 0.723309 0.000000
0.323633 0.723309 0.000000
0.356676 0.723309 0.000000
0.389778 0.723309 0.000000
0.422936 0.723309 0.000000
0.456146 0.723309 0.000000
0.489402 0.723309 0.000000
0.522703 0.723309 0.000000
0.556046 0.723309 0.000000
0.589428 0.723309 0.000000
0.622847 0.723309 0.000000
0.656302 0.723309 0.000000
0.689789 0.723309 0.000000
0.723309 0.723309 0.000000
0.756860 0.723309 0.000000
0.790439 0.723309 0.000000
0.824046 0.723309 0.000000
0.857681 0.723309 0.000000
0.891341 0.723309 0.000000
0.925026 0.723309 0.000000
0.958736 0.723309 0.000000
0.992468 0.723309 0.000000
1.000000 0.723309 0.000000
1.000000 0.723309 0.000000
0.000000 0.756860 0.000000
0.030907 0.756860 0.000000
0.062676 0.756860 0.000000
0.094780 0.756860 0.000000
0.127102 0.756860 0.000000
0.159589 0.756860 0.000000
0.192206 0.756860 0.000000
0.224933 0.756860 0.000000
0.257754 0.756860 0.000000
0.290657 0.756860 0.000000
0.323633 0.756860 0.000000
0.356676 0.756860 0.000000
0.389778 0.756860 0.000000
0.422936 0.756860 0.000000
0.456146 0.756860 0.000000
0.489402 0.756860 0.000000
0.522703 0.756860 0.000000
0.556046 0.756860 0.000000
0.589428 0.756860 0.000000
0.622847 0.756860 0.000000
0.656302 0.756860 0.000000
0.689789 0.756860 0.000000
0.723309 0.756860 0.000000
0.756860 0.756860 0.000000
0.790439 0.756860 0.000000
0.824046 0.756860 0.000000
0.857681 0.756860 0.000000
0.891341 0.756860 0.000000
0.925026 0.756860 0.000000
0.958736 0.756860 0.000000
0.992468 0.756860 0.000000
1.000000 0.756860 0.000000
1.000000 0.756860 0.000000
0.000000 0.790439 0.000000
0.030907 0.790439 0.000000
0.062676 0.790439 0.000000
0.094780 0.790439 0.000000
0.127102 0.790439 0.000000
0.159589 0.790439 0.000000
0.192206 0.790439 0.000000
0.224933 0.790439 0.000000
0.257754 0.790439 0.000000
0.290657 0.790439 0.000000
0.323633 0.790439 0.000000
0.356676 0.790439 0.000000
0.389778 0.790439 0.000000
0.422936 0.790439 0.000000
0.456146 0.790439 0.000000
0.489402 0.790439 0.000000
0.522703 0.790439 0.000000
0.556046 0.790439 0.000000
0.589428 0.790439 0.000000
0.622847 0.790439 0.000000
0.656302 0.790439 0.000000
0.689789 0.790439 0.000000
0.723309 0.790439 0.000000
0.756860 0.790439 0.000000
0.790439 0.790439 0.000000
0.824046 0.790439 0.000000
0.857681 0.790439 0.000000
0.891341 0.790439 0.000000
0.925026 0.790439 0.000000
0.958736 0.790439 0.000000
0.992468 0.790439 0.000000
1.000000 0.790439 0.000000
1.000000 0.790439 0.000000
0.000000 0.824046 0.000000
0.030907 0.824046 0.000000
0.062676 0.824046 0.000000
0.094780 0.824046 0.000000
0.127102 0.824046 0.000000
0.159589 0.824046 0.000000
0.192206 0.824046 0.000000
0.224933 0.824046 0.000000
0.257754 0.824046 0.000000
0.290657 0.824046 0.000000
0.323633 0.824046 0.000000
0.356676 0.824046 0.000000
0.389778 0.824046 0.000000
0.422936 0.824046 0.000000
0.456146 0.824046 0.000000
0.489402 0.824046 0.000000
0.522703 0.824046 0.000000
0.556046 0.824046 0.000000
0.589428 0.824046 0.000000
0.622847 0.824046 0.000000
0.656302 0.824046 0.000000
0.689789 0.824046 0.000000
0.723309 0.824046 0.000000
0.756860 0.824046 0.000000
0.790439 0.824046 0.000000
0.824046 0.824046 0.000000
0.857681 0.824046 0.000000
0.891341 0.824046 0.000000
0.925026 0.824046 0.000000
0.958736 0.824046 0.000000
0.992468 0.824046 0.000000
1.000000 0.824046 0.000000
1.000000 0.824046 0.000000
0.000000 0.857681 0.000000
0.030907 0.857681 0.000000
0.062676 0.857681 0.000000
0.094780 0.857681 0.000000
0.127102 0.857681 0.000000
0.159589 0.857681 0.000000
0.192206 0.857681 0.000000
0.224933 0.857681 0.000000
0.257754 0.857681 0.000000
0.290657 0.857681 0.000000
0.323633 0.857681 0.000000
0.356676 0.857681 0.000000
0.389778 0.857681 0.000000
0.422936 0.857681 0.000000
0.456146 0.857681 0.000000
0.489402 0.857681 0.000000
0.522703 0.857681 0.000000
0.556046 0.857681 0.000000
0.589428 0.857681 0.000000
0.622847 0.857681 0.000000
0.656302 0.857681 0.000000
0.689789 0.857681 0.000000
0.723309 0.857681 0.000000
0.756860 0.857681 0.000000
0.790439 0.857681 0.000000
0.824046 0.857681 0.000000
0.857681 0.857681 0.000000
0.891341 0.857681 0.000000
