app/src/main/assets/luts/vivid.cube
TITLE "Vivid"
LUT_3D_SIZE 9
DOMAIN_MIN 0.0 0.0 0.0
DOMAIN_MAX 1.0 1.0 1.0
0.000000 0.000000 0.000000
0.127102 0.000000 0.000000
0.257754 0.000000 0.000000
0.389778 0.000000 0.000000
0.522703 0.000000 0.000000
0.656302 0.000000 0.000000
0.790439 0.000000 0.000000
0.925026 0.000000 0.000000
1.000000 0.000000 0.000000
0.000000 0.127102 0.000000
0.127102 0.127102 0.000000
0.257754 0.127102 0.000000
0.389778 0.127102 0.000000
0.522703 0.127102 0.000000
0.656302 0.127102 0.000000
0.790439 0.127102 0.000000
0.925026 0.127102 0.000000
1.000000 0.127102 0.000000
0.000000 0.257754 0.000000
0.127102 0.257754 0.000000
0.257754 0.257754 0.000000
0.389778 0.257754 0.000000
0.522703 0.257754 0.000000
0.656302 0.257754 0.000000
0.790439 0.257754 0.000000
0.925026 0.257754 0.000000
1.000000 0.257754 0.000000
0.000000 0.389778 0.000000
0.127102 0.389778 0.000000
0.257754 0.389778 0.000000
0.389778 0.389778 0.000000
0.522703 0.389778 0.000000
0.656302 0.389778 0.000000
0.790439 0.389778 0.000000
0.925026 0.389778 0.000000
1.000000 0.389778 0.000000
0.000000 0.522703 0.000000
0.127102 0.522703 0.000000
0.257754 0.522703 0.000000
0.389778 0.522703 0.000000
0.522703 0.522703 0.000000
0.656302 0.522703 0.000000
0.790439 0.522703 0.000000
0.925026 0.522703 0.000000
1.000000 0.522703 0.000000
0.000000 0.656302 0.000000
0.127102 0.656302 0.000000
0.257754 0.656302 0.000000
0.389778 0.656302 0.000000
0.522703 0.656302 0.000000
0.656302 0.656302 0.000000
0.790439 0.656302 0.000000
0.925026 0.656302 0.000000
1.000000 0.656302 0.000000
0.000000 0.790439 0.000000
0.127102 0.790439 0.000000
0.257754 0.790439 0.000000
0.389778 0.790439 0.000000
0.522703 0.790439 0.000000
0.656302 0.790439 0.000000
0.790439 0.790439 0.000000
0.925026 0.790439 0.000000
1.000000 0.790439 0.000000
0.000000 0.925026 0.000000
0.127102 0.925026 0.000000
0.257754 0.925026 0.000000
0.389778 0.925026 0.000000
0.522703 0.925026 0.000000
0.656302 0.925026 0.000000
0.790439 0.925026 0.000000
0.925026 0.925026 0.000000
1.000000 0.925026 0.000000
0.000000 1.000000 0.000000
0.127102 1.000000 0.000000
0.257754 1.000000 0.000000
0.389778 1.000000 0.000000
0.522703 1.000000 0.000000
0.656302 1.000000 0.000000
0.790439 1.000000 0.000000
0.925026 1.000000 0.000000
1.000000 1.000000 0.000000
0.000000 0.000000 0.129501
0.127102 0.000000 0.129501
0.257754 0.000000 0.129501
0.389778 0.000000 0.129501
0.522703 0.000000 0.129501
0.656302 0.000000 0.129501
0.790439 0.000000 0.129501
0.925026 0.000000 0.129501
1.000000 0.000000 0.129501
0.000000 0.127102 0.129501
0.126383 0.126383 0.129501
0.257754 0.087907 0.091025
0.389778 0.048300 0.051417
0.522703 0.008422 0.011540
0.656302 0.000000 0.002974
0.790439 0.000000 0.002858
0.925026 0.000000 0.002780
1.000000 0.000000 0.002747
0.000000 0.257754 0.129501
0.087907 0.257754 0.091025
0.257754 0.257754 0.091025
0.389778 0.218146 0.051417
0.522703 0.178269 0.011540
0.656302 0.159781 0.000000
0.790439 0.153382 0.000000
0.925026 0.149131 0.000000
1.000000 0.147333 0.000000
0.000000 0.389778 0.129501
0.048300 0.389778 0.051417
0.218146 0.389778 0.051417
0.389778 0.389778 0.051417
0.522703 0.349901 0.011540
0.656302 0.324260 0.000000
0.790439 0.311275 0.000000
0.925026 0.302647 0.000000
1.000000 0.298998 0.000000
0.000000 0.522703 0.129501
0.008422 0.522703 0.011540
0.178269 0.522703 0.011540
0.349901 0.522703 0.011540
0.522703 0.522703 0.011540
0.656302 0.489862 0.000000
0.790439 0.470245 0.000000
0.925026 0.457211 0.000000
1.000000 0.451698 0.000000
0.000000 0.656302 0.129501
0.000000 0.656302 0.002974
0.159781 0.656302 0.000000
0.324260 0.656302 0.000000
0.489862 0.656302 0.000000
0.656302 0.656302 0.000000
0.790439 0.630019 0.000000
0.925026 0.612557 0.000000
1.000000 0.605171 0.000000
0.000000 0.790439 0.129501
0.000000 0.790439 0.002858
0.153382 0.790439 0.000000
0.311275 0.790439 0.000000
0.470245 0.790439 0.000000
0.630019 0.790439 0.000000
0.790439 0.790439 0.000000
0.925026 0.768530 0.000000
1.000000 0.759263 0.000000
0.000000 0.925026 0.129501
0.000000 0.925026 0.002780
0.149131 0.925026 0.000000
0.302647 0.925026 0.000000
0.457211 0.925026 0.000000
0.612557 0.925026 0.000000
0.768530 0.925026 0.000000
0.925026 0.925026 0.000000
1.000000 0.913873 0.000000
0.000000 1.000000 0.129501
0.000000 1.000000 0.002747
0.147333 1.000000 0.000000
0.298998 1.000000 0.000000
0.451698 1.000000 0.000000
0.605171 1.000000 0.000000
0.759263 1.000000 0.000000
0.913873 1.000000 0.000000
1.000000 1.000000 0.000000
0.000000 0.000000 0.262617
0.127102 0.000000 0.262617
0.257754 0.000000 0.262617
0.389778 0.000000 0.262617
0.522703 0.000000 0.262617
0.656302 0.000000 0.262617
0.790439 0.000000 0.262617
0.925026 0.000000 0.262617
1.000000 0.000000 0.262617
0.000000 0.127102 0.262617
0.086448 0.086448 0.262617
0.256295 0.086448 0.262617
0.389778 0.048300 0.224468
0.522703 0.008422 0.184591
0.656302 0.000000 0.168062
0.790439 0.000000 0.161480
0.925026 0.000000 0.157101
1.000000 0.000000 0.155247
0.000000 0.257754 0.262617
0.086448 0.256295 0.262617
0.256295 0.256295 0.262617
0.389778 0.218146 0.224468
0.522703 0.178269 0.184591
0.656302 0.138189 0.144511
0.790439 0.097948 0.104270
0.925026 0.057572 0.063894
1.000000 0.035080 0.041402
0.000000 0.389778 0.262617
0.048300 0.389778 0.224468
0.218146 0.389778 0.224468
0.389778 0.389778 0.224468
0.522703 0.349901 0.184591
0.656302 0.309821 0.144511
0.790439 0.269580 0.104270
0.925026 0.229204 0.063894
1.000000 0.206712 0.041402
0.000000 0.522703 0.262617
0.008422 0.522703 0.184591
0.178269 0.522703 0.184591
0.349901 0.522703 0.184591
0.522703 0.522703 0.184591
0.656302 0.482624 0.144511
0.790439 0.442383 0.104270
0.925026 0.402006 0.063894
1.000000 0.379514 0.041402
0.000000 0.656302 0.262617
0.000000 0.656302 0.168062
0.138189 0.656302 0.144511
0.309821 0.656302 0.144511
0.482624 0.656302 0.144511
0.656302 0.656302 0.144511
0.790439 0.616060 0.104270
0.925026 0.575684 0.063894
1.000000 0.553192 0.041402
0.000000 0.790439 0.262617
0.000000 0.790439 0.161480
0.097948 0.790439 0.104270
0.269580 0.790439 0.104270
0.442383 0.790439 0.104270
0.616060 0.790439 0.104270
0.790439 0.790439 0.104270
0.925026 0.750063 0.063894
1.000000 0.727571 0.041402
0.000000 0.925026 0.262617
0.000000 0.925026 0.157101
0.057572 0.925026 0.063894
0.229204 0.925026 0.063894
0.402006 0.925026 0.063894
0.575684 0.925026 0.063894
0.750063 0.925026 0.063894
0.925026 0.925026 0.063894
1.000000 0.902534 0.041402
0.000000 1.000000 0.262617
0.000000 1.000000 0.155247
0.035080 1.000000 0.041402
0.206712 1.000000 0.041402
0.379514 1.000000 0.041402
0.553192 1.000000 0.041402
0.727571 1.000000 0.041402
0.902534 1.000000 0.041402
1.000000 1.000000 0.041402
0.000000 0.000000 0.397133
0.127102 0.000000 0.397133
0.257754 0.000000 0.397133
0.389778 0.000000 0.397133
0.522703 0.000000 0.397133
0.656302 0.000000 0.397133
0.790439 0.000000 0.397133
0.925026 0.000000 0.397133
1.000000 0.000000 0.397133
0.000000 0.127102 0.397133
0.046093 0.046093 0.397133
0.215940 0.046093 0.397133
0.387572 0.046093 0.397133
0.522703 0.008422 0.359462
0.656302 0.000000 0.334886
0.790439 0.000000 0.321771
0.925026 0.000000 0.313044
1.000000 0.000000 0.309349
0.000000 0.257754 0.397133
0.046093 0.215940 0.397133
0.215940 0.215940 0.397133
0.387572 0.215940 0.397133
0.522703 0.178269 0.359462
0.656302 0.138189 0.319382
0.790439 0.097948 0.279141
0.925026 0.057572 0.238765
1.000000 0.035080 0.216273
0.000000 0.389778 0.397133
0.046093 0.387572 0.397133
0.215940 0.387572 0.397133
0.387572 0.387572 0.397133
0.522703 0.349901 0.359462
0.656302 0.309821 0.319382
0.790439 0.269580 0.279141
0.925026 0.229204 0.238765
1.000000 0.206712 0.216273
0.000000 0.522703 0.397133
0.008422 0.522703 0.359462
0.178269 0.522703 0.359462
0.349901 0.522703 0.359462
0.522703 0.522703 0.359462
0.656302 0.482624 0.319382
0.790439 0.442383 0.279141
0.925026 0.402006 0.238765
1.000000 0.379514 0.216273
0.000000 0.656302 0.397133
0.000000 0.656302 0.334886
0.138189 0.656302 0.319382
0.309821 0.656302 0.319382
0.482624 0.656302 0.319382
0.656302 0.656302 0.319382
0.790439 0.616060 0.279141
0.925026 0.575684 0.238765
1.000000 0.553192 0.216273
0.000000 0.790439 0.397133
0.000000 0.790439 0.321771
0.097948 0.790439 0.279141
0.269580 0.790439 0.279141
0.442383 0.790439 0.279141
0.616060 0.790439 0.279141
0.790439 0.790439 0.279141
0.925026 0.750063 0.238765
1.000000 0.727571 0.216273
0.000000 0.925026 0.397133
0.000000 0.925026 0.313044
0.057572 0.925026 0.238765
0.229204 0.925026 0.238765
0.402006 0.925026 0.238765
0.575684 0.925026 0.238765
0.750063 0.925026 0.238765
0.925026 0.925026 0.238765
1.000000 0.902534 0.216273
0.000000 1.000000 0.397133
0.000000 1.000000 0.309349
0.035080 1.000000 0.216273
0.206712 1.000000 0.216273
0.379514 1.000000 0.216273
0.553192 1.000000 0.216273
0.727571 1.000000 0.216273
0.902534 1.000000 0.216273
1.000000 1.000000 0.216273
0.000000 0.000000 0.532566
0.127102 0.000000 0.532566
0.257754 0.000000 0.532566
0.389778 0.000000 0.532566
0.522703 0.000000 0.532566
0.656302 0.000000 0.532566
0.790439 0.000000 0.532566
0.925026 0.000000 0.532566
1.000000 0.000000 0.532566
0.000000 0.127102 0.532566
0.005464 0.005464 0.532566
0.175310 0.005464 0.532566
0.346942 0.005464 0.532566
0.519745 0.005464 0.532566
0.656302 0.000000 0.502847
0.790439 0.000000 0.483154
0.925026 0.000000 0.470050
1.000000 0.000000 0.464503
0.000000 0.257754 0.532566
0.005464 0.175310 0.532566
0.175310 0.175310 0.532566
0.346942 0.175310 0.532566
0.519745 0.175310 0.532566
0.656302 0.138189 0.495445
0.790439 0.097948 0.455204
0.925026 0.057572 0.414827
1.000000 0.035080 0.392335
0.000000 0.389778 0.532566
0.005464 0.346942 0.532566
0.175310 0.346942 0.532566
0.346942 0.346942 0.532566
0.519745 0.346942 0.532566
0.656302 0.309821 0.495445
0.790439 0.269580 0.455204
0.925026 0.229204 0.414827
1.000000 0.206712 0.392335
0.000000 0.522703 0.532566
0.005464 0.519745 0.532566
0.175310 0.519745 0.532566
0.346942 0.519745 0.532566
0.519745 0.519745 0.532566
0.656302 0.482624 0.495445
0.790439 0.442383 0.455204
0.925026 0.402006 0.414827
1.000000 0.379514 0.392335
0.000000 0.656302 0.532566
0.000000 0.656302 0.502847
0.138189 0.656302 0.495445
0.309821 0.656302 0.495445
0.482624 0.656302 0.495445
0.656302 0.656302 0.495445
0.790439 0.616060 0.455204
0.925026 0.575684 0.414827
1.000000 0.553192 0.392335
0.000000 0.790439 0.532566
0.000000 0.790439 0.483154
0.097948 0.790439 0.455204
0.269580 0.790439 0.455204
0.442383 0.790439 0.455204
0.616060 0.790439 0.455204
0.790439 0.790439 0.455204
0.925026 0.750063 0.414827
1.000000 0.727571 0.392335
0.000000 0.925026 0.532566
0.000000 0.925026 0.470050
0.057572 0.925026 0.414827
0.229204 0.925026 0.414827
0.402006 0.925026 0.414827
0.575684 0.925026 0.414827
0.750063 0.925026 0.414827
0.925026 0.925026 0.414827
1.000000 0.902534 0.392335
0.000000 1.000000 0.532566
0.000000 1.000000 0.464503
0.035080 1.000000 0.392335
0.206712 1.000000 0.392335
0.379514 1.000000 0.392335
0.553192 1.000000 0.392335
0.727571 1.000000 0.392335
0.902534 1.000000 0.392335
1.000000 1.000000 0.392335
0.000000 0.000000 0.668685
0.127102 0.000000 0.668685
0.257754 0.000000 0.668685
0.389778 0.000000 0.668685
0.522703 0.000000 0.668685
0.656302 0.000000 0.668685
0.790439 0.000000 0.668685
0.925026 0.000000 0.668685
1.000000 0.000000 0.668685
0.000000 0.127102 0.668685
0.000000 0.000000 0.668685
0.161313 0.000000 0.668685
0.324323 0.000000 0.668685
0.488443 0.000000 0.668685
0.653395 0.000000 0.668685
0.790439 0.000000 0.645355
0.925026 0.000000 0.627852
1.000000 0.000000 0.620442
0.000000 0.257754 0.668685
0.000000 0.161313 0.668685
0.134474 0.134474 0.668685
0.306107 0.134474 0.668685
0.478909 0.134474 0.668685
0.652587 0.134474 0.668685
0.790439 0.097948 0.632158
0.925026 0.057572 0.591782
1.000000 0.035080 0.569290
0.000000 0.389778 0.668685
0.000000 0.324323 0.668685
0.134474 0.306107 0.668685
0.306107 0.306107 0.668685
0.478909 0.306107 0.668685
0.652587 0.306107 0.668685
0.790439 0.269580 0.632158
0.925026 0.229204 0.591782
1.000000 0.206712 0.569290
0.000000 0.522703 0.668685
0.000000 0.488443 0.668685
0.134474 0.478909 0.668685
0.306107 0.478909 0.668685
0.478909 0.478909 0.668685
0.652587 0.478909 0.668685
0.790439 0.442383 0.632158
0.925026 0.402006 0.591782
1.000000 0.379514 0.569290
0.000000 0.656302 0.668685
0.000000 0.653395 0.668685
0.134474 0.652587 0.668685
0.306107 0.652587 0.668685
0.478909 0.652587 0.668685
0.652587 0.652587 0.668685
0.790439 0.616060 0.632158
0.925026 0.575684 0.591782
1.000000 0.553192 0.569290
0.000000 0.790439 0.668685
0.000000 0.790439 0.645355
0.097948 0.790439 0.632158
0.269580 0.790439 0.632158
0.442383 0.790439 0.632158
0.616060 0.790439 0.632158
0.790439 0.790439 0.632158
0.925026 0.750063 0.591782
1.000000 0.727571 0.569290
0.000000 0.925026 0.668685
0.000000 0.925026 0.627852
0.057572 0.925026 0.591782
0.229204 0.925026 0.591782
0.402006 0.925026 0.591782
0.575684 0.925026 0.591782
0.750063 0.925026 0.591782
0.925026 0.925026 0.591782
1.000000 0.902534 0.569290
0.000000 1.000000 0.668685
0.000000 1.000000 0.620442
0.035080 1.000000 0.569290
0.206712 1.000000 0.569290
0.379514 1.000000 0.569290
0.553192 1.000000 0.569290
0.727571 1.000000 0.569290
0.902534 1.000000 0.569290
1.000000 1.000000 0.569290
0.000000 0.000000 0.805353
0.127102 0.000000 0.805353
0.257754 0.000000 0.805353
0.389778 0.000000 0.805353
0.522703 0.000000 0.805353
0.656302 0.000000 0.805353
0.790439 0.000000 0.805353
0.925026 0.000000 0.805353
1.000000 0.000000 0.805353
0.000000 0.127102 0.805353
0.000000 0.000000 0.805353
0.155135 0.000000 0.805353
0.311901 0.000000 0.805353
0.469735 0.000000 0.805353
0.628370 0.000000 0.805353
0.787644 0.000000 0.805353
0.925026 0.000000 0.786290
1.000000 0.000000 0.777010
0.000000 0.257754 0.805353
0.000000 0.155135 0.805353
0.093474 0.093474 0.805353
0.265106 0.093474 0.805353
0.437908 0.093474 0.805353
0.611586 0.093474 0.805353
0.785965 0.093474 0.805353
0.925026 0.057572 0.769451
1.000000 0.035080 0.746959
0.000000 0.389778 0.805353
0.000000 0.311901 0.805353
0.093474 0.265106 0.805353
0.265106 0.265106 0.805353
0.437908 0.265106 0.805353
0.611586 0.265106 0.805353
0.785965 0.265106 0.805353
0.925026 0.229204 0.769451
1.000000 0.206712 0.746959
0.000000 0.522703 0.805353
0.000000 0.469735 0.805353
0.093474 0.437908 0.805353
0.265106 0.437908 0.805353
0.437908 0.437908 0.805353
0.611586 0.437908 0.805353
0.785965 0.437908 0.805353
0.925026 0.402006 0.769451
1.000000 0.379514 0.746959
0.000000 0.656302 0.805353
0.000000 0.628370 0.805353
0.093474 0.611586 0.805353
0.265106 0.611586 0.805353
0.437908 0.611586 0.805353
0.611586 0.611586 0.805353
0.785965 0.611586 0.805353
0.925026 0.575684 0.769451
1.000000 0.553192 0.746959
0.000000 0.790439 0.805353
0.000000 0.787644 0.805353
0.093474 0.785965 0.805353
0.265106 0.785965 0.805353
0.437908 0.785965 0.805353
0.611586 0.785965 0.805353
0.785965 0.785965 0.805353
0.925026 0.750063 0.769451
1.000000 0.727571 0.746959
0.000000 0.925026 0.805353
0.000000 0.925026 0.786290
0.057572 0.925026 0.769451
0.229204 0.925026 0.769451
0.402006 0.925026 0.769451
0.575684 0.925026 0.769451
0.750063 0.925026 0.769451
0.925026 0.925026 0.769451
1.000000 0.902534 0.746959
0.000000 1.000000 0.805353
0.000000 1.000000 0.777010
0.035080 1.000000 0.746959
0.206712 1.000000 0.746959
0.379514 1.000000 0.746959
0.553192 1.000000 0.746959
0.727571 1.000000 0.746959
0.902534 1.000000 0.746959
1.000000 1.000000 0.746959
0.000000 0.000000 0.942480
0.127102 0.000000 0.942480
0.257754 0.000000 0.942480
0.389778 0.000000 0.942480
0.522703 0.000000 0.942480
0.656302 0.000000 0.942480
0.790439 0.000000 0.942480
0.925026 0.000000 0.942480
1.000000 0.000000 0.942480
0.000000 0.127102 0.942480
0.000000 0.000000 0.942480
0.151017 0.000000 0.942480
0.303622 0.000000 0.942480
0.457268 0.000000 0.942480
0.611692 0.000000 0.942480
0.766739 0.000000 0.942480
0.922306 0.000000 0.942480
1.000000 0.000000 0.934104
0.000000 0.257754 0.942480
0.000000 0.151017 0.942480
0.052336 0.052336 0.942480
0.223968 0.052336 0.942480
0.396770 0.052336 0.942480
0.570448 0.052336 0.942480
0.744827 0.052336 0.942480
0.919790 0.052336 0.942480
1.000000 0.035080 0.925224
0.000000 0.389778 0.942480
0.000000 0.303622 0.942480
0.052336 0.223968 0.942480
0.223968 0.223968 0.942480
0.396770 0.223968 0.942480
0.570448 0.223968 0.942480
0.744827 0.223968 0.942480
0.919790 0.223968 0.942480
1.000000 0.206712 0.925224
0.000000 0.522703 0.942480
0.000000 0.457268 0.942480
0.052336 0.396770 0.942480
0.223968 0.396770 0.942480
0.396770 0.396770 0.942480
0.570448 0.396770 0.942480
0.744827 0.396770 0.942480
0.919790 0.396770 0.942480
1.000000 0.379514 0.925224
0.000000 0.656302 0.942480
0.000000 0.611692 0.942480
0.052336 0.570448 0.942480
0.223968 0.570448 0.942480
0.396770 0.570448 0.942480
0.570448 0.570448 0.942480
0.744827 0.570448 0.942480
0.919790 0.570448 0.942480
1.000000 0.553192 0.925224
0.000000 0.790439 0.942480
0.000000 0.766739 0.942480
0.052336 0.744827 0.942480
0.223968 0.744827 0.942480
0.396770 0.744827 0.942480
0.570448 0.744827 0.942480
0.744827 0.744827 0.942480
0.919790 0.744827 0.942480
1.000000 0.727571 0.925224
0.000000 0.925026 0.942480
0.000000 0.922306 0.942480
0.052336 0.919790 0.942480
0.223968 0.919790 0.942480
0.396770 0.919790 0.942480
0.570448 0.919790 0.942480
0.744827 0.919790 0.942480
0.919790 0.919790 0.942480
1.000000 0.902534 0.925224
0.000000 1.000000 0.942480
0.000000 1.000000 0.934104
0.035080 1.000000 0.925224
0.206712 1.000000 0.925224
0.379514 1.000000 0.925224
0.553192 1.000000 0.925224
0.727571 1.000000 0.925224
0.902534 1.000000 0.925224
1.000000 1.000000 0.925224
0.000000 0.000000 1.000000
0.127102 0.000000 1.000000
0.257754 0.000000 1.000000
0.389778 0.000000 1.000000
0.522703 0.000000 1.000000
0.656302 0.000000 1.000000
0.790439 0.000000 1.000000
0.925026 0.000000 1.000000
1.000000 0.000000 1.000000
0.000000 0.127102 1.000000
0.000000 0.000000 1.000000
0.149675 0.000000 1.000000
0.300924 0.000000 1.000000
0.453204 0.000000 1.000000
0.606256 0.000000 1.000000
0.759925 0.000000 1.000000
0.914109 0.000000 1.000000
1.000000 0.000000 1.000000
0.000000 0.257754 1.000000
0.000000 0.149675 1.000000
0.035080 0.035080 1.000000
0.206712 0.035080 1.000000
0.379514 0.035080 1.000000
0.553192 0.035080 1.000000
0.727571 0.035080 1.000000
0.902534 0.035080 1.000000
1.000000 0.035080 1.000000
0.000000 0.389778 1.000000
0.000000 0.300924 1.000000
0.035080 0.206712 1.000000
0.206712 0.206712 1.000000
0.379514 0.206712 1.000000
0.553192 0.206712 1.000000
0.727571 0.206712 1.000000
0.902534 0.206712 1.000000
1.000000 0.206712 1.000000
0.000000 0.522703 1.000000
0.000000 0.453204 1.000000
0.035080 0.379514 1.000000
0.206712 0.379514 1.000000
0.379514 0.379514 1.000000
0.553192 0.379514 1.000000
0.727571 0.379514 1.000000
0.902534 0.379514 1.000000
1.000000 0.379514 1.000000
0.000000 0.656302 1.000000
0.000000 0.606256 1.000000
0.035080 0.553192 1.000000
0.206712 0.553192 1.000000
0.379514 0.553192 1.000000
0.553192 0.553192 1.000000
0.727571 0.553192 1.000000
0.902534 0.553192 1.000000
1.000000 0.553192 1.000000
0.000000 0.790439 1.000000
0.000000 0.759925 1.000000
0.035080 0.727571 1.000000
0.206712 0.727571 1.000000
0.379514 0.727571 1.000000
0.553192 0.727571 1.000000
0.727571 0.727571 1.000000
0.902534 0.727571 1.000000
1.000000 0.727571 1.000000
0.000000 0.925026 1.000000
0.000000 0.914109 1.000000
0.035080 0.902534 1.000000
0.206712 0.902534 1.000000
0.379514 0.902534 1.000000
0.553192 0.902534 1.000000
0.727571 0.902534 1.000000
0.902534 0.902534 1.000000
1.000000 0.902534 1.000000
0.000000 1.000000 1.000000
0.000000 1.000000 1.000000
0.035080 1.000000 1.000000
0.206712 1.000000 1.000000
0.379514 1.000000 1.000000
0.553192 1.000000 1.000000
0.727571 1.000000 1.000000
0.902534 1.000000 1.000000
1.000000 1.000000 1.000000
