app/src/main/assets/luts/vivid.cube
TITLE "Vivid"
LUT_3D_SIZE 5
DOMAIN_MIN 0.0 0.0 0.0
DOMAIN_MAX 1.0 1.0 1.0
0.000000 0.000000 0.000000
0.257754 0.000000 0.000000
0.522703 0.000000 0.000000
0.790439 0.000000 0.000000
1.000000 0.000000 0.000000
0.000000 0.257754 0.000000
0.257754 0.257754 0.000000
0.522703 0.257754 0.000000
0.790439 0.257754 0.000000
1.000000 0.257754 0.000000
0.000000 0.522703 0.000000
0.257754 0.522703 0.000000
0.522703 0.522703 0.000000
0.790439 0.522703 0.000000
1.000000 0.522703 0.000000
0.000000 0.790439 0.000000
0.257754 0.790439 0.000000
0.522703 0.790439 0.000000
0.790439 0.790439 0.000000
1.000000 0.790439 0.000000
0.000000 1.000000 0.000000
0.257754 1.000000 0.000000
0.522703 1.000000 0.000000
0.790439 1.000000 0.000000
1.000000 1.000000 0.000000
0.000000 0.000000 0.262617
0.257754 0.000000 0.262617
0.522703 0.000000 0.262617
0.790439 0.000000 0.262617
1.000000 0.000000 0.262617
0.000000 0.257754 0.262617
0.256295 0.256295 0.262617
0.522703 0.178269 0.184591
0.790439 0.097948 0.104270
1.000000 0.035080 0.041402
0.000000 0.522703 0.262617
0.178269 0.522703 0.184591
0.522703 0.522703 0.184591
0.790439 0.442383 0.104270
1.000000 0.379514 0.041402
0.000000 0.790439 0.262617
0.097948 0.790439 0.104270
0.442383 0.790439 0.104270
0.790439 0.790439 0.104270
1.000000 0.727571 0.041402
0.000000 1.000000 0.262617
0.035080 1.000000 0.041402
0.379514 1.000000 0.041402
0.727571 1.000000 0.041402
1.000000 1.000000 0.041402
0.000000 0.000000 0.532566
0.257754 0.000000 0.532566
0.522703 0.000000 0.532566
0.790439 0.000000 0.532566
1.000000 0.000000 0.532566
0.000000 0.257754 0.532566
0.175310 0.175310 0.532566
0.519745 0.175310 0.532566
0.790439 0.097948 0.455204
1.000000 0.035080 0.392335
0.000000 0.522703 0.532566
0.175310 0.519745 0.532566
0.519745 0.519745 0.532566
0.790439 0.442383 0.455204
1.000000 0.379514 0.392335
0.000000 0.790439 0.532566
0.097948 0.790439 0.455204
0.442383 0.790439 0.455204
0.790439 0.790439 0.455204
1.000000 0.727571 0.392335
0.000000 1.000000 0.532566
0.035080 1.000000 0.392335
0.379514 1.000000 0.392335
0.727571 1.000000 0.392335
1.000000 1.000000 0.392335
0.000000 0.000000 0.805353
0.257754 0.000000 0.805353
0.522703 0.000000 0.805353
0.790439 0.000000 0.805353
1.000000 0.000000 0.805353
0.000000 0.257754 0.805353
0.093474 0.093474 0.805353
0.437908 0.093474 0.805353
0.785965 0.093474 0.805353
1.000000 0.035080 0.746959
0.000000 0.522703 0.805353
0.093474 0.437908 0.805353
0.437908 0.437908 0.805353
0.785965 0.437908 0.805353
1.000000 0.379514 0.746959
0.000000 0.790439 0.805353
0.093474 0.785965 0.805353
0.437908 0.785965 0.805353
0.785965 0.785965 0.805353
1.000000 0.727571 0.746959
0.000000 1.000000 0.805353
0.035080 1.000000 0.746959
0.379514 1.000000 0.746959
0.727571 1.000000 0.746959
1.000000 1.000000 0.746959
0.000000 0.000000 1.000000
0.257754 0.000000 1.000000
0.522703 0.000000 1.000000
0.790439 0.000000 1.000000
1.000000 0.000000 1.000000
0.000000 0.257754 1.000000
0.035080 0.035080 1.000000
0.379514 0.035080 1.000000
0.727571 0.035080 1.000000
1.000000 0.035080 1.000000
0.000000 0.522703 1.000000
0.035080 0.379514 1.000000
0.379514 0.379514 1.000000
0.727571 0.379514 1.000000
1.000000 0.379514 1.000000
0.000000 0.790439 1.000000
0.035080 0.727571 1.000000
0.379514 0.727571 1.000000
0.727571 0.727571 1.000000
1.000000 0.727571 1.000000
0.000000 1.000000 1.000000
0.035080 1.000000 1.000000
0.379514 1.000000 1.000000
0.727571 1.000000 1.000000
1.000000 1.000000 1.000000
