app/src/main/assets/luts/washed_out.cube
TITLE "Washed Out"
LUT_3D_SIZE 5
DOMAIN_MIN 0.0 0.0 0.0
DOMAIN_MAX 1.0 1.0 1.0
0.127000 0.127000 0.140000
0.328996 0.193149 0.206149
0.523753 0.261314 0.274314
0.713476 0.327716 0.340716
0.900000 0.393000 0.406000
0.193149 0.328996 0.206149
0.328996 0.328996 0.206149
0.523753 0.397161 0.274314
0.713476 0.463564 0.340716
0.900000 0.528847 0.406000
0.261314 0.523753 0.274314
0.397161 0.523753 0.274314
0.523753 0.523753 0.274314
0.713476 0.590156 0.340716
0.900000 0.655440 0.406000
0.327716 0.713476 0.340716
0.463564 0.713476 0.340716
0.590156 0.713476 0.340716
0.713476 0.713476 0.340716
0.900000 0.778759 0.406000
0.393000 0.900000 0.406000
0.528847 0.900000 0.406000
0.655440 0.900000 0.406000
0.778759 0.900000 0.406000
0.900000 0.900000 0.406000
0.200149 0.200149 0.348996
0.335996 0.200149 0.348996
0.523753 0.261314 0.410161
0.713476 0.327716 0.476564
0.900000 0.393000 0.541847
0.200149 0.335996 0.348996
0.335996 0.335996 0.348996
0.523753 0.397161 0.410161
0.713476 0.463564 0.476564
0.900000 0.528847 0.541847
0.261314 0.523753 0.410161
0.397161 0.523753 0.410161
0.523753 0.523753 0.410161
0.713476 0.590156 0.476564
0.900000 0.655440 0.541847
0.327716 0.713476 0.476564
0.463564 0.713476 0.476564
0.590156 0.713476 0.476564
0.713476 0.713476 0.476564
0.900000 0.778759 0.541847
0.393000 0.900000 0.541847
0.528847 0.900000 0.541847
0.655440 0.900000 0.541847
0.778759 0.900000 0.541847
0.900000 0.900000 0.541847
0.268314 0.268314 0.543753
0.404161 0.268314 0.543753
0.530753 0.268314 0.543753
0.713476 0.327716 0.603156
0.900000 0.393000 0.668440
0.268314 0.404161 0.543753
0.404161 0.404161 0.543753
0.530753 0.404161 0.543753
0.713476 0.463564 0.603156
0.900000 0.528847 0.668440
0.268314 0.530753 0.543753
0.404161 0.530753 0.543753
0.530753 0.530753 0.543753
0.713476 0.590156 0.603156
0.900000 0.655440 0.668440
0.327716 0.713476 0.603156
0.463564 0.713476 0.603156
0.590156 0.713476 0.603156
0.713476 0.713476 0.603156
0.900000 0.778759 0.668440
0.393000 0.900000 0.668440
0.528847 0.900000 0.668440
0.655440 0.900000 0.668440
0.778759 0.900000 0.668440
0.900000 0.900000 0.668440
0.334716 0.334716 0.733476
0.470564 0.334716 0.733476
0.597156 0.334716 0.733476
0.720476 0.334716 0.733476
0.900000 0.393000 0.791759
0.334716 0.470564 0.733476
0.470564 0.470564 0.733476
0.597156 0.470564 0.733476
0.720476 0.470564 0.733476
0.900000 0.528847 0.791759
0.334716 0.597156 0.733476
0.470564 0.597156 0.733476
0.597156 0.597156 0.733476
0.720476 0.597156 0.733476
0.900000 0.655440 0.791759
0.334716 0.720476 0.733476
0.470564 0.720476 0.733476
0.597156 0.720476 0.733476
0.720476 0.720476 0.733476
0.900000 0.778759 0.791759
0.393000 0.900000 0.791759
0.528847 0.900000 0.791759
0.655440 0.900000 0.791759
0.778759 0.900000 0.791759
0.900000 0.900000 0.791759
0.400000 0.400000 0.920000
0.535847 0.400000 0.920000
0.662440 0.400000 0.920000
0.785759 0.400000 0.920000
0.907000 0.400000 0.920000
0.400000 0.535847 0.920000
0.535847 0.535847 0.920000
0.662440 0.535847 0.920000
0.785759 0.535847 0.920000
0.907000 0.535847 0.920000
0.400000 0.662440 0.920000
0.535847 0.662440 0.920000
0.662440 0.662440 0.920000
0.785759 0.662440 0.920000
0.907000 0.662440 0.920000
0.400000 0.785759 0.920000
0.535847 0.785759 0.920000
0.662440 0.785759 0.920000
0.785759 0.785759 0.920000
0.907000 0.785759 0.920000
0.400000 0.907000 0.920000
0.535847 0.907000 0.920000
0.662440 0.907000 0.920000
0.785759 0.907000 0.920000
0.907000 0.907000 0.920000
