app/src/main/assets/luts/washed_out.cube
TITLE "Washed Out"
LUT_3D_SIZE 9
DOMAIN_MIN 0.0 0.0 0.0
DOMAIN_MAX 1.0 1.0 1.0
0.127000 0.127000 0.140000
0.228183 0.157864 0.170864
0.328996 0.193149 0.206149
0.427202 0.227521 0.240521
0.523753 0.261314 0.274314
0.619092 0.294682 0.307682
0.713476 0.327716 0.340716
0.807072 0.360475 0.373475
0.900000 0.393000 0.406000
0.157864 0.228183 0.170864
0.228183 0.228183 0.170864
0.328996 0.263468 0.206149
0.427202 0.297840 0.240521
0.523753 0.331633 0.274314
0.619092 0.365001 0.307682
0.713476 0.398035 0.340716
0.807072 0.430794 0.373475
0.900000 0.463319 0.406000
0.193149 0.328996 0.206149
0.263468 0.328996 0.206149
0.328996 0.328996 0.206149
0.427202 0.363368 0.240521
0.523753 0.397161 0.274314
0.619092 0.430529 0.307682
0.713476 0.463564 0.340716
0.807072 0.496322 0.373475
0.900000 0.528847 0.406000
0.227521 0.427202 0.240521
0.297840 0.427202 0.240521
0.363368 0.427202 0.240521
0.427202 0.427202 0.240521
0.523753 0.460995 0.274314
0.619092 0.494364 0.307682
0.713476 0.527398 0.340716
0.807072 0.560157 0.373475
0.900000 0.592681 0.406000
0.261314 0.523753 0.274314
0.331633 0.523753 0.274314
0.397161 0.523753 0.274314
0.460995 0.523753 0.274314
0.523753 0.523753 0.274314
0.619092 0.557122 0.307682
0.713476 0.590156 0.340716
0.807072 0.622915 0.373475
0.900000 0.655440 0.406000
0.294682 0.619092 0.307682
0.365001 0.619092 0.307682
0.430529 0.619092 0.307682
0.494364 0.619092 0.307682
0.557122 0.619092 0.307682
0.619092 0.619092 0.307682
0.713476 0.652126 0.340716
0.807072 0.684885 0.373475
0.900000 0.717410 0.406000
0.327716 0.713476 0.340716
0.398035 0.713476 0.340716
0.463564 0.713476 0.340716
0.527398 0.713476 0.340716
0.590156 0.713476 0.340716
0.652126 0.713476 0.340716
0.713476 0.713476 0.340716
0.807072 0.746234 0.373475
0.900000 0.778759 0.406000
0.360475 0.807072 0.373475
0.430794 0.807072 0.373475
0.496322 0.807072 0.373475
0.560157 0.807072 0.373475
0.622915 0.807072 0.373475
0.684885 0.807072 0.373475
0.746234 0.807072 0.373475
0.807072 0.807072 0.373475
0.900000 0.839597 0.406000
0.393000 0.900000 0.406000
0.463319 0.900000 0.406000
0.528847 0.900000 0.406000
0.592681 0.900000 0.406000
0.655440 0.900000 0.406000
0.717410 0.900000 0.406000
0.778759 0.900000 0.406000
0.839597 0.900000 0.406000
0.900000 0.900000 0.406000
0.164864 0.164864 0.248183
0.235183 0.164864 0.248183
0.328996 0.193149 0.276468
0.427202 0.227521 0.310840
0.523753 0.261314 0.344633
0.619092 0.294682 0.378001
0.713476 0.327716 0.411035
0.807072 0.360475 0.443794
0.900000 0.393000 0.476319
0.164864 0.235183 0.248183
0.235183 0.235183 0.248183
0.328996 0.263468 0.276468
0.427202 0.297840 0.310840
0.523753 0.331633 0.344633
0.619092 0.365001 0.378001
0.713476 0.398035 0.411035
0.807072 0.430794 0.443794
0.900000 0.463319 0.476319
0.193149 0.328996 0.276468
0.263468 0.328996 0.276468
0.328996 0.328996 0.276468
0.427202 0.363368 0.310840
0.523753 0.397161 0.344633
0.619092 0.430529 0.378001
0.713476 0.463564 0.411035
0.807072 0.496322 0.443794
0.900000 0.528847 0.476319
0.227521 0.427202 0.310840
0.297840 0.427202 0.310840
0.363368 0.427202 0.310840
0.427202 0.427202 0.310840
0.523753 0.460995 0.344633
0.619092 0.494364 0.378001
0.713476 0.527398 0.411035
0.807072 0.560157 0.443794
0.900000 0.592681 0.476319
0.261314 0.523753 0.344633
0.331633 0.523753 0.344633
0.397161 0.523753 0.344633
0.460995 0.523753 0.344633
0.523753 0.523753 0.344633
0.619092 0.557122 0.378001
0.713476 0.590156 0.411035
0.807072 0.622915 0.443794
0.900000 0.655440 0.476319
0.294682 0.619092 0.378001
0.365001 0.619092 0.378001
0.430529 0.619092 0.378001
0.494364 0.619092 0.378001
0.557122 0.619092 0.378001
0.619092 0.619092 0.378001
0.713476 0.652126 0.411035
0.807072 0.684885 0.443794
0.900000 0.717410 0.476319
0.327716 0.713476 0.411035
0.398035 0.713476 0.411035
0.463564 0.713476 0.411035
0.527398 0.713476 0.411035
0.590156 0.713476 0.411035
0.652126 0.713476 0.411035
0.713476 0.713476 0.411035
0.807072 0.746234 0.443794
0.900000 0.778759 0.476319
0.360475 0.807072 0.443794
0.430794 0.807072 0.443794
0.496322 0.807072 0.443794
0.560157 0.807072 0.443794
0.622915 0.807072 0.443794
0.684885 0.807072 0.443794
0.746234 0.807072 0.443794
0.807072 0.807072 0.443794
0.900000 0.839597 0.476319
0.393000 0.900000 0.476319
0.463319 0.900000 0.476319
0.528847 0.900000 0.476319
0.592681 0.900000 0.476319
0.655440 0.900000 0.476319
0.717410 0.900000 0.476319
0.778759 0.900000 0.476319
0.839597 0.900000 0.476319
0.900000 0.900000 0.476319
0.200149 0.200149 0.348996
0.270468 0.200149 0.348996
0.335996 0.200149 0.348996
0.427202 0.227521 0.376368
0.523753 0.261314 0.410161
0.619092 0.294682 0.443529
0.713476 0.327716 0.476564
0.807072 0.360475 0.509322
0.900000 0.393000 0.541847
0.200149 0.270468 0.348996
0.270468 0.270468 0.348996
0.335996 0.270468 0.348996
0.427202 0.297840 0.376368
0.523753 0.331633 0.410161
0.619092 0.365001 0.443529
0.713476 0.398035 0.476564
0.807072 0.430794 0.509322
0.900000 0.463319 0.541847
0.200149 0.335996 0.348996
0.270468 0.335996 0.348996
0.335996 0.335996 0.348996
0.427202 0.363368 0.376368
0.523753 0.397161 0.410161
0.619092 0.430529 0.443529
0.713476 0.463564 0.476564
0.807072 0.496322 0.509322
0.900000 0.528847 0.541847
0.227521 0.427202 0.376368
0.297840 0.427202 0.376368
0.363368 0.427202 0.376368
0.427202 0.427202 0.376368
0.523753 0.460995 0.410161
0.619092 0.494364 0.443529
0.713476 0.527398 0.476564
0.807072 0.560157 0.509322
0.900000 0.592681 0.541847
0.261314 0.523753 0.410161
0.331633 0.523753 0.410161
0.397161 0.523753 0.410161
0.460995 0.523753 0.410161
0.523753 0.523753 0.410161
0.619092 0.557122 0.443529
0.713476 0.590156 0.476564
0.807072 0.622915 0.509322
0.900000 0.655440 0.541847
0.294682 0.619092 0.443529
0.365001 0.619092 0.443529
0.430529 0.619092 0.443529
0.494364 0.619092 0.443529
0.557122 0.619092 0.443529
0.619092 0.619092 0.443529
0.713476 0.652126 0.476564
0.807072 0.684885 0.509322
0.900000 0.717410 0.541847
0.327716 0.713476 0.476564
0.398035 0.713476 0.476564
0.463564 0.713476 0.476564
0.527398 0.713476 0.476564
0.590156 0.713476 0.476564
0.652126 0.713476 0.476564
0.713476 0.713476 0.476564
0.807072 0.746234 0.509322
0.900000 0.778759 0.541847
0.360475 0.807072 0.509322
0.430794 0.807072 0.509322
0.496322 0.807072 0.509322
0.560157 0.807072 0.509322
0.622915 0.807072 0.509322
0.684885 0.807072 0.509322
0.746234 0.807072 0.509322
0.807072 0.807072 0.509322
0.900000 0.839597 0.541847
0.393000 0.900000 0.541847
0.463319 0.900000 0.541847
0.528847 0.900000 0.541847
0.592681 0.900000 0.541847
0.655440 0.900000 0.541847
0.717410 0.900000 0.541847
0.778759 0.900000 0.541847
0.839597 0.900000 0.541847
0.900000 0.900000 0.541847
0.234521 0.234521 0.447202
0.304840 0.234521 0.447202
0.370368 0.234521 0.447202
0.434202 0.234521 0.447202
0.523753 0.261314 0.473995
0.619092 0.294682 0.507364
0.713476 0.327716 0.540398
0.807072 0.360475 0.573157
0.900000 0.393000 0.605681
0.234521 0.304840 0.447202
0.304840 0.304840 0.447202
0.370368 0.304840 0.447202
0.434202 0.304840 0.447202
0.523753 0.331633 0.473995
0.619092 0.365001 0.507364
0.713476 0.398035 0.540398
0.807072 0.430794 0.573157
0.900000 0.463319 0.605681
0.234521 0.370368 0.447202
0.304840 0.370368 0.447202
0.370368 0.370368 0.447202
0.434202 0.370368 0.447202
0.523753 0.397161 0.473995
0.619092 0.430529 0.507364
0.713476 0.463564 0.540398
0.807072 0.496322 0.573157
0.900000 0.528847 0.605681
0.234521 0.434202 0.447202
0.304840 0.434202 0.447202
0.370368 0.434202 0.447202
0.434202 0.434202 0.447202
0.523753 0.460995 0.473995
0.619092 0.494364 0.507364
0.713476 0.527398 0.540398
0.807072 0.560157 0.573157
0.900000 0.592681 0.605681
0.261314 0.523753 0.473995
0.331633 0.523753 0.473995
0.397161 0.523753 0.473995
0.460995 0.523753 0.473995
0.523753 0.523753 0.473995
0.619092 0.557122 0.507364
0.713476 0.590156 0.540398
0.807072 0.622915 0.573157
0.900000 0.655440 0.605681
0.294682 0.619092 0.507364
0.365001 0.619092 0.507364
0.430529 0.619092 0.507364
0.494364 0.619092 0.507364
0.557122 0.619092 0.507364
0.619092 0.619092 0.507364
0.713476 0.652126 0.540398
0.807072 0.684885 0.573157
0.900000 0.717410 0.605681
0.327716 0.713476 0.540398
0.398035 0.713476 0.540398
0.463564 0.713476 0.540398
0.527398 0.713476 0.540398
0.590156 0.713476 0.540398
0.652126 0.713476 0.540398
0.713476 0.713476 0.540398
0.807072 0.746234 0.573157
0.900000 0.778759 0.605681
0.360475 0.807072 0.573157
0.430794 0.807072 0.573157
0.496322 0.807072 0.573157
0.560157 0.807072 0.573157
0.622915 0.807072 0.573157
0.684885 0.807072 0.573157
0.746234 0.807072 0.573157
0.807072 0.807072 0.573157
0.900000 0.839597 0.605681
0.393000 0.900000 0.605681
0.463319 0.900000 0.605681
0.528847 0.900000 0.605681
0.592681 0.900000 0.605681
0.655440 0.900000 0.605681
0.717410 0.900000 0.605681
0.778759 0.900000 0.605681
0.839597 0.900000 0.605681
0.900000 0.900000 0.605681
0.268314 0.268314 0.543753
0.338633 0.268314 0.543753
0.404161 0.268314 0.543753
0.467995 0.268314 0.543753
0.530753 0.268314 0.543753
0.619092 0.294682 0.570122
0.713476 0.327716 0.603156
0.807072 0.360475 0.635915
0.900000 0.393000 0.668440
0.268314 0.338633 0.543753
0.338633 0.338633 0.543753
0.404161 0.338633 0.543753
0.467995 0.338633 0.543753
0.530753 0.338633 0.543753
0.619092 0.365001 0.570122
0.713476 0.398035 0.603156
0.807072 0.430794 0.635915
0.900000 0.463319 0.668440
0.268314 0.404161 0.543753
0.338633 0.404161 0.543753
0.404161 0.404161 0.543753
0.467995 0.404161 0.543753
0.530753 0.404161 0.543753
0.619092 0.430529 0.570122
0.713476 0.463564 0.603156
0.807072 0.496322 0.635915
0.900000 0.528847 0.668440
0.268314 0.467995 0.543753
0.338633 0.467995 0.543753
0.404161 0.467995 0.543753
0.467995 0.467995 0.543753
0.530753 0.467995 0.543753
0.619092 0.494364 0.570122
0.713476 0.527398 0.603156
0.807072 0.560157 0.635915
0.900000 0.592681 0.668440
0.268314 0.530753 0.543753
0.338633 0.530753 0.543753
0.404161 0.530753 0.543753
0.467995 0.530753 0.543753
0.530753 0.530753 0.543753
0.619092 0.557122 0.570122
0.713476 0.590156 0.603156
0.807072 0.622915 0.635915
0.900000 0.655440 0.668440
0.294682 0.619092 0.570122
0.365001 0.619092 0.570122
0.430529 0.619092 0.570122
0.494364 0.619092 0.570122
0.557122 0.619092 0.570122
0.619092 0.619092 0.570122
0.713476 0.652126 0.603156
0.807072 0.684885 0.635915
0.900000 0.717410 0.668440
0.327716 0.713476 0.603156
0.398035 0.713476 0.603156
0.463564 0.713476 0.603156
0.527398 0.713476 0.603156
0.590156 0.713476 0.603156
0.652126 0.713476 0.603156
0.713476 0.713476 0.603156
0.807072 0.746234 0.635915
0.900000 0.778759 0.668440
0.360475 0.807072 0.635915
0.430794 0.807072 0.635915
0.496322 0.807072 0.635915
0.560157 0.807072 0.635915
0.622915 0.807072 0.635915
0.684885 0.807072 0.635915
0.746234 0.807072 0.635915
0.807072 0.807072 0.635915
0.900000 0.839597 0.668440
0.393000 0.900000 0.668440
0.463319 0.900000 0.668440
0.528847 0.900000 0.668440
0.592681 0.900000 0.668440
0.655440 0.900000 0.668440
0.717410 0.900000 0.668440
0.778759 0.900000 0.668440
0.839597 0.900000 0.668440
0.900000 0.900000 0.668440
0.301682 0.301682 0.639092
0.372001 0.301682 0.639092
0.437529 0.301682 0.639092
0.501364 0.301682 0.639092
0.564122 0.301682 0.639092
0.626092 0.301682 0.639092
0.713476 0.327716 0.665126
0.807072 0.360475 0.697885
0.900000 0.393000 0.730410
0.301682 0.372001 0.639092
0.372001 0.372001 0.639092
0.437529 0.372001 0.639092
0.501364 0.372001 0.639092
0.564122 0.372001 0.639092
0.626092 0.372001 0.639092
0.713476 0.398035 0.665126
0.807072 0.430794 0.697885
0.900000 0.463319 0.730410
0.301682 0.437529 0.639092
0.372001 0.437529 0.639092
0.437529 0.437529 0.639092
0.501364 0.437529 0.639092
0.564122 0.437529 0.639092
0.626092 0.437529 0.639092
0.713476 0.463564 0.665126
0.807072 0.496322 0.697885
0.900000 0.528847 0.730410
0.301682 0.501364 0.639092
0.372001 0.501364 0.639092
0.437529 0.501364 0.639092
0.501364 0.501364 0.639092
0.564122 0.501364 0.639092
0.626092 0.501364 0.639092
0.713476 0.527398 0.665126
0.807072 0.560157 0.697885
0.900000 0.592681 0.730410
0.301682 0.564122 0.639092
0.372001 0.564122 0.639092
0.437529 0.564122 0.639092
0.501364 0.564122 0.639092
0.564122 0.564122 0.639092
0.626092 0.564122 0.639092
0.713476 0.590156 0.665126
0.807072 0.622915 0.697885
0.900000 0.655440 0.730410
0.301682 0.626092 0.639092
0.372001 0.626092 0.639092
0.437529 0.626092 0.639092
0.501364 0.626092 0.639092
0.564122 0.626092 0.639092
0.626092 0.626092 0.639092
0.713476 0.652126 0.665126
0.807072 0.684885 0.697885
0.900000 0.717410 0.730410
0.327716 0.713476 0.665126
0.398035 0.713476 0.665126
0.463564 0.713476 0.665126
0.527398 0.713476 0.665126
0.590156 0.713476 0.665126
0.652126 0.713476 0.665126
0.713476 0.713476 0.665126
0.807072 0.746234 0.697885
0.900000 0.778759 0.730410
0.360475 0.807072 0.697885
0.430794 0.807072 0.697885
0.496322 0.807072 0.697885
0.560157 0.807072 0.697885
0.622915 0.807072 0.697885
0.684885 0.807072 0.697885
0.746234 0.807072 0.697885
0.807072 0.807072 0.697885
0.900000 0.839597 0.730410
0.393000 0.900000 0.730410
0.463319 0.900000 0.730410
0.528847 0.900000 0.730410
0.592681 0.900000 0.730410
0.655440 0.900000 0.730410
0.717410 0.900000 0.730410
0.778759 0.900000 0.730410
0.839597 0.900000 0.730410
0.900000 0.900000 0.730410
0.334716 0.334716 0.733476
0.405035 0.334716 0.733476
0.470564 0.334716 0.733476
0.534398 0.334716 0.733476
0.597156 0.334716 0.733476
0.659126 0.334716 0.733476
0.720476 0.334716 0.733476
0.807072 0.360475 0.759234
0.900000 0.393000 0.791759
0.334716 0.405035 0.733476
0.405035 0.405035 0.733476
0.470564 0.405035 0.733476
0.534398 0.405035 0.733476
0.597156 0.405035 0.733476
0.659126 0.405035 0.733476
0.720476 0.405035 0.733476
0.807072 0.430794 0.759234
0.900000 0.463319 0.791759
0.334716 0.470564 0.733476
0.405035 0.470564 0.733476
0.470564 0.470564 0.733476
0.534398 0.470564 0.733476
0.597156 0.470564 0.733476
0.659126 0.470564 0.733476
0.720476 0.470564 0.733476
0.807072 0.496322 0.759234
0.900000 0.528847 0.791759
0.334716 0.534398 0.733476
0.405035 0.534398 0.733476
0.470564 0.534398 0.733476
0.534398 0.534398 0.733476
0.597156 0.534398 0.733476
0.659126 0.534398 0.733476
0.720476 0.534398 0.733476
0.807072 0.560157 0.759234
0.900000 0.592681 0.791759
0.334716 0.597156 0.733476
0.405035 0.597156 0.733476
0.470564 0.597156 0.733476
0.534398 0.597156 0.733476
0.597156 0.597156 0.733476
0.659126 0.597156 0.733476
0.720476 0.597156 0.733476
0.807072 0.622915 0.759234
0.900000 0.655440 0.791759
0.334716 0.659126 0.733476
0.405035 0.659126 0.733476
0.470564 0.659126 0.733476
0.534398 0.659126 0.733476
0.597156 0.659126 0.733476
0.659126 0.659126 0.733476
0.720476 0.659126 0.733476
0.807072 0.684885 0.759234
0.900000 0.717410 0.791759
0.334716 0.720476 0.733476
0.405035 0.720476 0.733476
0.470564 0.720476 0.733476
0.534398 0.720476 0.733476
0.597156 0.720476 0.733476
0.659126 0.720476 0.733476
0.720476 0.720476 0.733476
0.807072 0.746234 0.759234
0.900000 0.778759 0.791759
0.360475 0.807072 0.759234
0.430794 0.807072 0.759234
0.496322 0.807072 0.759234
0.560157 0.807072 0.759234
0.622915 0.807072 0.759234
0.684885 0.807072 0.759234
0.746234 0.807072 0.759234
0.807072 0.807072 0.759234
0.900000 0.839597 0.791759
0.393000 0.900000 0.791759
0.463319 0.900000 0.791759
0.528847 0.900000 0.791759
0.592681 0.900000 0.791759
0.655440 0.900000 0.791759
0.717410 0.900000 0.791759
0.778759 0.900000 0.791759
0.839597 0.900000 0.791759
0.900000 0.900000 0.791759
0.367475 0.367475 0.827072
0.437794 0.367475 0.827072
0.503322 0.367475 0.827072
0.567157 0.367475 0.827072
0.629915 0.367475 0.827072
0.691885 0.367475 0.827072
0.753234 0.367475 0.827072
0.814072 0.367475 0.827072
0.900000 0.393000 0.852597
0.367475 0.437794 0.827072
0.437794 0.437794 0.827072
0.503322 0.437794 0.827072
0.567157 0.437794 0.827072
0.629915 0.437794 0.827072
0.691885 0.437794 0.827072
0.753234 0.437794 0.827072
0.814072 0.437794 0.827072
0.900000 0.463319 0.852597
0.367475 0.503322 0.827072
0.437794 0.503322 0.827072
0.503322 0.503322 0.827072
0.567157 0.503322 0.827072
0.629915 0.503322 0.827072
0.691885 0.503322 0.827072
0.753234 0.503322 0.827072
0.814072 0.503322 0.827072
0.900000 0.528847 0.852597
0.367475 0.567157 0.827072
0.437794 0.567157 0.827072
0.503322 0.567157 0.827072
0.567157 0.567157 0.827072
0.629915 0.567157 0.827072
0.691885 0.567157 0.827072
0.753234 0.567157 0.827072
0.814072 0.567157 0.827072
0.900000 0.592681 0.852597
0.367475 0.629915 0.827072
0.437794 0.629915 0.827072
0.503322 0.629915 0.827072
0.567157 0.629915 0.827072
0.629915 0.629915 0.827072
0.691885 0.629915 0.827072
0.753234 0.629915 0.827072
0.814072 0.629915 0.827072
0.900000 0.655440 0.852597
0.367475 0.691885 0.827072
0.437794 0.691885 0.827072
0.503322 0.691885 0.827072
0.567157 0.691885 0.827072
0.629915 0.691885 0.827072
0.691885 0.691885 0.827072
0.753234 0.691885 0.827072
0.814072 0.691885 0.827072
0.900000 0.717410 0.852597
0.367475 0.753234 0.827072
0.437794 0.753234 0.827072
0.503322 0.753234 0.827072
0.567157 0.753234 0.827072
0.629915 0.753234 0.827072
0.691885 0.753234 0.827072
0.753234 0.753234 0.827072
0.814072 0.753234 0.827072
0.900000 0.778759 0.852597
0.367475 0.814072 0.827072
0.437794 0.814072 0.827072
0.503322 0.814072 0.827072
0.567157 0.814072 0.827072
0.629915 0.814072 0.827072
0.691885 0.814072 0.827072
0.753234 0.814072 0.827072
0.814072 0.814072 0.827072
0.900000 0.839597 0.852597
0.393000 0.900000 0.852597
0.463319 0.900000 0.852597
0.528847 0.900000 0.852597
0.592681 0.900000 0.852597
0.655440 0.900000 0.852597
0.717410 0.900000 0.852597
0.778759 0.900000 0.852597
0.839597 0.900000 0.852597
0.900000 0.900000 0.852597
0.400000 0.400000 0.920000
0.470319 0.400000 0.920000
0.535847 0.400000 0.920000
0.599681 0.400000 0.920000
0.662440 0.400000 0.920000
0.724410 0.400000 0.920000
0.785759 0.400000 0.920000
0.846597 0.400000 0.920000
0.907000 0.400000 0.920000
0.400000 0.470319 0.920000
0.470319 0.470319 0.920000
0.535847 0.470319 0.920000
0.599681 0.470319 0.920000
0.662440 0.470319 0.920000
0.724410 0.470319 0.920000
0.785759 0.470319 0.920000
0.846597 0.470319 0.920000
0.907000 0.470319 0.920000
0.400000 0.535847 0.920000
0.470319 0.535847 0.920000
0.535847 0.535847 0.920000
0.599681 0.535847 0.920000
0.662440 0.535847 0.920000
0.724410 0.535847 0.920000
0.785759 0.535847 0.920000
0.846597 0.535847 0.920000
0.907000 0.535847 0.920000
0.400000 0.599681 0.920000
0.470319 0.599681 0.920000
0.535847 0.599681 0.920000
0.599681 0.599681 0.920000
0.662440 0.599681 0.920000
0.724410 0.599681 0.920000
0.785759 0.599681 0.920000
0.846597 0.599681 0.920000
0.907000 0.599681 0.920000
0.400000 0.662440 0.920000
0.470319 0.662440 0.920000
0.535847 0.662440 0.920000
0.599681 0.662440 0.920000
0.662440 0.662440 0.920000
0.724410 0.662440 0.920000
0.785759 0.662440 0.920000
0.846597 0.662440 0.920000
0.907000 0.662440 0.920000
0.400000 0.724410 0.920000
0.470319 0.724410 0.920000
0.535847 0.724410 0.920000
0.599681 0.724410 0.920000
0.662440 0.724410 0.920000
0.724410 0.724410 0.920000
0.785759 0.724410 0.920000
0.846597 0.724410 0.920000
0.907000 0.724410 0.920000
0.400000 0.785759 0.920000
0.470319 0.785759 0.920000
0.535847 0.785759 0.920000
0.599681 0.785759 0.920000
0.662440 0.785759 0.920000
0.724410 0.785759 0.920000
0.785759 0.785759 0.920000
0.846597 0.785759 0.920000
0.907000 0.785759 0.920000
0.400000 0.846597 0.920000
0.470319 0.846597 0.920000
0.535847 0.846597 0.920000
0.599681 0.846597 0.920000
0.662440 0.846597 0.920000
0.724410 0.846597 0.920000
0.785759 0.846597 0.920000
0.846597 0.846597 0.920000
0.907000 0.846597 0.920000
0.400000 0.907000 0.920000
0.470319 0.907000 0.920000
0.535847 0.907000 0.920000
0.599681 0.907000 0.920000
0.662440 0.907000 0.920000
0.724410 0.907000 0.920000
0.785759 0.907000 0.920000
0.846597 0.907000 0.920000
0.907000 0.907000 0.920000
