app/src/main/assets/luts/washed_out.cube
TITLE "Washed Out"
LUT_3D_SIZE 33
DOMAIN_MIN 0.0 0.0 0.0
DOMAIN_MAX 1.0 1.0 1.0
0.127000 0.127000 0.140000
0.148987 0.130145 0.143145
0.175999 0.139600 0.152600
0.202313 0.148809 0.161809
0.228183 0.157864 0.170864
0.253728 0.166805 0.179805
0.279018 0.175656 0.188656
0.304096 0.184434 0.197434
0.328996 0.193149 0.206149
0.353740 0.201809 0.214809
0.378346 0.210421 0.223421
0.402830 0.218990 0.231990
0.427202 0.227521 0.240521
0.451473 0.236016 0.249016
0.475651 0.244478 0.257478
0.499742 0.252910 0.265910
0.523753 0.261314 0.274314
0.547690 0.269691 0.282691
0.571555 0.278044 0.291044
0.595355 0.286374 0.299374
0.619092 0.294682 0.307682
0.642770 0.302969 0.315969
0.666391 0.311237 0.324237
0.689959 0.319486 0.332486
0.713476 0.327716 0.340716
0.736943 0.335930 0.348930
0.760364 0.344127 0.357127
0.783740 0.352309 0.365309
0.807072 0.360475 0.373475
0.830363 0.368627 0.381627
0.853614 0.376765 0.389765
0.876825 0.384889 0.397889
0.900000 0.393000 0.406000
0.130145 0.148987 0.143145
0.148987 0.148987 0.143145
0.175999 0.158441 0.152600
0.202313 0.167651 0.161809
0.228183 0.176706 0.170864
0.253728 0.185646 0.179805
0.279018 0.194498 0.188656
0.304096 0.203275 0.197434
0.328996 0.211990 0.206149
0.353740 0.220650 0.214809
0.378346 0.229263 0.223421
0.402830 0.237832 0.231990
0.427202 0.246362 0.240521
0.451473 0.254857 0.249016
0.475651 0.263319 0.257478
0.499742 0.271751 0.265910
0.523753 0.280155 0.274314
0.547690 0.288533 0.282691
0.571555 0.296886 0.291044
0.595355 0.305216 0.299374
0.619092 0.313524 0.307682
0.642770 0.321811 0.315969
0.666391 0.330078 0.324237
0.689959 0.338327 0.332486
0.713476 0.346558 0.340716
0.736943 0.354772 0.348930
0.760364 0.362969 0.357127
0.783740 0.371150 0.365309
0.807072 0.379317 0.373475
0.830363 0.387468 0.381627
0.853614 0.395606 0.389765
0.876825 0.403730 0.397889
0.900000 0.411842 0.406000
0.139600 0.175999 0.152600
0.158441 0.175999 0.152600
0.175999 0.175999 0.152600
0.202313 0.185209 0.161809
0.228183 0.194263 0.170864
0.253728 0.203204 0.179805
0.279018 0.212056 0.188656
0.304096 0.220833 0.197434
0.328996 0.229548 0.206149
0.353740 0.238208 0.214809
0.378346 0.246821 0.223421
0.402830 0.255390 0.231990
0.427202 0.263920 0.240521
0.451473 0.272415 0.249016
0.475651 0.280877 0.257478
0.499742 0.289309 0.265910
0.523753 0.297713 0.274314
0.547690 0.306091 0.282691
0.571555 0.314444 0.291044
0.595355 0.322774 0.299374
0.619092 0.331082 0.307682
0.642770 0.339369 0.315969
0.666391 0.347636 0.324237
0.689959 0.355885 0.332486
0.713476 0.364116 0.340716
0.736943 0.372329 0.348930
0.760364 0.380527 0.357127
0.783740 0.388708 0.365309
0.807072 0.396875 0.373475
0.830363 0.405026 0.381627
0.853614 0.413164 0.389765
0.876825 0.421288 0.397889
0.900000 0.429399 0.406000
0.148809 0.202313 0.161809
0.167651 0.202313 0.161809
0.185209 0.202313 0.161809
0.202313 0.202313 0.161809
0.228183 0.211367 0.170864
0.253728 0.220308 0.179805
0.279018 0.229160 0.188656
0.304096 0.237937 0.197434
0.328996 0.246652 0.206149
0.353740 0.255312 0.214809
0.378346 0.263924 0.223421
0.402830 0.272494 0.231990
0.427202 0.281024 0.240521
0.451473 0.289519 0.249016
0.475651 0.297981 0.257478
0.499742 0.306413 0.265910
0.523753 0.314817 0.274314
0.547690 0.323195 0.282691
0.571555 0.331548 0.291044
0.595355 0.339878 0.299374
0.619092 0.348186 0.307682
0.642770 0.356473 0.315969
0.666391 0.364740 0.324237
0.689959 0.372989 0.332486
0.713476 0.381220 0.340716
0.736943 0.389433 0.348930
0.760364 0.397631 0.357127
0.783740 0.405812 0.365309
0.807072 0.413979 0.373475
0.830363 0.422130 0.381627
0.853614 0.430268 0.389765
0.876825 0.438392 0.397889
0.900000 0.446503 0.406000
0.157864 0.228183 0.170864
0.176706 0.228183 0.170864
0.194263 0.228183 0.170864
0.211367 0.228183 0.170864
0.228183 0.228183 0.170864
0.253728 0.237124 0.179805
0.279018 0.245975 0.188656
0.304096 0.254753 0.197434
0.328996 0.263468 0.206149
0.353740 0.272128 0.214809
0.378346 0.280740 0.223421
0.402830 0.289309 0.231990
0.427202 0.297840 0.240521
0.451473 0.306335 0.249016
0.475651 0.314797 0.257478
0.499742 0.323229 0.265910
0.523753 0.331633 0.274314
0.547690 0.340010 0.282691
0.571555 0.348363 0.291044
0.595355 0.356693 0.299374
0.619092 0.365001 0.307682
0.642770 0.373288 0.315969
0.666391 0.381556 0.324237
0.689959 0.389805 0.332486
0.713476 0.398035 0.340716
0.736943 0.406249 0.348930
0.760364 0.414446 0.357127
0.783740 0.422628 0.365309
0.807072 0.430794 0.373475
0.830363 0.438946 0.381627
0.853614 0.447084 0.389765
0.876825 0.455208 0.397889
0.900000 0.463319 0.406000
0.166805 0.253728 0.179805
0.185646 0.253728 0.179805
0.203204 0.253728 0.179805
0.220308 0.253728 0.179805
0.237124 0.253728 0.179805
0.253728 0.253728 0.179805
0.279018 0.262580 0.188656
0.304096 0.271357 0.197434
0.328996 0.280072 0.206149
0.353740 0.288732 0.214809
0.378346 0.297345 0.223421
0.402830 0.305914 0.231990
0.427202 0.314444 0.240521
0.451473 0.322939 0.249016
0.475651 0.331401 0.257478
0.499742 0.339833 0.265910
0.523753 0.348237 0.274314
0.547690 0.356615 0.282691
0.571555 0.364968 0.291044
0.595355 0.373298 0.299374
0.619092 0.381606 0.307682
0.642770 0.389893 0.315969
0.666391 0.398160 0.324237
0.689959 0.406409 0.332486
0.713476 0.414640 0.340716
0.736943 0.422854 0.348930
0.760364 0.431051 0.357127
0.783740 0.439232 0.365309
0.807072 0.447399 0.373475
0.830363 0.455550 0.381627
0.853614 0.463688 0.389765
0.876825 0.471812 0.397889
0.900000 0.479923 0.406000
0.175656 0.279018 0.188656
0.194498 0.279018 0.188656
0.212056 0.279018 0.188656
0.229160 0.279018 0.188656
0.245975 0.279018 0.188656
0.262580 0.279018 0.188656
0.279018 0.279018 0.188656
0.304096 0.287795 0.197434
0.328996 0.296510 0.206149
0.353740 0.305170 0.214809
0.378346 0.313783 0.223421
0.402830 0.322352 0.231990
0.427202 0.330882 0.240521
0.451473 0.339377 0.249016
0.475651 0.347839 0.257478
0.499742 0.356271 0.265910
0.523753 0.364675 0.274314
0.547690 0.373053 0.282691
0.571555 0.381406 0.291044
0.595355 0.389736 0.299374
0.619092 0.398044 0.307682
0.642770 0.406331 0.315969
0.666391 0.414598 0.324237
0.689959 0.422847 0.332486
0.713476 0.431078 0.340716
0.736943 0.439292 0.348930
0.760364 0.447489 0.357127
0.783740 0.455670 0.365309
0.807072 0.463837 0.373475
0.830363 0.471989 0.381627
0.853614 0.480126 0.389765
0.876825 0.488250 0.397889
0.900000 0.496362 0.406000
0.184434 0.304096 0.197434
0.203275 0.304096 0.197434
0.220833 0.304096 0.197434
0.237937 0.304096 0.197434
0.254753 0.304096 0.197434
0.271357 0.304096 0.197434
0.287795 0.304096 0.197434
0.304096 0.304096 0.197434
0.328996 0.312811 0.206149
0.353740 0.321472 0.214809
0.378346 0.330084 0.223421
0.402830 0.338653 0.231990
0.427202 0.347183 0.240521
0.451473 0.355678 0.249016
0.475651 0.364140 0.257478
0.499742 0.372572 0.265910
0.523753 0.380976 0.274314
0.547690 0.389354 0.282691
0.571555 0.397707 0.291044
0.595355 0.406037 0.299374
0.619092 0.414345 0.307682
0.642770 0.422632 0.315969
0.666391 0.430900 0.324237
0.689959 0.439148 0.332486
0.713476 0.447379 0.340716
0.736943 0.455593 0.348930
0.760364 0.463790 0.357127
0.783740 0.471971 0.365309
0.807072 0.480138 0.373475
0.830363 0.488290 0.381627
0.853614 0.496427 0.389765
0.876825 0.504552 0.397889
0.900000 0.512663 0.406000
0.193149 0.328996 0.206149
0.211990 0.328996 0.206149
0.229548 0.328996 0.206149
0.246652 0.328996 0.206149
0.263468 0.328996 0.206149
0.280072 0.328996 0.206149
0.296510 0.328996 0.206149
0.312811 0.328996 0.206149
0.328996 0.328996 0.206149
0.353740 0.337656 0.214809
0.378346 0.346268 0.223421
0.402830 0.354838 0.231990
0.427202 0.363368 0.240521
0.451473 0.371863 0.249016
0.475651 0.380325 0.257478
0.499742 0.388757 0.265910
0.523753 0.397161 0.274314
0.547690 0.405539 0.282691
0.571555 0.413892 0.291044
0.595355 0.422222 0.299374
0.619092 0.430529 0.307682
0.642770 0.438817 0.315969
0.666391 0.447084 0.324237
0.689959 0.455333 0.332486
0.713476 0.463564 0.340716
0.736943 0.471777 0.348930
0.760364 0.479975 0.357127
0.783740 0.488156 0.365309
0.807072 0.496322 0.373475
0.830363 0.504474 0.381627
0.853614 0.512612 0.389765
0.876825 0.520736 0.397889
0.900000 0.528847 0.406000
0.201809 0.353740 0.214809
0.220650 0.353740 0.214809
0.238208 0.353740 0.214809
0.255312 0.353740 0.214809
0.272128 0.353740 0.214809
0.288732 0.353740 0.214809
0.305170 0.353740 0.214809
0.321472 0.353740 0.214809
0.337656 0.353740 0.214809
0.353740 0.353740 0.214809
0.378346 0.362352 0.223421
0.402830 0.370921 0.231990
0.427202 0.379452 0.240521
0.451473 0.387946 0.249016
0.475651 0.396409 0.257478
0.499742 0.404841 0.265910
0.523753 0.413244 0.274314
0.547690 0.421622 0.282691
0.571555 0.429975 0.291044
0.595355 0.438305 0.299374
0.619092 0.446613 0.307682
0.642770 0.454900 0.315969
0.666391 0.463168 0.324237
0.689959 0.471416 0.332486
0.713476 0.479647 0.340716
0.736943 0.487861 0.348930
0.760364 0.496058 0.357127
0.783740 0.504240 0.365309
0.807072 0.512406 0.373475
0.830363 0.520558 0.381627
0.853614 0.528696 0.389765
0.876825 0.536820 0.397889
0.900000 0.544931 0.406000
0.210421 0.378346 0.223421
0.229263 0.378346 0.223421
0.246821 0.378346 0.223421
0.263924 0.378346 0.223421
0.280740 0.378346 0.223421
0.297345 0.378346 0.223421
0.313783 0.378346 0.223421
0.330084 0.378346 0.223421
0.346268 0.378346 0.223421
0.362352 0.378346 0.223421
0.378346 0.378346 0.223421
0.402830 0.386915 0.231990
0.427202 0.395446 0.240521
0.451473 0.403941 0.249016
0.475651 0.412403 0.257478
0.499742 0.420835 0.265910
0.523753 0.429239 0.274314
0.547690 0.437616 0.282691
0.571555 0.445969 0.291044
0.595355 0.454299 0.299374
0.619092 0.462607 0.307682
0.642770 0.470894 0.315969
0.666391 0.479162 0.324237
0.689959 0.487411 0.332486
0.713476 0.495641 0.340716
0.736943 0.503855 0.348930
0.760364 0.512052 0.357127
0.783740 0.520234 0.365309
0.807072 0.528400 0.373475
0.830363 0.536552 0.381627
0.853614 0.544690 0.389765
0.876825 0.552814 0.397889
0.900000 0.560925 0.406000
0.218990 0.402830 0.231990
0.237832 0.402830 0.231990
0.255390 0.402830 0.231990
0.272494 0.402830 0.231990
0.289309 0.402830 0.231990
0.305914 0.402830 0.231990
0.322352 0.402830 0.231990
0.338653 0.402830 0.231990
0.354838 0.402830 0.231990
0.370921 0.402830 0.231990
0.386915 0.402830 0.231990
0.402830 0.402830 0.231990
0.427202 0.411360 0.240521
0.451473 0.419855 0.249016
0.475651 0.428317 0.257478
0.499742 0.436749 0.265910
0.523753 0.445153 0.274314
0.547690 0.453531 0.282691
0.571555 0.461884 0.291044
0.595355 0.470214 0.299374
0.619092 0.478522 0.307682
0.642770 0.486809 0.315969
0.666391 0.495076 0.324237
0.689959 0.503325 0.332486
0.713476 0.511556 0.340716
0.736943 0.519769 0.348930
0.760364 0.527967 0.357127
0.783740 0.536148 0.365309
0.807072 0.544315 0.373475
0.830363 0.552466 0.381627
0.853614 0.560604 0.389765
0.876825 0.568728 0.397889
0.900000 0.576839 0.406000
0.227521 0.427202 0.240521
0.246362 0.427202 0.240521
0.263920 0.427202 0.240521
0.281024 0.427202 0.240521
0.297840 0.427202 0.240521
0.314444 0.427202 0.240521
0.330882 0.427202 0.240521
0.347183 0.427202 0.240521
0.363368 0.427202 0.240521
0.379452 0.427202 0.240521
0.395446 0.427202 0.240521
0.411360 0.427202 0.240521
0.427202 0.427202 0.240521
0.451473 0.435697 0.249016
0.475651 0.444159 0.257478
0.499742 0.452591 0.265910
0.523753 0.460995 0.274314
0.547690 0.469373 0.282691
0.571555 0.477726 0.291044
0.595355 0.486056 0.299374
0.619092 0.494364 0.307682
0.642770 0.502651 0.315969
0.666391 0.510918 0.324237
0.689959 0.519167 0.332486
0.713476 0.527398 0.340716
0.736943 0.535612 0.348930
0.760364 0.543809 0.357127
0.783740 0.551990 0.365309
0.807072 0.560157 0.373475
0.830363 0.568308 0.381627
0.853614 0.576446 0.389765
0.876825 0.584570 0.397889
0.900000 0.592681 0.406000
0.236016 0.451473 0.249016
0.254857 0.451473 0.249016
0.272415 0.451473 0.249016
0.289519 0.451473 0.249016
0.306335 0.451473 0.249016
0.322939 0.451473 0.249016
0.339377 0.451473 0.249016
0.355678 0.451473 0.249016
0.371863 0.451473 0.249016
0.387946 0.451473 0.249016
0.403941 0.451473 0.249016
0.419855 0.451473 0.249016
0.435697 0.451473 0.249016
0.451473 0.451473 0.249016
0.475651 0.459935 0.257478
0.499742 0.468367 0.265910
0.523753 0.476771 0.274314
0.547690 0.485149 0.282691
0.571555 0.493502 0.291044
0.595355 0.501832 0.299374
0.619092 0.510140 0.307682
0.642770 0.518427 0.315969
0.666391 0.526694 0.324237
0.689959 0.534943 0.332486
0.713476 0.543174 0.340716
0.736943 0.551388 0.348930
0.760364 0.559585 0.357127
0.783740 0.567766 0.365309
0.807072 0.575933 0.373475
0.830363 0.584085 0.381627
0.853614 0.592222 0.389765
0.876825 0.600346 0.397889
0.900000 0.608458 0.406000
0.244478 0.475651 0.257478
0.263319 0.475651 0.257478
0.280877 0.475651 0.257478
0.297981 0.475651 0.257478
0.314797 0.475651 0.257478
0.331401 0.475651 0.257478
0.347839 0.475651 0.257478
0.364140 0.475651 0.257478
0.380325 0.475651 0.257478
0.396409 0.475651 0.257478
0.412403 0.475651 0.257478
0.428317 0.475651 0.257478
0.444159 0.475651 0.257478
0.459935 0.475651 0.257478
0.475651 0.475651 0.257478
0.499742 0.484083 0.265910
0.523753 0.492487 0.274314
0.547690 0.500864 0.282691
0.571555 0.509217 0.291044
0.595355 0.517547 0.299374
0.619092 0.525855 0.307682
0.642770 0.534142 0.315969
0.666391 0.542410 0.324237
0.689959 0.550659 0.332486
0.713476 0.558889 0.340716
0.736943 0.567103 0.348930
0.760364 0.575300 0.357127
0.783740 0.583482 0.365309
0.807072 0.591648 0.373475
0.830363 0.599800 0.381627
0.853614 0.607938 0.389765
0.876825 0.616062 0.397889
0.900000 0.624173 0.406000
0.252910 0.499742 0.265910
0.271751 0.499742 0.265910
0.289309 0.499742 0.265910
0.306413 0.499742 0.265910
0.323229 0.499742 0.265910
0.339833 0.499742 0.265910
0.356271 0.499742 0.265910
0.372572 0.499742 0.265910
0.388757 0.499742 0.265910
0.404841 0.499742 0.265910
0.420835 0.499742 0.265910
0.436749 0.499742 0.265910
0.452591 0.499742 0.265910
0.468367 0.499742 0.265910
0.484083 0.499742 0.265910
0.499742 0.499742 0.265910
0.523753 0.508146 0.274314
0.547690 0.516524 0.282691
0.571555 0.524877 0.291044
0.595355 0.533207 0.299374
0.619092 0.541515 0.307682
0.642770 0.549802 0.315969
0.666391 0.558069 0.324237
0.689959 0.566318 0.332486
0.713476 0.574549 0.340716
0.736943 0.582763 0.348930
0.760364 0.590960 0.357127
0.783740 0.599141 0.365309
0.807072 0.607308 0.373475
0.830363 0.615459 0.381627
0.853614 0.623597 0.389765
0.876825 0.631721 0.397889
0.900000 0.639832 0.406000
0.261314 0.523753 0.274314
0.280155 0.523753 0.274314
0.297713 0.523753 0.274314
0.314817 0.523753 0.274314
0.331633 0.523753 0.274314
0.348237 0.523753 0.274314
0.364675 0.523753 0.274314
0.380976 0.523753 0.274314
0.397161 0.523753 0.274314
0.413244 0.523753 0.274314
0.429239 0.523753 0.274314
0.445153 0.523753 0.274314
0.460995 0.523753 0.274314
0.476771 0.523753 0.274314
0.492487 0.523753 0.274314
0.508146 0.523753 0.274314
0.523753 0.523753 0.274314
0.547690 0.532131 0.282691
0.571555 0.540484 0.291044
0.595355 0.548814 0.299374
0.619092 0.557122 0.307682
0.642770 0.565409 0.315969
0.666391 0.573677 0.324237
0.689959 0.581925 0.332486
0.713476 0.590156 0.340716
0.736943 0.598370 0.348930
0.760364 0.606567 0.357127
0.783740 0.614749 0.365309
0.807072 0.622915 0.373475
0.830363 0.631067 0.381627
0.853614 0.639204 0.389765
0.876825 0.647329 0.397889
0.900000 0.655440 0.406000
0.269691 0.547690 0.282691
0.288533 0.547690 0.282691
0.306091 0.547690 0.282691
0.323195 0.547690 0.282691
0.340010 0.547690 0.282691
0.356615 0.547690 0.282691
0.373053 0.547690 0.282691
0.389354 0.547690 0.282691
0.405539 0.547690 0.282691
0.421622 0.547690 0.282691
0.437616 0.547690 0.282691
0.453531 0.547690 0.282691
0.469373 0.547690 0.282691
0.485149 0.547690 0.282691
0.500864 0.547690 0.282691
0.516524 0.547690 0.282691
0.532131 0.547690 0.282691
0.547690 0.547690 0.282691
0.571555 0.556043 0.291044
0.595355 0.564372 0.299374
0.619092 0.572680 0.307682
0.642770 0.580968 0.315969
0.666391 0.589235 0.324237
0.689959 0.597484 0.332486
0.713476 0.605715 0.340716
0.736943 0.613928 0.348930
0.760364 0.622126 0.357127
0.783740 0.630307 0.365309
0.807072 0.638473 0.373475
0.830363 0.646625 0.381627
0.853614 0.654763 0.389765
0.876825 0.662887 0.397889
0.900000 0.670998 0.406000
0.278044 0.571555 0.291044
0.296886 0.571555 0.291044
0.314444 0.571555 0.291044
0.331548 0.571555 0.291044
0.348363 0.571555 0.291044
0.364968 0.571555 0.291044
0.381406 0.571555 0.291044
0.397707 0.571555 0.291044
0.413892 0.571555 0.291044
0.429975 0.571555 0.291044
0.445969 0.571555 0.291044
0.461884 0.571555 0.291044
0.477726 0.571555 0.291044
0.493502 0.571555 0.291044
0.509217 0.571555 0.291044
0.524877 0.571555 0.291044
0.540484 0.571555 0.291044
0.556043 0.571555 0.291044
0.571555 0.571555 0.291044
0.595355 0.579885 0.299374
0.619092 0.588193 0.307682
0.642770 0.596480 0.315969
0.666391 0.604748 0.324237
0.689959 0.612997 0.332486
0.713476 0.621227 0.340716
0.736943 0.629441 0.348930
0.760364 0.637638 0.357127
0.783740 0.645820 0.365309
0.807072 0.653986 0.373475
0.830363 0.662138 0.381627
0.853614 0.670276 0.389765
0.876825 0.678400 0.397889
0.900000 0.686511 0.406000
0.286374 0.595355 0.299374
0.305216 0.595355 0.299374
0.322774 0.595355 0.299374
0.339878 0.595355 0.299374
0.356693 0.595355 0.299374
0.373298 0.595355 0.299374
0.389736 0.595355 0.299374
0.406037 0.595355 0.299374
0.422222 0.595355 0.299374
0.438305 0.595355 0.299374
0.454299 0.595355 0.299374
0.470214 0.595355 0.299374
0.486056 0.595355 0.299374
0.501832 0.595355 0.299374
0.517547 0.595355 0.299374
0.533207 0.595355 0.299374
0.548814 0.595355 0.299374
0.564372 0.595355 0.299374
0.579885 0.595355 0.299374
0.595355 0.595355 0.299374
0.619092 0.603663 0.307682
0.642770 0.611950 0.315969
0.666391 0.620218 0.324237
0.689959 0.628466 0.332486
0.713476 0.636697 0.340716
0.736943 0.644911 0.348930
0.760364 0.653108 0.357127
0.783740 0.661290 0.365309
0.807072 0.669456 0.373475
0.830363 0.677608 0.381627
0.853614 0.685745 0.389765
0.876825 0.693870 0.397889
0.900000 0.701981 0.406000
0.294682 0.619092 0.307682
0.313524 0.619092 0.307682
0.331082 0.619092 0.307682
0.348186 0.619092 0.307682
0.365001 0.619092 0.307682
0.381606 0.619092 0.307682
0.398044 0.619092 0.307682
0.414345 0.619092 0.307682
0.430529 0.619092 0.307682
0.446613 0.619092 0.307682
0.462607 0.619092 0.307682
0.478522 0.619092 0.307682
0.494364 0.619092 0.307682
0.510140 0.619092 0.307682
0.525855 0.619092 0.307682
0.541515 0.619092 0.307682
0.557122 0.619092 0.307682
0.572680 0.619092 0.307682
0.588193 0.619092 0.307682
0.603663 0.619092 0.307682
0.619092 0.619092 0.307682
0.642770 0.627379 0.315969
0.666391 0.635647 0.324237
0.689959 0.643895 0.332486
0.713476 0.652126 0.340716
0.736943 0.660340 0.348930
0.760364 0.668537 0.357127
0.783740 0.676719 0.365309
0.807072 0.684885 0.373475
0.830363 0.693037 0.381627
0.853614 0.701175 0.389765
0.876825 0.709299 0.397889
0.900000 0.717410 0.406000
0.302969 0.642770 0.315969
0.321811 0.642770 0.315969
0.339369 0.642770 0.315969
0.356473 0.642770 0.315969
0.373288 0.642770 0.315969
0.389893 0.642770 0.315969
0.406331 0.642770 0.315969
0.422632 0.642770 0.315969
0.438817 0.642770 0.315969
0.454900 0.642770 0.315969
0.470894 0.642770 0.315969
0.486809 0.642770 0.315969
0.502651 0.642770 0.315969
0.518427 0.642770 0.315969
0.534142 0.642770 0.315969
0.549802 0.642770 0.315969
0.565409 0.642770 0.315969
0.580968 0.642770 0.315969
0.596480 0.642770 0.315969
0.611950 0.642770 0.315969
0.627379 0.642770 0.315969
0.642770 0.642770 0.315969
0.666391 0.651037 0.324237
0.689959 0.659286 0.332486
0.713476 0.667517 0.340716
0.736943 0.675730 0.348930
0.760364 0.683928 0.357127
0.783740 0.692109 0.365309
0.807072 0.700276 0.373475
0.830363 0.708427 0.381627
0.853614 0.716565 0.389765
0.876825 0.724689 0.397889
0.900000 0.732800 0.406000
0.311237 0.666391 0.324237
0.330078 0.666391 0.324237
0.347636 0.666391 0.324237
0.364740 0.666391 0.324237
0.381556 0.666391 0.324237
0.398160 0.666391 0.324237
0.414598 0.666391 0.324237
0.430900 0.666391 0.324237
0.447084 0.666391 0.324237
0.463168 0.666391 0.324237
0.479162 0.666391 0.324237
0.495076 0.666391 0.324237
0.510918 0.666391 0.324237
0.526694 0.666391 0.324237
0.542410 0.666391 0.324237
0.558069 0.666391 0.324237
0.573677 0.666391 0.324237
0.589235 0.666391 0.324237
0.604748 0.666391 0.324237
0.620218 0.666391 0.324237
0.635647 0.666391 0.324237
0.651037 0.666391 0.324237
0.666391 0.666391 0.324237
0.689959 0.674640 0.332486
0.713476 0.682871 0.340716
0.736943 0.691084 0.348930
0.760364 0.699282 0.357127
0.783740 0.707463 0.365309
0.807072 0.715629 0.373475
0.830363 0.723781 0.381627
0.853614 0.731919 0.389765
0.876825 0.740043 0.397889
0.900000 0.748154 0.406000
0.319486 0.689959 0.332486
0.338327 0.689959 0.332486
0.355885 0.689959 0.332486
0.372989 0.689959 0.332486
0.389805 0.689959 0.332486
0.406409 0.689959 0.332486
0.422847 0.689959 0.332486
0.439148 0.689959 0.332486
0.455333 0.689959 0.332486
0.471416 0.689959 0.332486
0.487411 0.689959 0.332486
0.503325 0.689959 0.332486
0.519167 0.689959 0.332486
0.534943 0.689959 0.332486
0.550659 0.689959 0.332486
0.566318 0.689959 0.332486
0.581925 0.689959 0.332486
0.597484 0.689959 0.332486
0.612997 0.689959 0.332486
0.628466 0.689959 0.332486
0.643895 0.689959 0.332486
0.659286 0.689959 0.332486
0.674640 0.689959 0.332486
0.689959 0.689959 0.332486
0.713476 0.698190 0.340716
0.736943 0.706403 0.348930
0.760364 0.714601 0.357127
0.783740 0.722782 0.365309
0.807072 0.730949 0.373475
0.830363 0.739100 0.381627
0.853614 0.747238 0.389765
0.876825 0.755362 0.397889
0.900000 0.763473 0.406000
0.327716 0.713476 0.340716
0.346558 0.713476 0.340716
0.364116 0.713476 0.340716
0.381220 0.713476 0.340716
0.398035 0.713476 0.340716
0.414640 0.713476 0.340716
0.431078 0.713476 0.340716
0.447379 0.713476 0.340716
0.463564 0.713476 0.340716
0.479647 0.713476 0.340716
0.495641 0.713476 0.340716
0.511556 0.713476 0.340716
0.527398 0.713476 0.340716
0.543174 0.713476 0.340716
0.558889 0.713476 0.340716
0.574549 0.713476 0.340716
0.590156 0.713476 0.340716
0.605715 0.713476 0.340716
0.621227 0.713476 0.340716
0.636697 0.713476 0.340716
0.652126 0.713476 0.340716
0.667517 0.713476 0.340716
0.682871 0.713476 0.340716
0.698190 0.713476 0.340716
0.713476 0.713476 0.340716
0.736943 0.721689 0.348930
0.760364 0.729886 0.357127
0.783740 0.738068 0.365309
0.807072 0.746234 0.373475
0.830363 0.754386 0.381627
0.853614 0.762524 0.389765
0.876825 0.770648 0.397889
0.900000 0.778759 0.406000
0.335930 0.736943 0.348930
0.354772 0.736943 0.348930
0.372329 0.736943 0.348930
0.389433 0.736943 0.348930
0.406249 0.736943 0.348930
0.422854 0.736943 0.348930
0.439292 0.736943 0.348930
0.455593 0.736943 0.348930
0.471777 0.736943 0.348930
0.487861 0.736943 0.348930
0.503855 0.736943 0.348930
0.519769 0.736943 0.348930
0.535612 0.736943 0.348930
0.551388 0.736943 0.348930
0.567103 0.736943 0.348930
0.582763 0.736943 0.348930
0.598370 0.736943 0.348930
0.613928 0.736943 0.348930
0.629441 0.736943 0.348930
0.644911 0.736943 0.348930
0.660340 0.736943 0.348930
0.675730 0.736943 0.348930
0.691084 0.736943 0.348930
0.706403 0.736943 0.348930
0.721689 0.736943 0.348930
0.736943 0.736943 0.348930
0.760364 0.745140 0.357127
0.783740 0.753322 0.365309
0.807072 0.761488 0.373475
0.830363 0.769640 0.381627
0.853614 0.777778 0.389765
0.876825 0.785902 0.397889
0.900000 0.794013 0.406000
0.344127 0.760364 0.357127
0.362969 0.760364 0.357127
0.380527 0.760364 0.357127
0.397631 0.760364 0.357127
0.414446 0.760364 0.357127
0.431051 0.760364 0.357127
0.447489 0.760364 0.357127
0.463790 0.760364 0.357127
0.479975 0.760364 0.357127
0.496058 0.760364 0.357127
0.512052 0.760364 0.357127
0.527967 0.760364 0.357127
0.543809 0.760364 0.357127
0.559585 0.760364 0.357127
0.575300 0.760364 0.357127
0.590960 0.760364 0.357127
0.606567 0.760364 0.357127
0.622126 0.760364 0.357127
0.637638 0.760364 0.357127
0.653108 0.760364 0.357127
0.668537 0.760364 0.357127
0.683928 0.760364 0.357127
0.699282 0.760364 0.357127
0.714601 0.760364 0.357127
0.729886 0.760364 0.357127
0.745140 0.760364 0.357127
0.760364 0.760364 0.357127
