app/src/main/assets/luts/y2k.cube
TITLE "Y2K"
LUT_3D_SIZE 5
DOMAIN_MIN 0.0 0.0 0.0
DOMAIN_MAX 1.0 1.0 1.0
0.000000 0.000000 0.000000
0.256584 0.000000 0.000000
0.531265 0.000000 0.000000
0.813218 0.000000 0.000000
1.000000 0.000000 0.000000
0.000000 0.182757 0.000000
0.256584 0.182757 0.000000
0.531265 0.182757 0.000000
0.813218 0.182757 0.000000
1.000000 0.182757 0.000000
0.000000 0.405563 0.000000
0.256584 0.405563 0.000000
0.531265 0.405563 0.000000
0.813218 0.405563 0.000000
1.000000 0.405563 0.000000
0.000000 0.646492 0.000000
0.256584 0.646492 0.000000
0.531265 0.646492 0.000000
0.813218 0.646492 0.000000
1.000000 0.646492 0.000000
0.000000 0.900000 0.000000
0.256584 0.900000 0.000000
0.531265 0.900000 0.000000
0.813218 0.900000 0.000000
1.000000 0.900000 0.000000
0.000000 0.000000 0.308135
0.256584 0.000000 0.308135
0.531265 0.000000 0.308135
0.813218 0.000000 0.308135
1.000000 0.000000 0.308135
0.000000 0.182757 0.308135
0.241119 0.145143 0.308135
0.531265 0.078204 0.241196
0.813218 0.000000 0.161722
1.000000 0.000000 0.153416
0.000000 0.405563 0.308135
0.211890 0.405563 0.278907
0.531265 0.367852 0.241196
0.813218 0.283266 0.156610
1.000000 0.227232 0.100575
0.000000 0.646492 0.308135
0.139612 0.646492 0.206628
0.496697 0.646492 0.206628
0.813218 0.596474 0.156610
1.000000 0.540439 0.100575
0.000000 0.900000 0.308135
0.063559 0.900000 0.130575
0.420644 0.900000 0.130575
0.787183 0.900000 0.130575
1.000000 0.870000 0.100575
0.000000 0.000000 0.595277
0.256584 0.000000 0.595277
0.531265 0.000000 0.595277
0.813218 0.000000 0.595277
1.000000 0.000000 0.595277
0.000000 0.182757 0.595277
0.154976 0.059001 0.595277
0.512061 0.059001 0.595277
0.813218 0.000000 0.532101
1.000000 0.000000 0.504771
0.000000 0.405563 0.595277
0.154976 0.348648 0.595277
0.512061 0.348648 0.595277
0.813218 0.283266 0.529895
1.000000 0.227232 0.473861
0.000000 0.646492 0.595277
0.139612 0.646492 0.579913
0.496697 0.646492 0.579913
0.813218 0.596474 0.529895
1.000000 0.540439 0.473861
0.000000 0.900000 0.595277
0.063559 0.900000 0.503861
0.420644 0.900000 0.503861
0.787183 0.900000 0.503861
1.000000 0.870000 0.473861
0.000000 0.000000 0.874996
0.256584 0.000000 0.874996
0.531265 0.000000 0.874996
0.813218 0.000000 0.874996
1.000000 0.000000 0.874996
0.000000 0.182757 0.874996
0.093318 0.000000 0.874996
0.440517 0.000000 0.874996
0.796908 0.000000 0.874996
1.000000 0.000000 0.847042
0.000000 0.405563 0.874996
0.071061 0.264733 0.874996
0.428146 0.264733 0.874996
0.794685 0.264733 0.874996
1.000000 0.227232 0.837495
0.000000 0.646492 0.874996
0.071061 0.577940 0.874996
0.428146 0.577940 0.874996
0.794685 0.577940 0.874996
1.000000 0.540439 0.837495
0.000000 0.900000 0.874996
0.063559 0.900000 0.867495
0.420644 0.900000 0.867495
0.787183 0.900000 0.867495
1.000000 0.870000 0.837495
0.000000 0.000000 1.000000
0.256584 0.000000 1.000000
0.531265 0.000000 1.000000
0.813218 0.000000 1.000000
1.000000 0.000000 1.000000
0.000000 0.182757 1.000000
0.090337 0.000000 1.000000
0.426444 0.000000 1.000000
0.771449 0.000000 1.000000
1.000000 0.000000 1.000000
0.000000 0.405563 1.000000
0.033559 0.227232 1.000000
0.390644 0.227232 1.000000
0.757183 0.227232 1.000000
1.000000 0.227232 1.000000
0.000000 0.646492 1.000000
0.033559 0.540439 1.000000
0.390644 0.540439 1.000000
0.757183 0.540439 1.000000
1.000000 0.540439 1.000000
0.000000 0.900000 1.000000
0.033559 0.870000 1.000000
0.390644 0.870000 1.000000
0.757183 0.870000 1.000000
1.000000 0.870000 1.000000
