app/src/main/assets/luts/y2k.cube
TITLE "Y2K"
LUT_3D_SIZE 33
DOMAIN_MIN 0.0 0.0 0.0
DOMAIN_MAX 1.0 1.0 1.0
0.000000 0.000000 0.000000
0.028906 0.000000 0.000000
0.059850 0.000000 0.000000
0.091614 0.000000 0.000000
0.123922 0.000000 0.000000
0.156640 0.000000 0.000000
0.189690 0.000000 0.000000
0.223017 0.000000 0.000000
0.256584 0.000000 0.000000
0.290362 0.000000 0.000000
0.324329 0.000000 0.000000
0.358466 0.000000 0.000000
0.392758 0.000000 0.000000
0.427195 0.000000 0.000000
0.461764 0.000000 0.000000
0.496456 0.000000 0.000000
0.531265 0.000000 0.000000
0.566183 0.000000 0.000000
0.601203 0.000000 0.000000
0.636321 0.000000 0.000000
0.671532 0.000000 0.000000
0.706831 0.000000 0.000000
0.742214 0.000000 0.000000
0.777677 0.000000 0.000000
0.813218 0.000000 0.000000
0.848833 0.000000 0.000000
0.884519 0.000000 0.000000
0.920274 0.000000 0.000000
0.956095 0.000000 0.000000
0.991980 0.000000 0.000000
1.000000 0.000000 0.000000
1.000000 0.000000 0.000000
1.000000 0.000000 0.000000
0.000000 0.016723 0.000000
0.028906 0.016723 0.000000
0.059850 0.016723 0.000000
0.091614 0.016723 0.000000
0.123922 0.016723 0.000000
0.156640 0.016723 0.000000
0.189690 0.016723 0.000000
0.223017 0.016723 0.000000
0.256584 0.016723 0.000000
0.290362 0.016723 0.000000
0.324329 0.016723 0.000000
0.358466 0.016723 0.000000
0.392758 0.016723 0.000000
0.427195 0.016723 0.000000
0.461764 0.016723 0.000000
0.496456 0.016723 0.000000
0.531265 0.016723 0.000000
0.566183 0.016723 0.000000
0.601203 0.016723 0.000000
0.636321 0.016723 0.000000
0.671532 0.016723 0.000000
0.706831 0.016723 0.000000
0.742214 0.016723 0.000000
0.777677 0.016723 0.000000
0.813218 0.016723 0.000000
0.848833 0.016723 0.000000
0.884519 0.016723 0.000000
0.920274 0.016723 0.000000
0.956095 0.016723 0.000000
0.991980 0.016723 0.000000
1.000000 0.016723 0.000000
1.000000 0.016723 0.000000
1.000000 0.016723 0.000000
0.000000 0.037111 0.000000
0.028906 0.037111 0.000000
0.059850 0.037111 0.000000
0.091614 0.037111 0.000000
0.123922 0.037111 0.000000
0.156640 0.037111 0.000000
0.189690 0.037111 0.000000
0.223017 0.037111 0.000000
0.256584 0.037111 0.000000
0.290362 0.037111 0.000000
0.324329 0.037111 0.000000
0.358466 0.037111 0.000000
0.392758 0.037111 0.000000
0.427195 0.037111 0.000000
0.461764 0.037111 0.000000
0.496456 0.037111 0.000000
0.531265 0.037111 0.000000
0.566183 0.037111 0.000000
0.601203 0.037111 0.000000
0.636321 0.037111 0.000000
0.671532 0.037111 0.000000
0.706831 0.037111 0.000000
0.742214 0.037111 0.000000
0.777677 0.037111 0.000000
0.813218 0.037111 0.000000
0.848833 0.037111 0.000000
0.884519 0.037111 0.000000
0.920274 0.037111 0.000000
0.956095 0.037111 0.000000
0.991980 0.037111 0.000000
1.000000 0.037111 0.000000
1.000000 0.037111 0.000000
1.000000 0.037111 0.000000
0.000000 0.059157 0.000000
0.028906 0.059157 0.000000
0.059850 0.059157 0.000000
0.091614 0.059157 0.000000
0.123922 0.059157 0.000000
0.156640 0.059157 0.000000
0.189690 0.059157 0.000000
0.223017 0.059157 0.000000
0.256584 0.059157 0.000000
0.290362 0.059157 0.000000
0.324329 0.059157 0.000000
0.358466 0.059157 0.000000
0.392758 0.059157 0.000000
0.427195 0.059157 0.000000
0.461764 0.059157 0.000000
0.496456 0.059157 0.000000
0.531265 0.059157 0.000000
0.566183 0.059157 0.000000
0.601203 0.059157 0.000000
0.636321 0.059157 0.000000
0.671532 0.059157 0.000000
0.706831 0.059157 0.000000
0.742214 0.059157 0.000000
0.777677 0.059157 0.000000
0.813218 0.059157 0.000000
0.848833 0.059157 0.000000
0.884519 0.059157 0.000000
0.920274 0.059157 0.000000
0.956095 0.059157 0.000000
0.991980 0.059157 0.000000
1.000000 0.059157 0.000000
1.000000 0.059157 0.000000
1.000000 0.059157 0.000000
0.000000 0.082355 0.000000
0.028906 0.082355 0.000000
0.059850 0.082355 0.000000
0.091614 0.082355 0.000000
0.123922 0.082355 0.000000
0.156640 0.082355 0.000000
0.189690 0.082355 0.000000
0.223017 0.082355 0.000000
0.256584 0.082355 0.000000
0.290362 0.082355 0.000000
0.324329 0.082355 0.000000
0.358466 0.082355 0.000000
0.392758 0.082355 0.000000
0.427195 0.082355 0.000000
0.461764 0.082355 0.000000
0.496456 0.082355 0.000000
0.531265 0.082355 0.000000
0.566183 0.082355 0.000000
0.601203 0.082355 0.000000
0.636321 0.082355 0.000000
0.671532 0.082355 0.000000
0.706831 0.082355 0.000000
0.742214 0.082355 0.000000
0.777677 0.082355 0.000000
0.813218 0.082355 0.000000
0.848833 0.082355 0.000000
0.884519 0.082355 0.000000
0.920274 0.082355 0.000000
0.956095 0.082355 0.000000
0.991980 0.082355 0.000000
1.000000 0.082355 0.000000
1.000000 0.082355 0.000000
1.000000 0.082355 0.000000
0.000000 0.106448 0.000000
0.028906 0.106448 0.000000
0.059850 0.106448 0.000000
0.091614 0.106448 0.000000
0.123922 0.106448 0.000000
0.156640 0.106448 0.000000
0.189690 0.106448 0.000000
0.223017 0.106448 0.000000
0.256584 0.106448 0.000000
0.290362 0.106448 0.000000
0.324329 0.106448 0.000000
0.358466 0.106448 0.000000
0.392758 0.106448 0.000000
0.427195 0.106448 0.000000
0.461764 0.106448 0.000000
0.496456 0.106448 0.000000
0.531265 0.106448 0.000000
0.566183 0.106448 0.000000
0.601203 0.106448 0.000000
0.636321 0.106448 0.000000
0.671532 0.106448 0.000000
0.706831 0.106448 0.000000
0.742214 0.106448 0.000000
0.777677 0.106448 0.000000
0.813218 0.106448 0.000000
0.848833 0.106448 0.000000
0.884519 0.106448 0.000000
0.920274 0.106448 0.000000
0.956095 0.106448 0.000000
0.991980 0.106448 0.000000
1.000000 0.106448 0.000000
1.000000 0.106448 0.000000
1.000000 0.106448 0.000000
0.000000 0.131279 0.000000
0.028906 0.131279 0.000000
0.059850 0.131279 0.000000
0.091614 0.131279 0.000000
0.123922 0.131279 0.000000
0.156640 0.131279 0.000000
0.189690 0.131279 0.000000
0.223017 0.131279 0.000000
0.256584 0.131279 0.000000
0.290362 0.131279 0.000000
0.324329 0.131279 0.000000
0.358466 0.131279 0.000000
0.392758 0.131279 0.000000
0.427195 0.131279 0.000000
0.461764 0.131279 0.000000
0.496456 0.131279 0.000000
0.531265 0.131279 0.000000
0.566183 0.131279 0.000000
0.601203 0.131279 0.000000
0.636321 0.131279 0.000000
0.671532 0.131279 0.000000
0.706831 0.131279 0.000000
0.742214 0.131279 0.000000
0.777677 0.131279 0.000000
0.813218 0.131279 0.000000
0.848833 0.131279 0.000000
0.884519 0.131279 0.000000
0.920274 0.131279 0.000000
0.956095 0.131279 0.000000
0.991980 0.131279 0.000000
1.000000 0.131279 0.000000
1.000000 0.131279 0.000000
1.000000 0.131279 0.000000
0.000000 0.156741 0.000000
0.028906 0.156741 0.000000
0.059850 0.156741 0.000000
0.091614 0.156741 0.000000
0.123922 0.156741 0.000000
0.156640 0.156741 0.000000
0.189690 0.156741 0.000000
0.223017 0.156741 0.000000
0.256584 0.156741 0.000000
0.290362 0.156741 0.000000
0.324329 0.156741 0.000000
0.358466 0.156741 0.000000
0.392758 0.156741 0.000000
0.427195 0.156741 0.000000
0.461764 0.156741 0.000000
0.496456 0.156741 0.000000
0.531265 0.156741 0.000000
0.566183 0.156741 0.000000
0.601203 0.156741 0.000000
0.636321 0.156741 0.000000
0.671532 0.156741 0.000000
0.706831 0.156741 0.000000
0.742214 0.156741 0.000000
0.777677 0.156741 0.000000
0.813218 0.156741 0.000000
0.848833 0.156741 0.000000
0.884519 0.156741 0.000000
0.920274 0.156741 0.000000
0.956095 0.156741 0.000000
0.991980 0.156741 0.000000
1.000000 0.156741 0.000000
1.000000 0.156741 0.000000
1.000000 0.156741 0.000000
0.000000 0.182757 0.000000
0.028906 0.182757 0.000000
0.059850 0.182757 0.000000
0.091614 0.182757 0.000000
0.123922 0.182757 0.000000
0.156640 0.182757 0.000000
0.189690 0.182757 0.000000
0.223017 0.182757 0.000000
0.256584 0.182757 0.000000
0.290362 0.182757 0.000000
0.324329 0.182757 0.000000
0.358466 0.182757 0.000000
0.392758 0.182757 0.000000
0.427195 0.182757 0.000000
0.461764 0.182757 0.000000
0.496456 0.182757 0.000000
0.531265 0.182757 0.000000
0.566183 0.182757 0.000000
0.601203 0.182757 0.000000
0.636321 0.182757 0.000000
0.671532 0.182757 0.000000
0.706831 0.182757 0.000000
0.742214 0.182757 0.000000
0.777677 0.182757 0.000000
0.813218 0.182757 0.000000
0.848833 0.182757 0.000000
0.884519 0.182757 0.000000
0.920274 0.182757 0.000000
0.956095 0.182757 0.000000
0.991980 0.182757 0.000000
1.000000 0.182757 0.000000
1.000000 0.182757 0.000000
1.000000 0.182757 0.000000
0.000000 0.209266 0.000000
0.028906 0.209266 0.000000
0.059850 0.209266 0.000000
0.091614 0.209266 0.000000
0.123922 0.209266 0.000000
0.156640 0.209266 0.000000
0.189690 0.209266 0.000000
0.223017 0.209266 0.000000
0.256584 0.209266 0.000000
0.290362 0.209266 0.000000
0.324329 0.209266 0.000000
0.358466 0.209266 0.000000
0.392758 0.209266 0.000000
0.427195 0.209266 0.000000
0.461764 0.209266 0.000000
0.496456 0.209266 0.000000
0.531265 0.209266 0.000000
0.566183 0.209266 0.000000
0.601203 0.209266 0.000000
0.636321 0.209266 0.000000
0.671532 0.209266 0.000000
0.706831 0.209266 0.000000
0.742214 0.209266 0.000000
0.777677 0.209266 0.000000
0.813218 0.209266 0.000000
0.848833 0.209266 0.000000
0.884519 0.209266 0.000000
0.920274 0.209266 0.000000
0.956095 0.209266 0.000000
0.991980 0.209266 0.000000
1.000000 0.209266 0.000000
1.000000 0.209266 0.000000
1.000000 0.209266 0.000000
0.000000 0.236222 0.000000
0.028906 0.236222 0.000000
0.059850 0.236222 0.000000
0.091614 0.236222 0.000000
0.123922 0.236222 0.000000
0.156640 0.236222 0.000000
0.189690 0.236222 0.000000
0.223017 0.236222 0.000000
0.256584 0.236222 0.000000
0.290362 0.236222 0.000000
0.324329 0.236222 0.000000
0.358466 0.236222 0.000000
0.392758 0.236222 0.000000
0.427195 0.236222 0.000000
0.461764 0.236222 0.000000
0.496456 0.236222 0.000000
0.531265 0.236222 0.000000
0.566183 0.236222 0.000000
0.601203 0.236222 0.000000
0.636321 0.236222 0.000000
0.671532 0.236222 0.000000
0.706831 0.236222 0.000000
0.742214 0.236222 0.000000
0.777677 0.236222 0.000000
0.813218 0.236222 0.000000
0.848833 0.236222 0.000000
0.884519 0.236222 0.000000
0.920274 0.236222 0.000000
0.956095 0.236222 0.000000
0.991980 0.236222 0.000000
1.000000 0.236222 0.000000
1.000000 0.236222 0.000000
1.000000 0.236222 0.000000
0.000000 0.263586 0.000000
0.028906 0.263586 0.000000
0.059850 0.263586 0.000000
0.091614 0.263586 0.000000
0.123922 0.263586 0.000000
0.156640 0.263586 0.000000
0.189690 0.263586 0.000000
0.223017 0.263586 0.000000
0.256584 0.263586 0.000000
0.290362 0.263586 0.000000
0.324329 0.263586 0.000000
0.358466 0.263586 0.000000
0.392758 0.263586 0.000000
0.427195 0.263586 0.000000
0.461764 0.263586 0.000000
0.496456 0.263586 0.000000
0.531265 0.263586 0.000000
0.566183 0.263586 0.000000
0.601203 0.263586 0.000000
0.636321 0.263586 0.000000
0.671532 0.263586 0.000000
0.706831 0.263586 0.000000
0.742214 0.263586 0.000000
0.777677 0.263586 0.000000
0.813218 0.263586 0.000000
0.848833 0.263586 0.000000
0.884519 0.263586 0.000000
0.920274 0.263586 0.000000
0.956095 0.263586 0.000000
0.991980 0.263586 0.000000
1.000000 0.263586 0.000000
1.000000 0.263586 0.000000
1.000000 0.263586 0.000000
0.000000 0.291325 0.000000
0.028906 0.291325 0.000000
0.059850 0.291325 0.000000
0.091614 0.291325 0.000000
0.123922 0.291325 0.000000
0.156640 0.291325 0.000000
0.189690 0.291325 0.000000
0.223017 0.291325 0.000000
0.256584 0.291325 0.000000
0.290362 0.291325 0.000000
0.324329 0.291325 0.000000
0.358466 0.291325 0.000000
0.392758 0.291325 0.000000
0.427195 0.291325 0.000000
0.461764 0.291325 0.000000
0.496456 0.291325 0.000000
0.531265 0.291325 0.000000
0.566183 0.291325 0.000000
0.601203 0.291325 0.000000
0.636321 0.291325 0.000000
0.671532 0.291325 0.000000
0.706831 0.291325 0.000000
0.742214 0.291325 0.000000
0.777677 0.291325 0.000000
0.813218 0.291325 0.000000
0.848833 0.291325 0.000000
0.884519 0.291325 0.000000
0.920274 0.291325 0.000000
0.956095 0.291325 0.000000
0.991980 0.291325 0.000000
1.000000 0.291325 0.000000
1.000000 0.291325 0.000000
1.000000 0.291325 0.000000
0.000000 0.319415 0.000000
0.028906 0.319415 0.000000
0.059850 0.319415 0.000000
0.091614 0.319415 0.000000
0.123922 0.319415 0.000000
0.156640 0.319415 0.000000
0.189690 0.319415 0.000000
0.223017 0.319415 0.000000
0.256584 0.319415 0.000000
0.290362 0.319415 0.000000
0.324329 0.319415 0.000000
0.358466 0.319415 0.000000
0.392758 0.319415 0.000000
0.427195 0.319415 0.000000
0.461764 0.319415 0.000000
0.496456 0.319415 0.000000
0.531265 0.319415 0.000000
0.566183 0.319415 0.000000
0.601203 0.319415 0.000000
0.636321 0.319415 0.000000
0.671532 0.319415 0.000000
0.706831 0.319415 0.000000
0.742214 0.319415 0.000000
0.777677 0.319415 0.000000
0.813218 0.319415 0.000000
0.848833 0.319415 0.000000
0.884519 0.319415 0.000000
0.920274 0.319415 0.000000
0.956095 0.319415 0.000000
0.991980 0.319415 0.000000
1.000000 0.319415 0.000000
1.000000 0.319415 0.000000
1.000000 0.319415 0.000000
0.000000 0.347830 0.000000
0.028906 0.347830 0.000000
0.059850 0.347830 0.000000
0.091614 0.347830 0.000000
0.123922 0.347830 0.000000
0.156640 0.347830 0.000000
0.189690 0.347830 0.000000
0.223017 0.347830 0.000000
0.256584 0.347830 0.000000
0.290362 0.347830 0.000000
0.324329 0.347830 0.000000
0.358466 0.347830 0.000000
0.392758 0.347830 0.000000
0.427195 0.347830 0.000000
0.461764 0.347830 0.000000
0.496456 0.347830 0.000000
0.531265 0.347830 0.000000
0.566183 0.347830 0.000000
0.601203 0.347830 0.000000
0.636321 0.347830 0.000000
0.671532 0.347830 0.000000
0.706831 0.347830 0.000000
0.742214 0.347830 0.000000
0.777677 0.347830 0.000000
0.813218 0.347830 0.000000
0.848833 0.347830 0.000000
0.884519 0.347830 0.000000
0.920274 0.347830 0.000000
0.956095 0.347830 0.000000
0.991980 0.347830 0.000000
1.000000 0.347830 0.000000
1.000000 0.347830 0.000000
1.000000 0.347830 0.000000
0.000000 0.376552 0.000000
0.028906 0.376552 0.000000
0.059850 0.376552 0.000000
0.091614 0.376552 0.000000
0.123922 0.376552 0.000000
0.156640 0.376552 0.000000
0.189690 0.376552 0.000000
0.223017 0.376552 0.000000
0.256584 0.376552 0.000000
0.290362 0.376552 0.000000
0.324329 0.376552 0.000000
0.358466 0.376552 0.000000
0.392758 0.376552 0.000000
0.427195 0.376552 0.000000
0.461764 0.376552 0.000000
0.496456 0.376552 0.000000
0.531265 0.376552 0.000000
0.566183 0.376552 0.000000
0.601203 0.376552 0.000000
0.636321 0.376552 0.000000
0.671532 0.376552 0.000000
0.706831 0.376552 0.000000
0.742214 0.376552 0.000000
0.777677 0.376552 0.000000
0.813218 0.376552 0.000000
0.848833 0.376552 0.000000
0.884519 0.376552 0.000000
0.920274 0.376552 0.000000
0.956095 0.376552 0.000000
0.991980 0.376552 0.000000
1.000000 0.376552 0.000000
1.000000 0.376552 0.000000
1.000000 0.376552 0.000000
0.000000 0.405563 0.000000
0.028906 0.405563 0.000000
0.059850 0.405563 0.000000
0.091614 0.405563 0.000000
0.123922 0.405563 0.000000
0.156640 0.405563 0.000000
0.189690 0.405563 0.000000
0.223017 0.405563 0.000000
0.256584 0.405563 0.000000
0.290362 0.405563 0.000000
0.324329 0.405563 0.000000
0.358466 0.405563 0.000000
0.392758 0.405563 0.000000
0.427195 0.405563 0.000000
0.461764 0.405563 0.000000
0.496456 0.405563 0.000000
0.531265 0.405563 0.000000
0.566183 0.405563 0.000000
0.601203 0.405563 0.000000
0.636321 0.405563 0.000000
0.671532 0.405563 0.000000
0.706831 0.405563 0.000000
0.742214 0.405563 0.000000
0.777677 0.405563 0.000000
0.813218 0.405563 0.000000
0.848833 0.405563 0.000000
0.884519 0.405563 0.000000
0.920274 0.405563 0.000000
0.956095 0.405563 0.000000
0.991980 0.405563 0.000000
1.000000 0.405563 0.000000
1.000000 0.405563 0.000000
1.000000 0.405563 0.000000
0.000000 0.434847 0.000000
0.028906 0.434847 0.000000
0.059850 0.434847 0.000000
0.091614 0.434847 0.000000
0.123922 0.434847 0.000000
0.156640 0.434847 0.000000
0.189690 0.434847 0.000000
0.223017 0.434847 0.000000
0.256584 0.434847 0.000000
0.290362 0.434847 0.000000
0.324329 0.434847 0.000000
0.358466 0.434847 0.000000
0.392758 0.434847 0.000000
0.427195 0.434847 0.000000
0.461764 0.434847 0.000000
0.496456 0.434847 0.000000
0.531265 0.434847 0.000000
0.566183 0.434847 0.000000
0.601203 0.434847 0.000000
0.636321 0.434847 0.000000
0.671532 0.434847 0.000000
0.706831 0.434847 0.000000
0.742214 0.434847 0.000000
0.777677 0.434847 0.000000
0.813218 0.434847 0.000000
0.848833 0.434847 0.000000
0.884519 0.434847 0.000000
0.920274 0.434847 0.000000
0.956095 0.434847 0.000000
0.991980 0.434847 0.000000
1.000000 0.434847 0.000000
1.000000 0.434847 0.000000
1.000000 0.434847 0.000000
0.000000 0.464391 0.000000
0.028906 0.464391 0.000000
0.059850 0.464391 0.000000
0.091614 0.464391 0.000000
0.123922 0.464391 0.000000
0.156640 0.464391 0.000000
0.189690 0.464391 0.000000
0.223017 0.464391 0.000000
0.256584 0.464391 0.000000
0.290362 0.464391 0.000000
0.324329 0.464391 0.000000
0.358466 0.464391 0.000000
0.392758 0.464391 0.000000
0.427195 0.464391 0.000000
0.461764 0.464391 0.000000
0.496456 0.464391 0.000000
0.531265 0.464391 0.000000
0.566183 0.464391 0.000000
0.601203 0.464391 0.000000
0.636321 0.464391 0.000000
0.671532 0.464391 0.000000
0.706831 0.464391 0.000000
0.742214 0.464391 0.000000
0.777677 0.464391 0.000000
0.813218 0.464391 0.000000
0.848833 0.464391 0.000000
0.884519 0.464391 0.000000
0.920274 0.464391 0.000000
0.956095 0.464391 0.000000
0.991980 0.464391 0.000000
1.000000 0.464391 0.000000
1.000000 0.464391 0.000000
1.000000 0.464391 0.000000
0.000000 0.494182 0.000000
0.028906 0.494182 0.000000
0.059850 0.494182 0.000000
0.091614 0.494182 0.000000
0.123922 0.494182 0.000000
0.156640 0.494182 0.000000
0.189690 0.494182 0.000000
0.223017 0.494182 0.000000
0.256584 0.494182 0.000000
0.290362 0.494182 0.000000
0.324329 0.494182 0.000000
0.358466 0.494182 0.000000
0.392758 0.494182 0.000000
0.427195 0.494182 0.000000
0.461764 0.494182 0.000000
0.496456 0.494182 0.000000
0.531265 0.494182 0.000000
0.566183 0.494182 0.000000
0.601203 0.494182 0.000000
0.636321 0.494182 0.000000
0.671532 0.494182 0.000000
0.706831 0.494182 0.000000
0.742214 0.494182 0.000000
0.777677 0.494182 0.000000
0.813218 0.494182 0.000000
0.848833 0.494182 0.000000
0.884519 0.494182 0.000000
0.920274 0.494182 0.000000
0.956095 0.494182 0.000000
0.991980 0.494182 0.000000
1.000000 0.494182 0.000000
1.000000 0.494182 0.000000
1.000000 0.494182 0.000000
0.000000 0.524209 0.000000
0.028906 0.524209 0.000000
0.059850 0.524209 0.000000
0.091614 0.524209 0.000000
0.123922 0.524209 0.000000
0.156640 0.524209 0.000000
0.189690 0.524209 0.000000
0.223017 0.524209 0.000000
0.256584 0.524209 0.000000
0.290362 0.524209 0.000000
0.324329 0.524209 0.000000
0.358466 0.524209 0.000000
0.392758 0.524209 0.000000
0.427195 0.524209 0.000000
0.461764 0.524209 0.000000
0.496456 0.524209 0.000000
0.531265 0.524209 0.000000
0.566183 0.524209 0.000000
0.601203 0.524209 0.000000
0.636321 0.524209 0.000000
0.671532 0.524209 0.000000
0.706831 0.524209 0.000000
0.742214 0.524209 0.000000
0.777677 0.524209 0.000000
0.813218 0.524209 0.000000
0.848833 0.524209 0.000000
0.884519 0.524209 0.000000
0.920274 0.524209 0.000000
0.956095 0.524209 0.000000
0.991980 0.524209 0.000000
1.000000 0.524209 0.000000
1.000000 0.524209 0.000000
1.000000 0.524209 0.000000
0.000000 0.554463 0.000000
0.028906 0.554463 0.000000
0.059850 0.554463 0.000000
0.091614 0.554463 0.000000
0.123922 0.554463 0.000000
0.156640 0.554463 0.000000
0.189690 0.554463 0.000000
0.223017 0.554463 0.000000
0.256584 0.554463 0.000000
0.290362 0.554463 0.000000
0.324329 0.554463 0.000000
0.358466 0.554463 0.000000
0.392758 0.554463 0.000000
0.427195 0.554463 0.000000
0.461764 0.554463 0.000000
0.496456 0.554463 0.000000
0.531265 0.554463 0.000000
0.566183 0.554463 0.000000
0.601203 0.554463 0.000000
0.636321 0.554463 0.000000
0.671532 0.554463 0.000000
0.706831 0.554463 0.000000
0.742214 0.554463 0.000000
0.777677 0.554463 0.000000
0.813218 0.554463 0.000000
0.848833 0.554463 0.000000
0.884519 0.554463 0.000000
0.920274 0.554463 0.000000
0.956095 0.554463 0.000000
0.991980 0.554463 0.000000
1.000000 0.554463 0.000000
1.000000 0.554463 0.000000
1.000000 0.554463 0.000000
0.000000 0.584933 0.000000
0.028906 0.584933 0.000000
0.059850 0.584933 0.000000
0.091614 0.584933 0.000000
0.123922 0.584933 0.000000
0.156640 0.584933 0.000000
0.189690 0.584933 0.000000
0.223017 0.584933 0.000000
0.256584 0.584933 0.000000
0.290362 0.584933 0.000000
0.324329 0.584933 0.000000
0.358466 0.584933 0.000000
0.392758 0.584933 0.000000
0.427195 0.584933 0.000000
0.461764 0.584933 0.000000
0.496456 0.584933 0.000000
0.531265 0.584933 0.000000
0.566183 0.584933 0.000000
0.601203 0.584933 0.000000
0.636321 0.584933 0.000000
0.671532 0.584933 0.000000
0.706831 0.584933 0.000000
0.742214 0.584933 0.000000
0.777677 0.584933 0.000000
0.813218 0.584933 0.000000
0.848833 0.584933 0.000000
0.884519 0.584933 0.000000
0.920274 0.584933 0.000000
0.956095 0.584933 0.000000
0.991980 0.584933 0.000000
1.000000 0.584933 0.000000
1.000000 0.584933 0.000000
1.000000 0.584933 0.000000
0.000000 0.615612 0.000000
0.028906 0.615612 0.000000
0.059850 0.615612 0.000000
0.091614 0.615612 0.000000
0.123922 0.615612 0.000000
0.156640 0.615612 0.000000
0.189690 0.615612 0.000000
0.223017 0.615612 0.000000
0.256584 0.615612 0.000000
0.290362 0.615612 0.000000
0.324329 0.615612 0.000000
0.358466 0.615612 0.000000
0.392758 0.615612 0.000000
0.427195 0.615612 0.000000
0.461764 0.615612 0.000000
0.496456 0.615612 0.000000
0.531265 0.615612 0.000000
0.566183 0.615612 0.000000
0.601203 0.615612 0.000000
0.636321 0.615612 0.000000
0.671532 0.615612 0.000000
0.706831 0.615612 0.000000
0.742214 0.615612 0.000000
0.777677 0.615612 0.000000
0.813218 0.615612 0.000000
0.848833 0.615612 0.000000
0.884519 0.615612 0.000000
0.920274 0.615612 0.000000
0.956095 0.615612 0.000000
0.991980 0.615612 0.000000
1.000000 0.615612 0.000000
1.000000 0.615612 0.000000
1.000000 0.615612 0.000000
0.000000 0.646492 0.000000
0.028906 0.646492 0.000000
0.059850 0.646492 0.000000
0.091614 0.646492 0.000000
0.123922 0.646492 0.000000
0.156640 0.646492 0.000000
0.189690 0.646492 0.000000
0.223017 0.646492 0.000000
0.256584 0.646492 0.000000
0.290362 0.646492 0.000000
0.324329 0.646492 0.000000
0.358466 0.646492 0.000000
0.392758 0.646492 0.000000
0.427195 0.646492 0.000000
0.461764 0.646492 0.000000
0.496456 0.646492 0.000000
0.531265 0.646492 0.000000
0.566183 0.646492 0.000000
0.601203 0.646492 0.000000
0.636321 0.646492 0.000000
0.671532 0.646492 0.000000
0.706831 0.646492 0.000000
0.742214 0.646492 0.000000
0.777677 0.646492 0.000000
0.813218 0.646492 0.000000
0.848833 0.646492 0.000000
0.884519 0.646492 0.000000
0.920274 0.646492 0.000000
0.956095 0.646492 0.000000
0.991980 0.646492 0.000000
1.000000 0.646492 0.000000
1.000000 0.646492 0.000000
1.000000 0.646492 0.000000
0.000000 0.677565 0.000000
0.028906 0.677565 0.000000
0.059850 0.677565 0.000000
0.091614 0.677565 0.000000
0.123922 0.677565 0.000000
0.156640 0.677565 0.000000
0.189690 0.677565 0.000000
0.223017 0.677565 0.000000
0.256584 0.677565 0.000000
0.290362 0.677565 0.000000
0.324329 0.677565 0.000000
0.358466 0.677565 0.000000
0.392758 0.677565 0.000000
0.427195 0.677565 0.000000
0.461764 0.677565 0.000000
0.496456 0.677565 0.000000
0.531265 0.677565 0.000000
0.566183 0.677565 0.000000
0.601203 0.677565 0.000000
0.636321 0.677565 0.000000
0.671532 0.677565 0.000000
0.706831 0.677565 0.000000
0.742214 0.677565 0.000000
0.777677 0.677565 0.000000
0.813218 0.677565 0.000000
0.848833 0.677565 0.000000
0.884519 0.677565 0.000000
0.920274 0.677565 0.000000
0.956095 0.677565 0.000000
0.991980 0.677565 0.000000
1.000000 0.677565 0.000000
1.000000 0.677565 0.000000
1.000000 0.677565 0.000000
0.000000 0.708826 0.000000
0.028906 0.708826 0.000000
0.059850 0.708826 0.000000
0.091614 0.708826 0.000000
0.123922 0.708826 0.000000
0.156640 0.708826 0.000000
0.189690 0.708826 0.000000
0.223017 0.708826 0.000000
0.256584 0.708826 0.000000
0.290362 0.708826 0.000000
0.324329 0.708826 0.000000
0.358466 0.708826 0.000000
0.392758 0.708826 0.000000
0.427195 0.708826 0.000000
0.461764 0.708826 0.000000
0.496456 0.708826 0.000000
0.531265 0.708826 0.000000
0.566183 0.708826 0.000000
0.601203 0.708826 0.000000
0.636321 0.708826 0.000000
0.671532 0.708826 0.000000
0.706831 0.708826 0.000000
0.742214 0.708826 0.000000
0.777677 0.708826 0.000000
0.813218 0.708826 0.000000
0.848833 0.708826 0.000000
0.884519 0.708826 0.000000
0.920274 0.708826 0.000000
