app/src/main/assets/luts/y2k.cube
TITLE "Y2K"
LUT_3D_SIZE 9
DOMAIN_MIN 0.0 0.0 0.0
DOMAIN_MAX 1.0 1.0 1.0
0.000000 0.000000 0.000000
0.123922 0.000000 0.000000
0.256584 0.000000 0.000000
0.392758 0.000000 0.000000
0.531265 0.000000 0.000000
0.671532 0.000000 0.000000
0.813218 0.000000 0.000000
0.956095 0.000000 0.000000
1.000000 0.000000 0.000000
0.000000 0.082355 0.000000
0.123922 0.082355 0.000000
0.256584 0.082355 0.000000
0.392758 0.082355 0.000000
0.531265 0.082355 0.000000
0.671532 0.082355 0.000000
0.813218 0.082355 0.000000
0.956095 0.082355 0.000000
1.000000 0.082355 0.000000
0.000000 0.182757 0.000000
0.123922 0.182757 0.000000
0.256584 0.182757 0.000000
0.392758 0.182757 0.000000
0.531265 0.182757 0.000000
0.671532 0.182757 0.000000
0.813218 0.182757 0.000000
0.956095 0.182757 0.000000
1.000000 0.182757 0.000000
0.000000 0.291325 0.000000
0.123922 0.291325 0.000000
0.256584 0.291325 0.000000
0.392758 0.291325 0.000000
0.531265 0.291325 0.000000
0.671532 0.291325 0.000000
0.813218 0.291325 0.000000
0.956095 0.291325 0.000000
1.000000 0.291325 0.000000
0.000000 0.405563 0.000000
0.123922 0.405563 0.000000
0.256584 0.405563 0.000000
0.392758 0.405563 0.000000
0.531265 0.405563 0.000000
0.671532 0.405563 0.000000
0.813218 0.405563 0.000000
0.956095 0.405563 0.000000
1.000000 0.405563 0.000000
0.000000 0.524209 0.000000
0.123922 0.524209 0.000000
0.256584 0.524209 0.000000
0.392758 0.524209 0.000000
0.531265 0.524209 0.000000
0.671532 0.524209 0.000000
0.813218 0.524209 0.000000
0.956095 0.524209 0.000000
1.000000 0.524209 0.000000
0.000000 0.646492 0.000000
0.123922 0.646492 0.000000
0.256584 0.646492 0.000000
0.392758 0.646492 0.000000
0.531265 0.646492 0.000000
0.671532 0.646492 0.000000
0.813218 0.646492 0.000000
0.956095 0.646492 0.000000
1.000000 0.646492 0.000000
0.000000 0.771884 0.000000
0.123922 0.771884 0.000000
0.256584 0.771884 0.000000
0.392758 0.771884 0.000000
0.531265 0.771884 0.000000
0.671532 0.771884 0.000000
0.813218 0.771884 0.000000
0.956095 0.771884 0.000000
1.000000 0.771884 0.000000
0.000000 0.900000 0.000000
0.123922 0.900000 0.000000
0.256584 0.900000 0.000000
0.392758 0.900000 0.000000
0.531265 0.900000 0.000000
0.671532 0.900000 0.000000
0.813218 0.900000 0.000000
0.956095 0.900000 0.000000
1.000000 0.900000 0.000000
0.000000 0.000000 0.159501
0.123922 0.000000 0.159501
0.256584 0.000000 0.159501
0.392758 0.000000 0.159501
0.531265 0.000000 0.159501
0.671532 0.000000 0.159501
0.813218 0.000000 0.159501
0.956095 0.000000 0.159501
1.000000 0.000000 0.159501
0.000000 0.082355 0.159501
0.113248 0.059211 0.159501
0.256584 0.030086 0.130376
0.392758 0.000000 0.097614
0.531265 0.000000 0.091299
0.671532 0.000000 0.087929
0.813218 0.000000 0.085839
0.956095 0.000000 0.084417
1.000000 0.000000 0.084069
0.000000 0.182757 0.159501
0.106271 0.182757 0.152524
0.256584 0.160609 0.130376
0.392758 0.119756 0.089523
0.531265 0.078204 0.047971
0.671532 0.036124 0.005891
0.813218 0.028930 0.000000
0.956095 0.027913 0.000000
1.000000 0.027669 0.000000
0.000000 0.291325 0.159501
0.073701 0.291325 0.119953
0.246162 0.291325 0.119953
0.392758 0.260896 0.089523
0.531265 0.219344 0.047971
0.671532 0.177264 0.005891
0.813218 0.163989 0.000000
0.956095 0.158220 0.000000
1.000000 0.156841 0.000000
0.000000 0.405563 0.159501
0.039430 0.405563 0.085682
0.211890 0.405563 0.085682
0.388917 0.405563 0.085682
0.531265 0.367852 0.047971
0.671532 0.325772 0.005891
0.813218 0.306099 0.000000
0.956095 0.295331 0.000000
1.000000 0.292757 0.000000
0.000000 0.524209 0.159501
0.003836 0.524209 0.050088
0.176297 0.524209 0.050088
0.353323 0.524209 0.050088
0.531265 0.522092 0.047971
0.671532 0.480012 0.005891
0.813218 0.453694 0.000000
0.956095 0.437733 0.000000
1.000000 0.433919 0.000000
0.000000 0.646492 0.159501
0.000000 0.646492 0.044016
0.139612 0.646492 0.013403
0.316638 0.646492 0.013403
0.496697 0.646492 0.013403
0.671532 0.638980 0.005891
0.813218 0.605812 0.000000
0.956095 0.584500 0.000000
1.000000 0.579407 0.000000
0.000000 0.771884 0.159501
0.000000 0.771884 0.042383
0.122370 0.771884 0.000000
0.294012 0.771884 0.000000
0.468594 0.771884 0.000000
0.645395 0.771884 0.000000
0.813218 0.761798 0.000000
0.956095 0.734999 0.000000
1.000000 0.728594 0.000000
0.000000 0.900000 0.159501
0.000000 0.900000 0.041260
0.117995 0.900000 0.000000
0.283501 0.900000 0.000000
0.451841 0.900000 0.000000
0.622321 0.900000 0.000000
0.794526 0.900000 0.000000
0.956095 0.888768 0.000000
1.000000 0.881023 0.000000
0.000000 0.000000 0.308135
0.123922 0.000000 0.308135
0.256584 0.000000 0.308135
0.392758 0.000000 0.308135
0.531265 0.000000 0.308135
0.671532 0.000000 0.308135
0.813218 0.000000 0.308135
0.956095 0.000000 0.308135
1.000000 0.000000 0.308135
0.000000 0.082355 0.308135
0.068658 0.014621 0.308135
0.241119 0.014621 0.308135
0.392758 0.000000 0.285683
0.531265 0.000000 0.267201
0.671532 0.000000 0.257339
0.813218 0.000000 0.251221
0.956095 0.000000 0.247061
1.000000 0.000000 0.246043
0.000000 0.182757 0.308135
0.068658 0.145143 0.308135
0.241119 0.145143 0.308135
0.392758 0.119756 0.282748
0.531265 0.078204 0.241196
0.671532 0.036124 0.199116
0.813218 0.000000 0.161722
0.956095 0.000000 0.155008
1.000000 0.000000 0.153416
0.000000 0.291325 0.308135
0.068658 0.286283 0.308135
0.241119 0.286283 0.308135
0.392758 0.260896 0.282748
0.531265 0.219344 0.241196
0.671532 0.177264 0.199116
0.813218 0.134758 0.156610
0.956095 0.091895 0.113747
1.000000 0.078723 0.100575
0.000000 0.405563 0.308135
0.039430 0.405563 0.278907
0.211890 0.405563 0.278907
0.388917 0.405563 0.278907
0.531265 0.367852 0.241196
0.671532 0.325772 0.199116
0.813218 0.283266 0.156610
0.956095 0.240403 0.113747
1.000000 0.227232 0.100575
0.000000 0.524209 0.308135
0.003836 0.524209 0.243313
0.176297 0.524209 0.243313
0.353323 0.524209 0.243313
0.531265 0.522092 0.241196
0.671532 0.480012 0.199116
0.813218 0.437506 0.156610
0.956095 0.394643 0.113747
1.000000 0.381472 0.100575
0.000000 0.646492 0.308135
0.000000 0.646492 0.227897
0.139612 0.646492 0.206628
0.316638 0.646492 0.206628
0.496697 0.646492 0.206628
0.671532 0.638980 0.199116
0.813218 0.596474 0.156610
0.956095 0.553611 0.113747
1.000000 0.540439 0.100575
0.000000 0.771884 0.308135
0.000000 0.771884 0.219443
0.101994 0.771884 0.169010
0.279021 0.771884 0.169010
0.459079 0.771884 0.169010
0.641427 0.771884 0.169010
0.813218 0.759483 0.156610
0.956095 0.716620 0.113747
1.000000 0.703449 0.100575
0.000000 0.900000 0.308135
0.000000 0.900000 0.213628
0.063559 0.900000 0.130575
0.240586 0.900000 0.130575
0.420644 0.900000 0.130575
0.602992 0.900000 0.130575
0.787183 0.900000 0.130575
0.956095 0.883171 0.113747
1.000000 0.870000 0.100575
0.000000 0.000000 0.452926
0.123922 0.000000 0.452926
0.256584 0.000000 0.452926
0.392758 0.000000 0.452926
0.531265 0.000000 0.452926
0.671532 0.000000 0.452926
0.813218 0.000000 0.452926
0.956095 0.000000 0.452926
1.000000 0.000000 0.452926
0.000000 0.082355 0.452926
0.050805 0.000000 0.452926
0.212949 0.000000 0.452926
0.379387 0.000000 0.452926
0.531265 0.000000 0.438555
0.671532 0.000000 0.422370
0.813218 0.000000 0.412328
0.956095 0.000000 0.405500
1.000000 0.000000 0.403829
0.000000 0.182757 0.452926
0.025221 0.101706 0.452926
0.197681 0.101706 0.452926
0.374708 0.101706 0.452926
0.531265 0.078204 0.429425
0.671532 0.036124 0.387345
0.813218 0.000000 0.348486
0.956095 0.000000 0.334016
1.000000 0.000000 0.330586
0.000000 0.291325 0.452926
0.025221 0.242845 0.452926
0.197681 0.242845 0.452926
0.374708 0.242845 0.452926
0.531265 0.219344 0.429425
0.671532 0.177264 0.387345
0.813218 0.134758 0.344839
0.956095 0.091895 0.301976
1.000000 0.078723 0.288804
0.000000 0.405563 0.452926
0.025221 0.391354 0.452926
0.197681 0.391354 0.452926
0.374708 0.391354 0.452926
0.531265 0.367852 0.429425
0.671532 0.325772 0.387345
0.813218 0.283266 0.344839
0.956095 0.240403 0.301976
1.000000 0.227232 0.288804
0.000000 0.524209 0.452926
0.003836 0.524209 0.431541
0.176297 0.524209 0.431541
0.353323 0.524209 0.431541
0.531265 0.522092 0.429425
0.671532 0.480012 0.387345
0.813218 0.437506 0.344839
0.956095 0.394643 0.301976
1.000000 0.381472 0.288804
0.000000 0.646492 0.452926
0.000000 0.646492 0.407024
0.139612 0.646492 0.394857
0.316638 0.646492 0.394857
0.496697 0.646492 0.394857
0.671532 0.638980 0.387345
0.813218 0.596474 0.344839
0.956095 0.553611 0.301976
1.000000 0.540439 0.288804
0.000000 0.771884 0.452926
0.000000 0.771884 0.391926
0.101994 0.771884 0.357239
0.279021 0.771884 0.357239
0.459079 0.771884 0.357239
0.641427 0.771884 0.357239
0.813218 0.759483 0.344839
0.956095 0.716620 0.301976
1.000000 0.703449 0.288804
0.000000 0.900000 0.452926
0.000000 0.900000 0.381539
0.063559 0.900000 0.318804
0.240586 0.900000 0.318804
0.420644 0.900000 0.318804
0.602992 0.900000 0.318804
0.787183 0.900000 0.318804
0.956095 0.883171 0.301976
1.000000 0.870000 0.288804
0.000000 0.000000 0.595277
0.123922 0.000000 0.595277
0.256584 0.000000 0.595277
0.392758 0.000000 0.595277
0.531265 0.000000 0.595277
0.671532 0.000000 0.595277
0.813218 0.000000 0.595277
0.956095 0.000000 0.595277
1.000000 0.000000 0.595277
0.000000 0.082355 0.595277
0.048241 0.000000 0.595277
0.202203 0.000000 0.595277
0.360242 0.000000 0.595277
0.520987 0.000000 0.595277
0.671532 0.000000 0.584619
0.813218 0.000000 0.570719
0.956095 0.000000 0.561268
1.000000 0.000000 0.558955
0.000000 0.182757 0.595277
0.000000 0.074303 0.595277
0.154976 0.059001 0.595277
0.332003 0.059001 0.595277
0.512061 0.059001 0.595277
0.671532 0.036124 0.572401
0.813218 0.000000 0.532101
0.956095 0.000000 0.510008
1.000000 0.000000 0.504771
0.000000 0.291325 0.595277
0.000000 0.211415 0.595277
0.154976 0.200140 0.595277
0.332003 0.200140 0.595277
0.512061 0.200140 0.595277
0.671532 0.177264 0.572401
0.813218 0.134758 0.529895
0.956095 0.091895 0.487032
1.000000 0.078723 0.473861
0.000000 0.405563 0.595277
0.000000 0.355686 0.595277
0.154976 0.348648 0.595277
0.332003 0.348648 0.595277
0.512061 0.348648 0.595277
0.671532 0.325772 0.572401
0.813218 0.283266 0.529895
0.956095 0.240403 0.487032
1.000000 0.227232 0.473861
0.000000 0.524209 0.595277
0.000000 0.505525 0.595277
0.154976 0.502889 0.595277
0.332003 0.502889 0.595277
0.512061 0.502889 0.595277
0.671532 0.480012 0.572401
0.813218 0.437506 0.529895
0.956095 0.394643 0.487032
1.000000 0.381472 0.473861
0.000000 0.646492 0.595277
0.000000 0.646492 0.583132
0.139612 0.646492 0.579913
0.316638 0.646492 0.579913
0.496697 0.646492 0.579913
0.671532 0.638980 0.572401
0.813218 0.596474 0.529895
0.956095 0.553611 0.487032
1.000000 0.540439 0.473861
0.000000 0.771884 0.595277
0.000000 0.771884 0.561502
0.101994 0.771884 0.542295
0.279021 0.771884 0.542295
0.459079 0.771884 0.542295
0.641427 0.771884 0.542295
0.813218 0.759483 0.529895
0.956095 0.716620 0.487032
1.000000 0.703449 0.473861
0.000000 0.900000 0.595277
0.000000 0.900000 0.546620
0.063559 0.900000 0.503861
0.240586 0.900000 0.503861
0.420644 0.900000 0.503861
0.602992 0.900000 0.503861
0.787183 0.900000 0.503861
0.956095 0.883171 0.487032
1.000000 0.870000 0.473861
0.000000 0.000000 0.735841
0.123922 0.000000 0.735841
0.256584 0.000000 0.735841
0.392758 0.000000 0.735841
0.531265 0.000000 0.735841
0.671532 0.000000 0.735841
0.813218 0.000000 0.735841
0.956095 0.000000 0.735841
1.000000 0.000000 0.735841
0.000000 0.082355 0.735841
0.046806 0.000000 0.735841
0.196186 0.000000 0.735841
0.349522 0.000000 0.735841
0.505484 0.000000 0.735841
0.663428 0.000000 0.735841
0.813218 0.000000 0.727122
0.956095 0.000000 0.715081
1.000000 0.000000 0.712134
0.000000 0.182757 0.735841
0.000000 0.070750 0.735841
0.112807 0.016832 0.735841
0.289834 0.016832 0.735841
0.469892 0.016832 0.735841
0.652239 0.016832 0.735841
0.813218 0.000000 0.713411
0.956095 0.000000 0.683790
1.000000 0.000000 0.676768
0.000000 0.291325 0.735841
0.000000 0.201305 0.735841
0.112807 0.157971 0.735841
0.289834 0.157971 0.735841
0.469892 0.157971 0.735841
0.652239 0.157971 0.735841
0.813218 0.134758 0.712628
0.956095 0.091895 0.669764
1.000000 0.078723 0.656593
0.000000 0.405563 0.735841
0.000000 0.338677 0.735841
0.112807 0.306479 0.735841
0.289834 0.306479 0.735841
0.469892 0.306479 0.735841
0.652239 0.306479 0.735841
0.813218 0.283266 0.712628
0.956095 0.240403 0.669764
1.000000 0.227232 0.656593
0.000000 0.524209 0.735841
0.000000 0.481351 0.735841
0.112807 0.460720 0.735841
0.289834 0.460720 0.735841
0.469892 0.460720 0.735841
0.652239 0.460720 0.735841
0.813218 0.437506 0.712628
0.956095 0.394643 0.669764
1.000000 0.381472 0.656593
0.000000 0.646492 0.735841
0.000000 0.628397 0.735841
0.112807 0.619687 0.735841
0.289834 0.619687 0.735841
0.469892 0.619687 0.735841
0.652239 0.619687 0.735841
0.813218 0.596474 0.712628
0.956095 0.553611 0.669764
1.000000 0.540439 0.656593
0.000000 0.771884 0.735841
0.000000 0.771884 0.728948
0.101994 0.771884 0.725028
0.279021 0.771884 0.725028
0.459079 0.771884 0.725028
0.641427 0.771884 0.725028
0.813218 0.759483 0.712628
0.956095 0.716620 0.669764
1.000000 0.703449 0.656593
0.000000 0.900000 0.735841
0.000000 0.900000 0.709628
0.063559 0.900000 0.686593
0.240586 0.900000 0.686593
0.420644 0.900000 0.686593
0.602992 0.900000 0.686593
0.787183 0.900000 0.686593
0.956095 0.883171 0.669764
1.000000 0.870000 0.656593
0.000000 0.000000 0.874996
0.123922 0.000000 0.874996
0.256584 0.000000 0.874996
0.392758 0.000000 0.874996
0.531265 0.000000 0.874996
0.671532 0.000000 0.874996
0.813218 0.000000 0.874996
0.956095 0.000000 0.874996
1.000000 0.000000 0.874996
0.000000 0.082355 0.874996
0.045886 0.000000 0.874996
0.192332 0.000000 0.874996
0.342654 0.000000 0.874996
0.495552 0.000000 0.874996
0.650392 0.000000 0.874996
0.806799 0.000000 0.874996
0.956095 0.000000 0.867352
1.000000 0.000000 0.863777
0.000000 0.182757 0.874996
0.000000 0.068542 0.874996
0.093318 0.000000 0.874996
0.265444 0.000000 0.874996
0.440517 0.000000 0.874996
0.617816 0.000000 0.874996
0.796908 0.000000 0.874996
0.956095 0.000000 0.855830
1.000000 0.000000 0.847042
0.000000 0.291325 0.874996
0.000000 0.195024 0.874996
0.071061 0.116224 0.874996
0.248087 0.116224 0.874996
0.428146 0.116224 0.874996
0.610493 0.116224 0.874996
0.794685 0.116224 0.874996
0.956095 0.091895 0.850666
1.000000 0.078723 0.837495
0.000000 0.405563 0.874996
0.000000 0.328110 0.874996
0.071061 0.264733 0.874996
0.248087 0.264733 0.874996
0.428146 0.264733 0.874996
0.610493 0.264733 0.874996
0.794685 0.264733 0.874996
0.956095 0.240403 0.850666
1.000000 0.227232 0.837495
0.000000 0.524209 0.874996
0.000000 0.466332 0.874996
0.071061 0.418973 0.874996
0.248087 0.418973 0.874996
0.428146 0.418973 0.874996
0.610493 0.418973 0.874996
0.794685 0.418973 0.874996
0.956095 0.394643 0.850666
1.000000 0.381472 0.837495
0.000000 0.646492 0.874996
0.000000 0.608790 0.874996
0.071061 0.577940 0.874996
0.248087 0.577940 0.874996
0.428146 0.577940 0.874996
0.610493 0.577940 0.874996
0.794685 0.577940 0.874996
0.956095 0.553611 0.850666
1.000000 0.540439 0.837495
0.000000 0.771884 0.874996
0.000000 0.754871 0.874996
0.071061 0.740950 0.874996
0.248087 0.740950 0.874996
0.428146 0.740950 0.874996
0.610493 0.740950 0.874996
0.794685 0.740950 0.874996
0.956095 0.716620 0.850666
1.000000 0.703449 0.837495
0.000000 0.900000 0.874996
0.000000 0.900000 0.871003
0.063559 0.900000 0.867495
0.240586 0.900000 0.867495
0.420644 0.900000 0.867495
0.602992 0.900000 0.867495
0.787183 0.900000 0.867495
0.956095 0.883171 0.850666
1.000000 0.870000 0.837495
0.000000 0.000000 1.000000
0.123922 0.000000 1.000000
0.256584 0.000000 1.000000
0.392758 0.000000 1.000000
0.531265 0.000000 1.000000
0.671532 0.000000 1.000000
0.813218 0.000000 1.000000
0.956095 0.000000 1.000000
1.000000 0.000000 1.000000
0.000000 0.082355 1.000000
0.045298 0.000000 1.000000
0.189866 0.000000 1.000000
0.338261 0.000000 1.000000
0.489198 0.000000 1.000000
0.642053 0.000000 1.000000
0.796455 0.000000 1.000000
0.952155 0.000000 1.000000
1.000000 0.000000 1.000000
0.000000 0.182757 1.000000
0.000000 0.067157 1.000000
0.090337 0.000000 1.000000
0.256963 0.000000 1.000000
0.426444 0.000000 1.000000
0.598078 0.000000 1.000000
0.771449 0.000000 1.000000
0.946277 0.000000 1.000000
1.000000 0.000000 1.000000
0.000000 0.291325 1.000000
0.000000 0.191083 1.000000
0.033559 0.078723 1.000000
0.210586 0.078723 1.000000
0.390644 0.078723 1.000000
0.572992 0.078723 1.000000
0.757183 0.078723 1.000000
0.942924 0.078723 1.000000
1.000000 0.078723 1.000000
0.000000 0.405563 1.000000
0.000000 0.321479 1.000000
0.033559 0.227232 1.000000
0.210586 0.227232 1.000000
0.390644 0.227232 1.000000
0.572992 0.227232 1.000000
0.757183 0.227232 1.000000
0.942924 0.227232 1.000000
1.000000 0.227232 1.000000
0.000000 0.524209 1.000000
0.000000 0.456908 1.000000
0.033559 0.381472 1.000000
0.210586 0.381472 1.000000
0.390644 0.381472 1.000000
0.572992 0.381472 1.000000
0.757183 0.381472 1.000000
0.942924 0.381472 1.000000
1.000000 0.381472 1.000000
0.000000 0.646492 1.000000
0.000000 0.596488 1.000000
0.033559 0.540439 1.000000
0.210586 0.540439 1.000000
0.390644 0.540439 1.000000
0.572992 0.540439 1.000000
0.757183 0.540439 1.000000
0.942924 0.540439 1.000000
1.000000 0.540439 1.000000
0.000000 0.771884 1.000000
0.000000 0.739616 1.000000
0.033559 0.703449 1.000000
0.210586 0.703449 1.000000
0.390644 0.703449 1.000000
0.572992 0.703449 1.000000
0.757183 0.703449 1.000000
0.942924 0.703449 1.000000
1.000000 0.703449 1.000000
0.000000 0.900000 1.000000
0.000000 0.885855 1.000000
0.033559 0.870000 1.000000
0.210586 0.870000 1.000000
0.390644 0.870000 1.000000
0.572992 0.870000 1.000000
0.757183 0.870000 1.000000
0.942924 0.870000 1.000000
1.000000 0.870000 1.000000
0.000000 0.000000 1.000000
0.123922 0.000000 1.000000
0.256584 0.000000 1.000000
0.392758 0.000000 1.000000
0.531265 0.000000 1.000000
0.671532 0.000000 1.000000
0.813218 0.000000 1.000000
0.956095 0.000000 1.000000
1.000000 0.000000 1.000000
0.000000 0.082355 1.000000
0.045298 0.000000 1.000000
0.189866 0.000000 1.000000
0.338261 0.000000 1.000000
0.489198 0.000000 1.000000
0.642053 0.000000 1.000000
0.796455 0.000000 1.000000
0.952155 0.000000 1.000000
1.000000 0.000000 1.000000
0.000000 0.182757 1.000000
0.000000 0.067157 1.000000
0.090337 0.000000 1.000000
0.256963 0.000000 1.000000
0.426444 0.000000 1.000000
0.598078 0.000000 1.000000
0.771449 0.000000 1.000000
0.946277 0.000000 1.000000
1.000000 0.000000 1.000000
0.000000 0.291325 1.000000
0.000000 0.191083 1.000000
0.033559 0.078723 1.000000
0.210586 0.078723 1.000000
0.390644 0.078723 1.000000
0.572992 0.078723 1.000000
0.757183 0.078723 1.000000
0.942924 0.078723 1.000000
1.000000 0.078723 1.000000
0.000000 0.405563 1.000000
0.000000 0.321479 1.000000
0.033559 0.227232 1.000000
0.210586 0.227232 1.000000
0.390644 0.227232 1.000000
0.572992 0.227232 1.000000
0.757183 0.227232 1.000000
0.942924 0.227232 1.000000
1.000000 0.227232 1.000000
0.000000 0.524209 1.000000
0.000000 0.456908 1.000000
0.033559 0.381472 1.000000
0.210586 0.381472 1.000000
0.390644 0.381472 1.000000
0.572992 0.381472 1.000000
0.757183 0.381472 1.000000
0.942924 0.381472 1.000000
1.000000 0.381472 1.000000
0.000000 0.646492 1.000000
0.000000 0.596488 1.000000
0.033559 0.540439 1.000000
0.210586 0.540439 1.000000
0.390644 0.540439 1.000000
0.572992 0.540439 1.000000
0.757183 0.540439 1.000000
0.942924 0.540439 1.000000
1.000000 0.540439 1.000000
0.000000 0.771884 1.000000
0.000000 0.739616 1.000000
0.033559 0.703449 1.000000
0.210586 0.703449 1.000000
0.390644 0.703449 1.000000
0.572992 0.703449 1.000000
0.757183 0.703449 1.000000
0.942924 0.703449 1.000000
1.000000 0.703449 1.000000
0.000000 0.900000 1.000000
0.000000 0.885855 1.000000
0.033559 0.870000 1.000000
0.210586 0.870000 1.000000
0.390644 0.870000 1.000000
0.572992 0.870000 1.000000
0.757183 0.870000 1.000000
0.942924 0.870000 1.000000
1.000000 0.870000 1.000000
